;FLAVOR:Marlin
;TIME:25738
;Filament used: 30.9959m
;Layer height: 0.2
;Generated with Cura_SteamEngine 3.4.1
M190 S35
M104 S200
M109 S200
M82 ;absolute extrusion mode
G28 ;Home
G1 Z15.0 F6000 ;Move the platform down 15mm
;Prime the extruder
G92 E0
G1 F200 E3
G92 E0
G92 E0
G1 F2400 E-5
;LAYER_COUNT:53
;LAYER:0
M107
M204 S5000
M205 X30 Y30
G0 F3600 X84.83 Y47.663 Z0.2
M204 S500
M205 X20 Y20
;TYPE:SKIRT
G1 F2400 E0
G1 F1800 X85.046 Y47.348 E0.0127
G1 X85.42 Y46.836 E0.03379
G1 X85.873 Y46.283 E0.05757
G1 X86.386 Y45.784 E0.08137
G1 X86.869 Y45.403 E0.10183
G1 X87.46 Y44.981 E0.12599
G1 X88.064 Y44.598 E0.14977
G1 X88.708 Y44.285 E0.17359
G1 X89.236 Y44.091 E0.1923
G1 X89.669 Y43.953 E0.20741
G1 X90.361 Y43.774 E0.23119
G1 X91.069 Y43.674 E0.25497
G1 X91.6 Y43.651 E0.27265
G1 X115.798 Y43.607 E1.07748
G1 X116.415 Y43.636 E1.09802
G1 X121.053 Y44.076 E1.25297
G1 X126.406 Y44.376 E1.43129
G1 X131.691 Y44.372 E1.60707
G1 X137.043 Y44.066 E1.78537
G1 X141.183 Y43.657 E1.92374
G1 X141.809 Y43.626 E1.94459
G1 X166.035 Y43.613 E2.75035
G1 X166.749 Y43.653 E2.77413
G1 X167.512 Y43.785 E2.79989
G1 X168.34 Y43.981 E2.82819
G1 X169.026 Y44.185 E2.85199
G1 X169.685 Y44.463 E2.87578
G1 X170.308 Y44.814 E2.89956
G1 X170.848 Y45.199 E2.92162
G1 X171.535 Y45.745 E2.95081
G1 X172.069 Y46.22 E2.97458
G1 X172.547 Y46.753 E2.99839
G1 X172.962 Y47.335 E3.02217
G1 X173.161 Y47.67 E3.03513
G1 X173.463 Y48.219 E3.05597
G1 X173.772 Y48.864 E3.07975
G1 X174.061 Y49.742 E3.1105
G1 X174.17 Y50.175 E3.12535
G1 X174.306 Y50.877 E3.14913
G1 X174.364 Y51.736 E3.17777
G1 X174.39 Y249.99 E9.77172
G1 X174.35 Y250.704 E9.79551
G1 X174.231 Y251.41 E9.81932
G1 X174.034 Y252.097 E9.84309
G1 X173.761 Y252.758 E9.86688
G1 X173.416 Y253.385 E9.89068
G1 X173.003 Y253.969 E9.91447
G1 X172.528 Y254.504 E9.93826
G1 X171.996 Y254.982 E9.96205
G1 X171.414 Y255.398 E9.98585
G1 X170.79 Y255.746 E10.00961
G1 X170.13 Y256.023 E10.03342
G1 X169.444 Y256.224 E10.05719
G1 X168.739 Y256.347 E10.08099
G1 X167.99 Y256.391 E10.10595
G1 X90.009 Y256.39 E12.69961
G1 X89.295 Y256.35 E12.72339
G1 X88.59 Y256.231 E12.74717
G1 X87.902 Y256.033 E12.77098
G1 X87.241 Y255.76 E12.79477
G1 X86.614 Y255.415 E12.81857
G1 X86.03 Y255.003 E12.84234
G1 X85.496 Y254.528 E12.86612
G1 X85.017 Y253.996 E12.88993
G1 X84.602 Y253.414 E12.9137
G1 X84.253 Y252.789 E12.93751
G1 X83.977 Y252.129 E12.9613
G1 X83.776 Y251.443 E12.98508
G1 X83.653 Y250.738 E13.00888
G1 X83.609 Y249.99 E13.0338
G1 X83.613 Y51.96 E19.62031
G1 X83.653 Y51.246 E19.64409
G1 X83.79 Y50.466 E19.67043
G1 X83.991 Y49.629 E19.69906
G1 X84.197 Y48.943 E19.72289
G1 X84.477 Y48.286 E19.74664
G1 X84.83 Y47.663 E19.77045
M204 S5000
M205 X30 Y30
G0 F3600 X85.369 Y47.584
M204 S500
M205 X20 Y20
G1 F1800 X85.743 Y47.072 E19.79154
G1 X86.183 Y46.537 E19.81458
G1 X86.682 Y46.057 E19.83761
G1 X87.101 Y45.728 E19.85533
G1 X87.692 Y45.306 E19.87948
G1 X88.278 Y44.937 E19.90252
G1 X88.903 Y44.638 E19.92556
G1 X89.357 Y44.472 E19.94164
G1 X89.79 Y44.334 E19.95675
G1 X90.461 Y44.162 E19.97979
G1 X91.147 Y44.069 E20.00282
G1 X91.601 Y44.051 E20.01793
G1 X115.799 Y44.007 E20.82276
G1 X116.377 Y44.034 E20.84201
G1 X121.019 Y44.475 E20.99709
G1 X126.401 Y44.776 E21.17638
G1 X131.713 Y44.772 E21.35306
G1 X137.057 Y44.466 E21.53109
G1 X141.222 Y44.055 E21.67029
G1 X141.809 Y44.026 E21.68984
G1 X166.035 Y44.013 E22.4956
G1 X166.726 Y44.053 E22.51862
G1 X167.42 Y44.174 E22.54205
G1 X168.248 Y44.37 E22.57035
G1 X168.912 Y44.569 E22.59341
G1 X169.548 Y44.842 E22.61643
G1 X170.149 Y45.187 E22.63948
G1 X170.599 Y45.512 E22.65794
G1 X171.286 Y46.058 E22.68713
G1 X171.803 Y46.519 E22.71016
G1 X172.262 Y47.037 E22.73318
G1 X172.81 Y47.863 E22.76615
G1 X173.112 Y48.412 E22.78699
G1 X173.41 Y49.037 E22.81002
G1 X173.673 Y49.839 E22.8381
G1 X173.782 Y50.272 E22.85295
G1 X173.912 Y50.953 E22.87601
G1 X173.964 Y51.736 E22.90211
G1 X173.99 Y249.99 E29.49606
G1 X173.95 Y250.682 E29.51911
G1 X173.831 Y251.364 E29.54214
G1 X173.634 Y252.028 E29.56518
G1 X173.361 Y252.664 E29.5882
G1 X173.018 Y253.266 E29.61124
G1 X172.607 Y253.823 E29.63426
G1 X172.134 Y254.33 E29.65733
G1 X171.607 Y254.778 E29.68033
G1 X171.031 Y255.163 E29.70338
G1 X170.415 Y255.479 E29.7264
G1 X169.766 Y255.722 E29.74945
G1 X169.094 Y255.889 E29.77248
G1 X168.407 Y255.976 E29.79551
G1 X167.99 Y255.991 E29.80939
G1 X90.009 Y255.99 E32.40305
G1 X89.318 Y255.95 E32.42607
G1 X88.635 Y255.831 E32.44913
G1 X87.972 Y255.633 E32.47215
G1 X87.335 Y255.361 E32.49518
G1 X86.734 Y255.017 E32.51822
G1 X86.176 Y254.606 E32.54127
G1 X85.67 Y254.134 E32.56428
G1 X85.221 Y253.606 E32.58733
G1 X84.836 Y253.03 E32.61038
G1 X84.521 Y252.414 E32.63339
G1 X84.278 Y251.766 E32.65641
G1 X84.111 Y251.093 E32.67947
G1 X84.023 Y250.406 E32.70251
G1 X84.009 Y249.99 E32.71635
G1 X84.013 Y51.96 E39.30285
G1 X84.053 Y51.269 E39.32587
G1 X84.179 Y50.559 E39.34986
G1 X84.38 Y49.722 E39.37849
G1 X84.58 Y49.059 E39.40152
G1 X84.856 Y48.424 E39.42455
G1 X85.369 Y47.584 E39.45729
M204 S5000
M205 X30 Y30
G0 F3600 X85.692 Y47.82
M204 S500
M205 X20 Y20
G1 F1800 X86.066 Y47.308 E39.47838
G1 X86.492 Y46.792 E39.50063
G1 X86.977 Y46.331 E39.52289
G1 X87.334 Y46.054 E39.53792
G1 X87.925 Y45.632 E39.56207
G1 X88.492 Y45.276 E39.58434
G1 X89.097 Y44.991 E39.60658
G1 X89.479 Y44.853 E39.62009
G1 X89.912 Y44.715 E39.6352
G1 X90.56 Y44.551 E39.65744
G1 X91.223 Y44.464 E39.67968
G1 X91.602 Y44.451 E39.69229
G1 X115.8 Y44.407 E40.49712
G1 X116.339 Y44.432 E40.51507
G1 X121.01 Y44.875 E40.67112
G1 X126.379 Y45.176 E40.84998
G1 X131.718 Y45.172 E41.02755
G1 X137.094 Y44.865 E41.20665
G1 X141.261 Y44.453 E41.34592
G1 X141.809 Y44.426 E41.36417
G1 X166.035 Y44.413 E42.16993
G1 X166.703 Y44.453 E42.19219
G1 X167.328 Y44.564 E42.2133
G1 X168.156 Y44.76 E42.2416
G1 X168.797 Y44.952 E42.26386
G1 X169.41 Y45.22 E42.28611
G1 X169.987 Y45.559 E42.30837
G1 X170.35 Y45.825 E42.32333
G1 X171.037 Y46.371 E42.35252
G1 X171.535 Y46.818 E42.37478
G1 X171.976 Y47.321 E42.39703
G1 X172.46 Y48.056 E42.4263
G1 X172.762 Y48.605 E42.44714
G1 X173.048 Y49.209 E42.46937
G1 X173.286 Y49.937 E42.49484
G1 X173.395 Y50.37 E42.50969
G1 X173.519 Y51.027 E42.53193
G1 X173.564 Y51.736 E42.55556
G1 X173.59 Y249.99 E49.14951
G1 X173.55 Y250.658 E49.17177
G1 X173.431 Y251.316 E49.19401
G1 X173.234 Y251.956 E49.21628
G1 X172.962 Y252.567 E49.23853
G1 X172.62 Y253.142 E49.26078
G1 X172.211 Y253.671 E49.28302
G1 X171.742 Y254.148 E49.30527
G1 X171.219 Y254.566 E49.32754
G1 X170.65 Y254.919 E49.34981
G1 X170.044 Y255.201 E49.37204
G1 X169.408 Y255.409 E49.39429
G1 X168.752 Y255.539 E49.41654
G1 X167.99 Y255.591 E49.44194
G1 X90.009 Y255.59 E52.0356
G1 X89.341 Y255.55 E52.05786
G1 X88.683 Y255.431 E52.0801
G1 X88.043 Y255.234 E52.10237
G1 X87.432 Y254.962 E52.12461
G1 X86.858 Y254.619 E52.14685
G1 X86.328 Y254.21 E52.16912
G1 X85.851 Y253.741 E52.19137
G1 X85.433 Y253.218 E52.21364
G1 X85.081 Y252.65 E52.23586
G1 X84.799 Y252.043 E52.25812
G1 X84.591 Y251.407 E52.28038
G1 X84.461 Y250.751 E52.30262
G1 X84.409 Y249.99 E52.32799
G1 X84.413 Y51.96 E58.9145
G1 X84.453 Y51.292 E58.93676
G1 X84.568 Y50.652 E58.95838
G1 X84.769 Y49.815 E58.98701
G1 X84.964 Y49.175 E59.00927
G1 X85.233 Y48.563 E59.0315
G1 X85.692 Y47.82 E59.06055
M204 S5000
M205 X30 Y30
G0 F3600 X86.015 Y48.056
M204 S500
M205 X20 Y20
G1 F1800 X86.389 Y47.544 E59.08164
G1 X86.801 Y47.048 E59.10308
G1 X87.271 Y46.606 E59.12454
G1 X87.566 Y46.379 E59.13692
G1 X88.157 Y45.957 E59.16108
G1 X88.704 Y45.616 E59.18251
G1 X89.289 Y45.345 E59.20396
G1 X89.6 Y45.235 E59.21493
G1 X90.033 Y45.097 E59.23005
G1 X90.658 Y44.939 E59.25149
G1 X91.603 Y44.851 E59.28305
G1 X115.801 Y44.807 E60.08788
G1 X116.302 Y44.83 E60.10456
G1 X120.978 Y45.274 E60.26079
G1 X126.374 Y45.576 E60.44054
G1 X131.724 Y45.572 E60.61848
G1 X137.133 Y45.263 E60.79868
G1 X141.301 Y44.851 E60.93798
G1 X141.809 Y44.826 E60.9549
G1 X166.035 Y44.813 E61.76066
G1 X166.679 Y44.853 E61.78212
G1 X167.236 Y44.953 E61.80094
G1 X168.064 Y45.149 E61.82924
G1 X168.681 Y45.336 E61.85069
G1 X169.27 Y45.598 E61.87213
G1 X169.822 Y45.931 E61.89357
G1 X170.101 Y46.138 E61.90512
G1 X170.788 Y46.684 E61.93431
G1 X171.267 Y47.116 E61.95577
G1 X171.689 Y47.603 E61.9772
G1 X172.109 Y48.249 E62.00283
G1 X172.411 Y48.798 E62.02367
G1 X172.686 Y49.381 E62.04511
G1 X172.898 Y50.035 E62.06797
G1 X173.007 Y50.468 E62.08282
G1 X173.125 Y51.101 E62.10424
G1 X173.164 Y51.736 E62.1254
G1 X173.19 Y249.99 E68.71935
G1 X173.15 Y250.634 E68.74082
G1 X173.031 Y251.267 E68.76224
G1 X172.834 Y251.881 E68.78369
G1 X172.563 Y252.466 E68.80513
G1 X172.222 Y253.013 E68.82657
G1 X171.815 Y253.513 E68.84801
G1 X171.35 Y253.96 E68.86946
G1 X170.833 Y254.345 E68.8909
G1 X170.273 Y254.663 E68.91232
G1 X169.677 Y254.91 E68.93378
G1 X169.055 Y255.081 E68.95524
G1 X168.417 Y255.173 E68.97668
G1 X167.99 Y255.191 E68.99089
G1 X90.009 Y255.19 E71.58455
G1 X89.366 Y255.15 E71.60598
G1 X88.732 Y255.031 E71.62743
G1 X88.118 Y254.834 E71.64888
G1 X87.533 Y254.563 E71.67032
G1 X86.986 Y254.221 E71.69178
G1 X86.486 Y253.815 E71.7132
G1 X86.04 Y253.349 E71.73465
G1 X85.655 Y252.833 E71.75607
G1 X85.336 Y252.272 E71.77753
G1 X85.09 Y251.676 E71.79898
G1 X84.919 Y251.055 E71.8204
G1 X84.827 Y250.417 E71.84184
G1 X84.809 Y249.99 E71.85606
G1 X84.813 Y51.96 E78.44256
G1 X84.853 Y51.316 E78.46402
G1 X84.957 Y50.746 E78.48329
G1 X85.158 Y49.909 E78.51192
G1 X85.347 Y49.292 E78.53338
G1 X85.611 Y48.704 E78.55482
G1 X86.015 Y48.056 E78.58022
M204 S5000
M205 X30 Y30
G1 F2400 E73.58022
G1 F300 Z0.7
G0 F3600 X117.594 Y51.965 Z0.7
M204 S500
M205 X20 Y20
;TYPE:WALL-INNER
G1 F300 Z0.2
G1 F2400 E78.58022
G1 F1800 X119.131 Y52.43 E78.63363
G1 X120.559 Y53.196 E78.68753
G1 X121.793 Y54.207 E78.74059
G1 X122.804 Y55.441 E78.79364
G1 X123.57 Y56.869 E78.84754
G1 X124.035 Y58.406 E78.90095
G1 X124.2 Y60.086 E78.9571
G1 X124.2 Y248.2 E85.21379
G1 X91.8 Y248.2 E86.29142
G1 X91.8 Y52.116 E92.8132
G1 X91.818 Y51.95 E92.81876
G1 X91.852 Y51.883 E92.82125
G1 X91.883 Y51.852 E92.82271
G1 X91.95 Y51.818 E92.82521
G1 X92.116 Y51.8 E92.83077
G1 X115.914 Y51.8 E93.62229
G1 X117.594 Y51.965 E93.67844
M204 S5000
M205 X30 Y30
G0 F3600 X117.674 Y51.571
M204 S500
M205 X20 Y20
G1 F1800 X119.286 Y52.059 E93.73445
G1 X120.778 Y52.859 E93.79076
G1 X122.077 Y53.923 E93.84661
G1 X123.141 Y55.222 E93.90246
G1 X123.941 Y56.714 E93.95877
G1 X124.429 Y58.326 E94.01478
G1 X124.6 Y60.067 E94.07297
G1 X124.6 Y248.6 E100.3436
G1 X91.4 Y248.6 E101.44784
G1 X91.4 Y52.091 E107.98375
G1 X91.425 Y51.861 E107.99145
G1 X91.466 Y51.746 E107.99551
G1 X91.538 Y51.631 E108.00002
G1 X91.631 Y51.538 E108.0044
G1 X91.746 Y51.466 E108.00891
G1 X91.861 Y51.425 E108.01297
G1 X92.091 Y51.4 E108.02067
G1 X115.933 Y51.4 E108.81365
G1 X117.674 Y51.571 E108.87184
M204 S5000
M205 X30 Y30
G0 F3600 X117.754 Y51.177
M204 S500
M205 X20 Y20
G1 F1800 X119.441 Y51.688 E108.93047
G1 X120.997 Y52.522 E108.98918
G1 X122.361 Y53.639 E109.04782
G1 X123.478 Y55.003 E109.10646
G1 X124.312 Y56.559 E109.16518
G1 X124.823 Y58.246 E109.2238
G1 X125 Y60.048 E109.28403
G1 X125 Y249 E115.5686
G1 X91 Y249 E116.69944
G1 X91 Y52.065 E123.24953
G1 X91.032 Y51.776 E123.2592
G1 X91.105 Y51.568 E123.26653
G1 X91.223 Y51.38 E123.27391
G1 X91.38 Y51.223 E123.2813
G1 X91.568 Y51.105 E123.28868
G1 X91.776 Y51.032 E123.29601
G1 X92.065 Y51 E123.30568
G1 X115.952 Y51 E124.10017
G1 X117.754 Y51.177 E124.16039
M204 S5000
M205 X30 Y30
G0 F3600 X117.834 Y50.783
M204 S500
M205 X20 Y20
G1 F1800 X119.596 Y51.317 E124.22163
G1 X121.219 Y52.186 E124.28286
G1 X122.645 Y53.355 E124.34419
G1 X123.814 Y54.781 E124.40552
G1 X124.683 Y56.404 E124.46675
G1 X125.217 Y58.166 E124.52798
G1 X125.4 Y60.029 E124.59025
G1 X125.4 Y249.4 E130.88875
G1 X90.6 Y249.4 E132.0462
G1 X90.6 Y52.039 E138.61046
G1 X90.639 Y51.687 E138.62224
G1 X90.742 Y51.393 E138.6326
G1 X90.908 Y51.129 E138.64297
G1 X91.129 Y50.908 E138.65337
G1 X91.393 Y50.742 E138.66374
G1 X91.687 Y50.639 E138.6741
G1 X92.039 Y50.6 E138.68588
G1 X115.971 Y50.6 E139.48186
G1 X117.834 Y50.783 E139.54412
M204 S5000
M205 X30 Y30
G0 F3600 X117.914 Y50.389
M204 S500
M205 X20 Y20
;TYPE:WALL-OUTER
G1 F1800 X119.751 Y50.946 E139.60797
G1 X121.441 Y51.85 E139.67171
G1 X122.929 Y53.071 E139.73573
G1 X124.15 Y54.559 E139.79975
G1 X125.054 Y56.249 E139.8635
G1 X125.611 Y58.086 E139.92735
G1 X125.8 Y60.01 E139.99165
G1 X125.8 Y249.8 E146.30409
G1 X90.2 Y249.8 E147.48815
G1 X90.2 Y52.013 E154.06657
G1 X90.246 Y51.6 E154.08039
G1 X90.381 Y51.216 E154.09393
G1 X90.593 Y50.878 E154.1072
G1 X90.878 Y50.593 E154.12061
G1 X91.216 Y50.381 E154.13388
G1 X91.6 Y50.246 E154.14741
G1 X92.013 Y50.2 E154.16124
G1 X115.99 Y50.2 E154.95871
G1 X117.914 Y50.389 E155.02301
M204 S5000
M205 X30 Y30
G0 F3600 X118.105 Y50.447
G0 X117.959 Y50.924
G0 X117.519 Y52.349
M204 S500
M205 X20 Y20
;TYPE:SKIN
G1 F1800 X118.981 Y52.792 E155.07382
G1 X120.34 Y53.52 E155.1251
G1 X121.516 Y54.484 E155.17568
G1 X122.48 Y55.66 E155.22625
G1 X123.208 Y57.019 E155.27753
G1 X123.651 Y58.481 E155.32834
G1 X123.81 Y60.105 E155.38261
G1 X123.81 Y247.81 E161.62571
G1 X92.19 Y247.81 E162.67739
G1 X92.19 Y52.19 E169.18374
G1 X115.895 Y52.19 E169.97217
G1 X117.519 Y52.349 E170.02644
M204 S5000
M205 X30 Y30
G0 F3600 X108.21 Y232.21
M204 S500
M205 X20 Y20
G1 F1800 X107.79 Y232.21 E170.04041
G1 X107.79 Y67.79 E175.50904
G1 X108.21 Y67.79 E175.52301
G1 X108.21 Y232.21 E180.99165
M204 S5000
M205 X30 Y30
G0 F3600 X108.61 Y232.61
M204 S500
M205 X20 Y20
G1 F1800 X107.39 Y232.61 E181.03222
G1 X107.39 Y67.39 E186.52746
G1 X108.61 Y67.39 E186.56804
G1 X108.61 Y232.61 E192.06328
M204 S5000
M205 X30 Y30
G0 F3600 X109.01 Y233.01
M204 S500
M205 X20 Y20
G1 F1800 X106.99 Y233.01 E192.13046
G1 X106.99 Y66.99 E197.65231
G1 X109.01 Y66.99 E197.7195
G1 X109.01 Y233.01 E203.24135
M204 S5000
M205 X30 Y30
G0 F3600 X109.41 Y233.41
M204 S500
M205 X20 Y20
G1 F1800 X106.59 Y233.41 E203.33514
G1 X106.59 Y66.59 E208.88359
G1 X109.41 Y66.59 E208.97739
G1 X109.41 Y233.41 E214.52584
M204 S5000
M205 X30 Y30
G0 F3600 X109.81 Y233.81
M204 S500
M205 X20 Y20
G1 F1800 X106.19 Y233.81 E214.64625
G1 X106.19 Y66.19 E220.22131
G1 X109.81 Y66.19 E220.34171
G1 X109.81 Y233.81 E225.91677
M204 S5000
M205 X30 Y30
G0 F3600 X110.21 Y234.21
M204 S500
M205 X20 Y20
G1 F1800 X105.79 Y234.21 E226.06378
G1 X105.79 Y65.79 E231.66546
G1 X110.21 Y65.79 E231.81247
G1 X110.21 Y234.21 E237.41414
M204 S5000
M205 X30 Y30
G0 F3600 X110.61 Y234.61
M204 S500
M205 X20 Y20
G1 F1800 X105.39 Y234.61 E237.58776
G1 X105.39 Y65.39 E243.21604
G1 X110.61 Y65.39 E243.38965
G1 X110.61 Y234.61 E249.01793
M204 S5000
M205 X30 Y30
G0 F3600 X111.01 Y235.01
M204 S500
M205 X20 Y20
G1 F1800 X104.99 Y235.01 E249.21816
G1 X104.99 Y64.99 E254.87305
G1 X111.01 Y64.99 E255.07327
G1 X111.01 Y235.01 E260.72816
M204 S5000
M205 X30 Y30
G0 F3600 X111.41 Y235.41
M204 S500
M205 X20 Y20
G1 F1800 X104.59 Y235.41 E260.955
G1 X104.59 Y64.59 E266.63649
G1 X111.41 Y64.59 E266.86333
G1 X111.41 Y235.41 E272.54482
M204 S5000
M205 X30 Y30
G0 F3600 X111.81 Y235.81
M204 S500
M205 X20 Y20
G1 F1800 X104.19 Y235.81 E272.79827
G1 X104.19 Y64.19 E278.50637
G1 X111.81 Y64.19 E278.75981
G1 X111.81 Y235.81 E284.46792
M204 S5000
M205 X30 Y30
G0 F3600 X112.21 Y236.21
M204 S500
M205 X20 Y20
G1 F1800 X103.79 Y236.21 E284.74797
G1 X103.79 Y63.79 E290.48268
G1 X112.21 Y63.79 E290.76273
G1 X112.21 Y236.21 E296.49744
M204 S5000
M205 X30 Y30
G0 F3600 X112.61 Y236.61
M204 S500
M205 X20 Y20
G1 F1800 X103.39 Y236.61 E296.8041
G1 X103.39 Y63.39 E302.56542
G1 X112.61 Y63.39 E302.87208
G1 X112.61 Y236.61 E308.6334
M204 S5000
M205 X30 Y30
G0 F3600 X113.01 Y237.01
M204 S500
M205 X20 Y20
G1 F1800 X102.99 Y237.01 E308.96667
G1 X102.99 Y62.99 E314.7546
G1 X113.01 Y62.99 E315.08786
G1 X113.01 Y237.01 E320.87579
M204 S5000
M205 X30 Y30
G0 F3600 X113.41 Y237.41
M204 S500
M205 X20 Y20
G1 F1800 X102.59 Y237.41 E321.23567
G1 X102.59 Y62.59 E327.0502
G1 X113.41 Y62.59 E327.41008
G1 X113.41 Y237.41 E333.22461
M204 S5000
M205 X30 Y30
G0 F3600 X113.81 Y237.81
M204 S500
M205 X20 Y20
G1 F1800 X102.19 Y237.81 E333.6111
G1 X102.19 Y62.19 E339.45224
G1 X113.81 Y62.19 E339.83872
