;FLAVOR:Marlin
;TIME:25738
;Filament used: 30.9959m
;Layer height: 0.2
;Generated with Cura_SteamEngine 3.4.1
M190 S35
M104 S200
M109 S200
M82 ;absolute extrusion mode
G28 ;Home
G1 Z15.0 F6000 ;Move the platform down 15mm
;Prime the extruder
G92 E0
G1 F200 E3
G92 E0
G92 E344.86116
G1 F2400 E340
;LAYER_COUNT:53
;LAYER:0
M107
M204 S5000
M205 X30 Y30
G0 F3600 X94.021 Y75.426 Z11.7
M204 S500
M205 X20 Y20
M106 S255

G0 F7200 X108.746 Y187.849 Z10.9

;TYPE:WALL-INNER
G1 F300 Z10.4
G1 F2400 E349.86116
G1 F3600 X108.43 Y188.601 E349.88829
G1 X108.308 Y189.128 E349.90628
G1 X108.258 Y189.665 E349.92422
G1 X108.313 Y190.476 E349.95125
G1 X108.542 Y191.266 E349.97861
G1 X108.923 Y191.97 E350.00523
G1 X109.431 Y192.563 E350.03121
G1 X110.03 Y193.024 E350.05635
G1 X110.689 Y193.353 E350.08084
G1 X111.313 Y193.528 E350.1024
G1 X111.397 Y193.551 E350.1053
G1 X111.665 Y193.575 E350.11424
G1 X111.522 Y193.696 E350.11512
G1 X111.356 Y193.837 E350.12091
G1 X111.299 Y193.903 E350.12347
G1 X110.917 Y194.347 E350.14295
G1 X110.773 Y194.613 E350.15301
G1 X110.303 Y194.588 E350.16867
G1 X109.13 Y194.428 E350.20804
G1 X107.672 Y192.859 E350.27928
G1 X106.12 Y191.528 E350.34728
G1 X106.015 Y191.438 E350.35188
G1 X105.97 Y191.4 E350.35384
G1 X106.118 Y191.318 E350.35684
G1 X106.222 Y191.227 E350.36038
G1 X106.705 Y190.806 E350.38169
G1 X107.175 Y190.178 E350.40778
G1 X107.514 Y189.51 E350.4327
G1 X107.71 Y188.899 E350.45404
G1 X107.796 Y188.241 E350.47611
G1 X107.727 Y187.394 E350.50437
G1 X107.491 Y186.602 E350.53186
G1 X107.104 Y185.893 E350.55873
G1 X106.583 Y185.283 E350.58541
G1 X105.945 Y184.794 E350.61214
G1 X105.211 Y184.452 E350.63908
G1 X105.206 Y184.45 E350.63926
G1 X105.006 Y184.406 E350.64607
G1 X104.938 Y184.391 E350.64838
G1 X104.961 Y184.34
G1 X105.076 Y184.084 E350.65509
G1 X105.079 Y184.079 E350.65528
G1 X105.681 Y183.158 E350.69188
G1 X105.761 Y183.088 E350.69541
G1 X105.882 Y182.981 E350.70079
G1 X106.105 Y182.862 E350.70919
G1 X106.114 Y182.957
G1 X106.13 Y183.118 E350.71357
G1 X106.161 Y183.417 E350.72357
G1 X106.401 Y184.168 E350.74979
G1 X106.779 Y184.852 E350.77579
G1 X107.294 Y185.446 E350.80193
G1 X107.923 Y185.925 E350.82823
G1 X108.659 Y186.27 E350.85527
G1 X109.447 Y186.437 E350.88206
G1 X109.565 Y186.439 E350.88598
G1 X109.87 Y186.443 E350.89613
G1 X110.078 Y186.447 E350.90305
G1 X110.175 Y186.434 E350.9063
G1 X110.096 Y186.478 E350.90635
G1 X109.868 Y186.604 E350.90933
G1 X109.642 Y186.807 E350.91661
G1 X109.24 Y187.168 E350.93458
G1 X108.746 Y187.849 E350.96256
M204 S5000
M205 X30 Y30
G0 F7200 X111.661 Y187.079
G0 X112.227 Y187.024
G0 X112.77 Y187.088
G0 X113.191 Y187.232
G0 X116.661 Y189.218
M204 S500
M205 X20 Y20
G1 F3600 X116.351 Y189.95 E350.989
G1 X116.347 Y189.96 E350.98936
G1 X116.314 Y190.102 E350.99421
G1 X116.224 Y190.489 E351.00743
G1 X116.19 Y190.86 E351.01982
G1 X116.189 Y190.879 E351.02045
G1 X116.174 Y191.028 E351.02543
G1 X116.229 Y191.839 E351.05247
G1 X116.458 Y192.632 E351.07992
G1 X116.827 Y193.311 E351.10562
G1 X116.841 Y193.337 E351.1066
G1 X117.07 Y193.602 E351.11825
G1 X117.346 Y193.922 E351.13231
G1 X117.739 Y194.227 E351.14885
G1 X117.763 Y194.246 E351.14987
G1 X117.713 Y194.262 E351.15044
G1 X117.417 Y194.315 E351.15498
G1 X117.233 Y194.348 E351.16119
G1 X117.069 Y194.14 E351.17
G1 X116.818 Y193.821 E351.18152
G1 X116.595 Y193.638 E351.19007
G1 X116.572 Y193.619 E351.19105
G1 X116.202 Y193.316 E351.20695
G1 X115.506 Y192.959 E351.23297
G1 X114.802 Y192.762 E351.25728
G1 X114.791 Y192.759 E351.25766
G1 X114.767 Y192.752 E351.2585
G1 X114.507 Y192.733 E351.26717
G1 X114.642 Y192.613 E351.26796
G1 X114.894 Y192.389 E351.2775
G1 X114.901 Y192.38 E351.27787
G1 X115.209 Y191.992 E351.29435
G1 X115.48 Y191.561 E351.31128
G1 X115.79 Y190.841 E351.33735
G1 X115.797 Y190.824 E351.33796
G1 X115.874 Y190.422 E351.35076
G1 X115.952 Y190.019 E351.36319
G1 X115.952 Y189.968 E351.36475
G1 X115.952 Y189.957 E351.36511
G1 X115.937 Y189.228 E351.38936
G1 X115.77 Y188.466 E351.41531
G1 X115.508 Y187.886 E351.43647
G1 X115.456 Y187.771 E351.44067
G1 X115.253 Y187.482 E351.45242
G1 X115.49 Y187.514 E351.45425
G1 X115.615 Y187.531 E351.4578
G1 X117.52 Y187.796 E351.52177
G1 X117.805 Y187.835 E351.53134
G1 X117.981 Y187.86 E351.53725
G1 X117.788 Y187.967 E351.53934
G1 X117.573 Y188.158 E351.546
G1 X117.155 Y188.531 E351.56463
G1 X116.661 Y189.218 E351.59277
M204 S5000
M205 X30 Y30
G0 F7200 X113.629 Y191.96
G0 X108.144 Y195.079
G0 X106.865 Y193.698
G0 X105.232 Y192.296
G0 X104.165 Y191.548
G0 X103.521 Y193.205
G0 X103.479 Y193.496
G0 X103.549 Y200.169
M204 S500
M205 X20 Y20
G1 F3600 X104.132 Y200.53 E351.61558
G1 X104.611 Y200.66 E351.63209
G1 X105.123 Y200.732 E351.64929
G1 X105.245 Y200.735 E351.65334
G1 X105.497 Y201.092 E351.66788
G1 X106.632 Y202.828 E351.73686
G1 X106.421 Y203.066 E351.74744
G1 X106.286 Y203.291 E351.75617
G1 X106.218 Y203.406 E351.76061
G1 X106.168 Y203.489 E351.76384
G1 X106.041 Y203.3 E351.76792
G1 X105.954 Y203.199 E351.77148
G1 X105.721 Y202.927 E351.78339
G1 X104.892 Y202.206 E351.81993
G1 X104.07 Y201.872 E351.84944
G1 X103.315 Y201.741 E351.87493
G1 X102.579 Y201.742 E351.89941
G1 X101.852 Y201.869 E351.92395
G1 X101.169 Y202.115 E351.9481
G1 X100.663 Y202.404 E351.96748
G1 X100.227 Y202.752 E351.98604
G1 X99.679 Y203.347 E352.01294
G1 X99.335 Y203.929 E352.03543
G1 X99.157 Y204.409 E352.05245
G1 X99.027 Y204.928 E352.07025
G1 X99.007 Y205.113 E352.07644
G1 X98.949 Y205.678 E352.09533
G1 X98.974 Y205.914 E352.10322
G1 X99.036 Y206.482 E352.12223
G1 X99.281 Y207.233 E352.1485
G1 X99.45 Y207.532 E352.15992
G1 X99.607 Y207.811 E352.17057
G1 X99.646 Y207.88 E352.17321
G1 X99.53 Y207.853 E352.17447
G1 X99.213 Y207.805 E352.18138
G1 X99.087 Y207.785 E352.18563
G1 X98.098 Y207.566 E352.21932
G1 X98.086 Y207.564 E352.21972
G1 X97.938 Y207.531 E352.22477
G1 X98.168 Y207.196 E352.23403
G1 X98.172 Y207.184 E352.23445
G1 X98.474 Y206.449 E352.26088
G1 X98.576 Y205.904 E352.27932
G1 X98.619 Y205.67 E352.28655
G1 X98.609 Y205.101 E352.30382
G1 X98.604 Y204.884 E352.31104
G1 X98.436 Y204.113 E352.33729
G1 X98.127 Y203.415 E352.36268
G1 X97.843 Y202.991 E352.37965
G1 X97.587 Y202.693 E352.39272
G1 X97.522 Y202.617 E352.39604
G1 X97.384 Y202.497 E352.40213
G1 X97.542 Y202.538 E352.40253
G1 X97.714 Y202.584 E352.4054
G1 X97.863 Y202.592 E352.40789
G1 X97.864 Y202.592
G1 X98.513 Y202.627 E352.42951
G1 X99.287 Y202.501 E352.45559
G1 X99.91 Y202.28 E352.47757
G1 X100.528 Y201.941 E352.50102
G1 X101.118 Y201.427 E352.52704
G1 X101.593 Y200.797 E352.55329
G1 X101.93 Y200.128 E352.5782
G1 X102.127 Y199.515 E352.59962
G1 X102.212 Y198.856 E352.62172
G1 X102.144 Y198.044 E352.64882
G1 X101.92 Y197.283 E352.6752
G1 X101.56 Y196.59 E352.70118
G1 X101.421 Y196.415 E352.70861
G1 X101.371 Y196.353 E352.71126
G1 X101.475 Y196.321 E352.7123
G1 X101.578 Y196.288 E352.71431
G1 X102.308 Y195.88 E352.74212
G1 X102.507 Y195.705 E352.75094
G1 X102.695 Y195.54 E352.75926
G1 X102.813 Y195.76 E352.7643
G1 X102.814 Y195.761 E352.76435
G1 X102.951 Y196.014 E352.77392
G1 X103.468 Y196.618 E352.80036
G1 X103.758 Y196.84 E352.81251
G1 X103.53 Y197.144 E352.82515
G1 X103.234 Y197.69 E352.8458
G1 X103.092 Y198.068 E352.85923
G1 X103.001 Y198.469 E352.87291
G1 X102.98 Y198.916 E352.88779
G1 X103.102 Y199.517 E352.90819
G1 X103.549 Y200.169 E352.93448
M204 S5000
M205 X30 Y30
G0 F7200 X105.526 Y204.785
G0 X105.644 Y205.329
G0 X105.653 Y205.882
G0 X105.552 Y206.429
G0 X105.339 Y206.95
G0 X105.023 Y207.412
G0 X104.69 Y207.717
G0 X102.315 Y209.517
M204 S500
M205 X20 Y20
G1 F3600 X102.665 Y209.585 E352.94634
G1 X103.583 Y209.538 E352.97691
G1 X104.388 Y209.3 E353.00483
G1 X104.802 Y209.072 E353.02055
G1 X105.08 Y208.92 E353.03109
G1 X105.214 Y208.812 E353.03682
G1 X105.474 Y208.603 E353.04791
G1 X105.524 Y208.563 E353.05004
G1 X105.926 Y208.149 E353.06923
G1 X106.191 Y207.762 E353.08484
G1 X106.321 Y207.571 E353.09252
G1 X106.333 Y207.553 E353.09324
G1 X106.356 Y207.595 E353.09385
G1 X106.507 Y207.77 E353.09881
G1 X106.894 Y208.217 E353.11848
G1 X107.2 Y208.445 E353.13117
G1 X106.942 Y208.49 E353.13342
G1 X106.623 Y208.547 E353.1442
G1 X105.942 Y208.792 E353.16827
G1 X105.722 Y208.917 E353.17669
G1 X105.432 Y209.081 E353.18703
G1 X105.297 Y209.189 E353.19199
G1 X105.05 Y209.387 E353.2018
G1 X104.997 Y209.429 E353.20405
G1 X104.448 Y210.024 E353.23098
G1 X104.104 Y210.607 E353.25349
G1 X103.926 Y211.089 E353.27058
G1 X103.832 Y211.464 E353.28344
G1 X103.797 Y211.606 E353.2883
G1 X103.758 Y211.981 E353.30084
G1 X103.592 Y211.764 E353.30311
G1 X103.503 Y211.648 E353.3072
G1 X102.117 Y209.835 E353.3831
G1 X102.116 Y209.834 E353.38315
G1 X101.799 Y209.418 E353.40054
G1 X102.313 Y209.516 E353.40982
G1 X102.315 Y209.517 E353.40989
M204 S5000
M205 X30 Y30
G0 F7200 X104.74 Y207.704
G0 X105.023 Y207.412
G0 X105.339 Y206.95
G0 X105.552 Y206.429
G0 X105.653 Y205.882
G0 X105.644 Y205.329
G0 X105.578 Y205.021
G0 X103.831 Y199.873
M204 S500
M205 X20 Y20
G1 F3600 X104.293 Y200.159 E353.42796
G1 X104.692 Y200.267 E353.44171
G1 X105.157 Y200.333 E353.45733
G1 X105.455 Y200.341 E353.46725
G1 X105.832 Y200.873 E353.48893
G1 X107.134 Y202.864 E353.56806
G1 X106.745 Y203.303 E353.58757
G1 X106.398 Y203.882 E353.61002
G1 X106.338 Y204.04 E353.61564
G1 X106.333 Y204.054 E353.61613
G1 X106.195 Y204.417 E353.62905
G1 X105.973 Y203.918 E353.63972
G1 X105.965 Y203.906 E353.64019
G1 X105.722 Y203.542 E353.65475
G1 X105.437 Y203.21 E353.6693
G1 X104.68 Y202.552 E353.70266
G1 X103.959 Y202.259 E353.72855
G1 X103.281 Y202.141 E353.75144
G1 X102.614 Y202.142 E353.77362
G1 X101.955 Y202.257 E353.79587
G1 X101.337 Y202.48 E353.81772
G1 X100.888 Y202.736 E353.83492
G1 X100.501 Y203.045 E353.85139
G1 X100.002 Y203.587 E353.87589
G1 X99.698 Y204.102 E353.89578
G1 X99.54 Y204.528 E353.91089
G1 X99.422 Y204.998 E353.92701
G1 X99.351 Y205.677 E353.94972
G1 X99.429 Y206.397 E353.9738
G1 X99.649 Y207.071 E353.99739
G1 X99.994 Y207.683 E354.02075
G1 X100.366 Y208.114 E354.03969
G1 X100.458 Y208.22 E354.04436
G1 X100.667 Y208.381 E354.05313
G1 X101 Y208.638 E354.06712
G1 X101.082 Y208.682 E354.07022
G1 X101.268 Y208.782 E354.07724
G1 X101.402 Y208.854 E354.0823
G1 X101.836 Y209.018 E354.09773
G1 X102.693 Y209.183 E354.12676
G1 X103.515 Y209.141 E354.15413
G1 X104.233 Y208.929 E354.17903
G1 X104.857 Y208.586 E354.20272
G1 X105.254 Y208.267 E354.21966
G1 X105.615 Y207.895 E354.2369
G1 X106.012 Y207.314 E354.2603
G1 X106.136 Y207.011 E354.27119
G1 X106.267 Y206.689 E354.28275
G1 X106.286 Y206.644 E354.28438
G1 X106.295 Y206.597 E354.28597
G1 X106.306 Y206.637
G1 X106.33 Y206.715 E354.28685
G1 X106.497 Y207.02 E354.29407
G1 X106.686 Y207.365 E354.30716
G1 X107.168 Y207.922 E354.33166
G1 X107.74 Y208.349 E354.3554
G1 X107.933 Y208.445 E354.36257
G1 X108.156 Y208.556 E354.37085
G1 X108.614 Y208.716 E354.38699
G1 X108.754 Y208.735 E354.39169
G1 X109.309 Y208.811 E354.41032
G1 X109.45 Y208.802 E354.41502
G1 X110.031 Y208.762 E354.43439
G1 X110.107 Y208.743 E354.437
G1 X110.288 Y209.296 E354.45635
G1 X110.33 Y209.552 E354.46498
G1 X110.379 Y209.858 E354.47528
G1 X110.426 Y210.142 E354.48486
G1 X110.206 Y209.887 E354.48823
G1 X109.973 Y209.684 E354.49579
G1 X109.449 Y209.229 E354.51888
G1 X109.315 Y209.174 E354.52369
G1 X109.184 Y209.121 E354.52802
G1 X108.728 Y208.936 E354.53865
G1 X108.582 Y208.911 E354.54117
G1 X108.11 Y208.829 E354.55088
G1 X108.05 Y208.818 E354.5526
G1 X107.801 Y208.818 E354.5597
G1 X107.379 Y208.82 E354.57373
G1 X106.726 Y208.935 E354.59579
G1 X106.109 Y209.157 E354.6176
G1 X105.657 Y209.413 E354.63487
G1 X105.271 Y209.722 E354.65132
G1 X104.771 Y210.264 E354.67584
G1 X104.467 Y210.779 E354.69574
G1 X104.309 Y211.207 E354.71091
G1 X104.192 Y211.676 E354.72699
G1 X104.121 Y212.353 E354.74963
G1 X104.133 Y212.463 E354.75331
G1 X104.199 Y213.074 E354.77375
G1 X104.209 Y213.104 E354.7748
G1 X104.19 Y213.083
G1 X103.786 Y212.62 E354.78578
G1 X103.42 Y212.202 E354.80426
G1 X102.056 Y210.407 E354.87924
G1 X101.066 Y209.122 E354.93319
G1 X100.937 Y208.955 E354.93943
G1 X100.823 Y208.867 E354.94323
G1 X100.492 Y208.611 E354.95327
G1 X100.314 Y208.528 E354.95818
G1 X100.187 Y208.468 E354.9625
G1 X99.982 Y208.371 E354.97005
G1 X99.453 Y208.246 E354.98813
G1 X99.003 Y208.176 E355.00327
G1 X97.485 Y207.841 E355.05498
G1 X97.365 Y207.815 E355.05906
G1 X97.224 Y207.784 E355.06386
G1 X97.416 Y207.586 E355.06865
G1 X97.485 Y207.485 E355.07201
G1 X97.814 Y207.005 E355.09137
G1 X98.088 Y206.335 E355.11544
G1 X98.218 Y205.637 E355.13906
G1 X98.205 Y204.931 E355.16254
G1 X98.054 Y204.238 E355.18613
G1 X97.775 Y203.609 E355.20902
G1 X97.524 Y203.233 E355.22406
G1 X97.238 Y202.9 E355.23866
G1 X96.482 Y202.243 E355.27197
G1 X95.76 Y201.95 E355.29789
G1 X95.366 Y201.881 E355.31119
G1 X95.084 Y201.832 E355.32071
G1 X94.962 Y201.832 E355.32477
G1 X95.018 Y201.772
G1 X95.213 Y201.563 E355.33101
G1 X95.699 Y201.042 E355.35471
G1 X95.726 Y201.013 E355.35603
G1 X95.894 Y201.225 E355.36193
G1 X96.453 Y201.683 E355.38596
G1 X97.091 Y202.006 E355.40975
G1 X97.776 Y202.187 E355.43331
G1 X98.491 Y202.225 E355.45713
G1 X99.187 Y202.112 E355.48058
G1 X99.746 Y201.914 E355.5003
G1 X100.298 Y201.611 E355.52125
G1 X100.824 Y201.153 E355.54445
G1 X101.252 Y200.585 E355.5681
G1 X101.559 Y199.976 E355.59078
G1 X101.735 Y199.428 E355.60993
G1 X101.81 Y198.847 E355.62941
G1 X101.749 Y198.118 E355.65374
G1 X101.547 Y197.433 E355.6775
G1 X101.223 Y196.809 E355.70088
G1 X100.904 Y196.408 E355.71792
G1 X100.782 Y196.254 E355.72446
G1 X100.675 Y196.165 E355.72909
G1 X100.659 Y196.152 E355.72977
G1 X100.69 Y196.148
G1 X100.743 Y196.132
G1 X100.931 Y196.073 E355.73449
G1 X101.419 Y195.919 E355.75151
G1 X102.076 Y195.552 E355.77654
G1 X102.597 Y195.094 E355.79962
G1 X102.633 Y195.062 E355.80122
G1 X102.695 Y194.976 E355.80475
G1 X102.833 Y194.786 E355.81256
G1 X102.891 Y194.985 E355.81446
G1 X102.941 Y195.153 E355.81807
G1 X102.964 Y195.196 E355.81969
G1 X103.283 Y195.786 E355.842
G1 X103.745 Y196.326 E355.86563
G1 X104.315 Y196.763 E355.88952
G1 X103.868 Y197.36 E355.91433
G1 X103.599 Y197.857 E355.93312
G1 X103.476 Y198.183 E355.94471
G1 X103.399 Y198.523 E355.95631
G1 X103.382 Y198.885 E355.96836
G1 X103.478 Y199.358 E355.98441
G1 X103.831 Y199.873 E356.00518
M204 S5000
M205 X30 Y30
G0 F7200 X103.293 Y191.552
M204 S500
M205 X20 Y20
G1 F3600 X103.285 Y191.53 E356.00596
G1 X103.32 Y191.536 E356.00631
G1 X103.331 Y191.539
G1 X103.308 Y191.595 E356.00715
G1 X103.293 Y191.552
M204 S5000
M205 X30 Y30
G0 F7200 X105.037 Y190.589
G0 X109.097 Y188.047
M204 S500
M205 X20 Y20
G1 F3600 X108.812 Y188.724 E356.03158
G1 X108.704 Y189.192 E356.04756
G1 X108.659 Y189.67 E356.06353
G1 X108.709 Y190.406 E356.08806
G1 X108.914 Y191.113 E356.11255
G1 X109.254 Y191.742 E356.13633
G1 X109.708 Y192.271 E356.15951
G1 X110.243 Y192.683 E356.18197
G1 X110.834 Y192.978 E356.20394
G1 X111.469 Y193.156 E356.22588
G1 X112.128 Y193.214 E356.24788
G1 X112.29 Y193.196 E356.2533
G1 X112.635 Y193.159 E356.26484
G1 X112.8 Y193.14 E356.27036
G1 X113.269 Y192.992 E356.28672
G1 X113.457 Y192.933 E356.29328
G1 X113.825 Y192.724 E356.30735
G1 X114.074 Y192.582 E356.31688
G1 X114.602 Y192.113 E356.34037
G1 X114.882 Y191.76 E356.35536
G1 X115.125 Y191.374 E356.37053
G1 X115.412 Y190.706 E356.39471
G1 X115.551 Y189.984 E356.41917
G1 X115.538 Y189.275 E356.44275
G1 X115.388 Y188.593 E356.46598
G1 X115.107 Y187.97 E356.48871
G1 X114.716 Y187.414 E356.51132
G1 X114.663 Y187.364 E356.51374
G1 X114.213 Y186.942 E356.53426
G1 X114.825 Y187.02 E356.54501
G1 X114.924 Y187.033 E356.54833
G1 X118.285 Y187.498 E356.66118
G1 X118.661 Y187.593 E356.67408
G1 X118.763 Y187.619 E356.67758
G1 X119.26 Y187.745 E356.69464
G1 X118.685 Y187.925 E356.70385
G1 X118.593 Y187.976 E356.707
G1 X118.021 Y188.295 E356.72879
G1 X117.454 Y188.8 E356.75404
G1 X117.012 Y189.415 E356.77923
G1 X116.729 Y190.084 E356.80339
G1 X116.62 Y190.553 E356.8194
G1 X116.575 Y191.033 E356.83544
G1 X116.625 Y191.769 E356.85997
G1 X116.83 Y192.479 E356.88455
G1 X117.172 Y193.108 E356.90837
G1 X117.623 Y193.631 E356.93134
G1 X118.159 Y194.047 E356.9539
