;FLAVOR:Marlin
;TIME:25738
;Filament used: 30.9959m
;Layer height: 0.2
;Generated with Cura_SteamEngine 3.4.1
M190 S35
M104 S200
M109 S200
M82 ;absolute extrusion mode
G28 ;Home
G1 Z15.0 F6000 ;Move the platform down 15mm
;Prime the extruder
G92 E0
G1 F200 E3
G92 E0
G92 E4699.19553
G1 F2400 E4694
;LAYER_COUNT:53
;LAYER:0
M107
M204 S5000
M205 X30 Y30
G0 F3600 X94.021 Y75.426 Z11.7
M204 S500
M205 X20 Y20
M106 S255
;LAYER:50
G0 X94.021 Y75.426 Z10.7
M204 S500
M205 X20 Y20
;TYPE:WALL-INNER
G1 F300 Z10.2
G1 F2400 E4704.19553
G92 E0
G1 F3600 X94.041 Y74.903 E0.01741
G1 X94.373 Y75.308 E0.02667
G1 X94.599 Y75.584 E0.03854
G1 X95.328 Y76.136 E0.06895
G1 X96.098 Y76.474 E0.09692
G1 X96.577 Y76.569 E0.11316
G1 X96.876 Y76.627 E0.12329
G1 X97.047 Y76.63 E0.12898
G1 X97.366 Y76.635 E0.13959
G1 X97.444 Y76.637 E0.14219
G1 X98.014 Y76.578 E0.16125
G1 X98.47 Y76.452 E0.17698
G1 X98.695 Y76.391 E0.18474
G1 X98.714 Y76.385 E0.1854
G1 X98.706 Y76.428 E0.18597
G1 X98.708 Y76.662 E0.19097
G1 X98.716 Y77.252 E0.2106
G1 X98.804 Y77.628 E0.22344
G1 X98.575 Y77.495 E0.22576
G1 X98.293 Y77.33 E0.23662
G1 X97.614 Y77.084 E0.26064
G1 X97.354 Y77.035 E0.26944
G1 X97.041 Y76.976 E0.27932
G1 X96.87 Y76.973 E0.28425
G1 X96.565 Y76.968 E0.29371
G1 X96.48 Y76.966 E0.29654
G1 X95.682 Y77.068 E0.3233
G1 X95.039 Y77.292 E0.34594
G1 X94.593 Y77.55 E0.36308
G1 X94.282 Y77.774 E0.37583
G1 X94.167 Y77.857 E0.38055
G1 X93.891 Y78.123 E0.3933
G1 X93.904 Y77.845 E0.39567
G1 X93.91 Y77.704 E0.39964
G1 X94.002 Y75.84 E0.46171
G1 X94.02 Y75.427 E0.47546
G1 X94.021 Y75.426 E0.47551
M204 S5000
M205 X30 Y30
G0 F7200 X94.636 Y71.935
G0 X94.843 Y71.419
G0 X95.156 Y70.952
G0 X95.557 Y70.608
G0 X103.398 Y64.85
M204 S500
M205 X20 Y20
G1 F3600 X103.399 Y64.849 E0.47555
G1 X103.649 Y64.844 E0.48387
G1 X103.6 Y65.089 E0.48894
G1 X103.599 Y65.09 E0.48898
G1 X103.541 Y65.371 E0.49853
G1 X103.544 Y66.165 E0.52493
G1 X103.624 Y66.525 E0.5372
G1 X103.256 Y66.61 E0.54976
G1 X102.683 Y66.839 E0.57029
G1 X102.328 Y67.034 E0.58376
G1 X101.947 Y67.325 E0.5997
G1 X101.439 Y67.959 E0.62672
G1 X101.317 Y68.883 E0.65772
G1 X101.53 Y69.579 E0.68193
G1 X101.83 Y70.004 E0.69923
G1 X102.17 Y70.381 E0.71612
G1 X102.258 Y70.459 E0.72003
G1 X102.218 Y70.946 E0.73628
G1 X101.979 Y72.959 E0.80371
G1 X101.663 Y73.007 E0.81434
G1 X101.417 Y73.091 E0.82298
G1 X101.288 Y73.134 E0.8275
G1 X101.198 Y73.165 E0.83067
G1 X101.222 Y72.941 E0.8347
G1 X101.222 Y72.805 E0.83832
G1 X101.219 Y72.449 E0.85016
G1 X101.041 Y71.363 E0.88676
G1 X100.63 Y70.583 E0.91609
G1 X100.139 Y69.995 E0.94157
G1 X99.57 Y69.521 E0.9662
G1 X98.935 Y69.153 E0.99061
G1 X98.252 Y68.902 E1.01481
G1 X97.676 Y68.796 E1.03429
G1 X97.119 Y68.786 E1.05282
G1 X96.323 Y68.888 E1.07951
G1 X95.68 Y69.111 E1.10215
G1 X95.234 Y69.369 E1.11928
G1 X94.804 Y69.677 E1.13687
G1 X94.677 Y69.8 E1.14276
G1 X94.259 Y70.203 E1.16207
G1 X94.128 Y70.399 E1.16991
G1 X93.81 Y70.873 E1.18889
G1 X93.516 Y71.61 E1.21528
G1 X93.455 Y71.939 E1.22641
G1 X93.397 Y72.258 E1.2372
G1 X93.381 Y72.341 E1.24001
G1 X93.308 Y72.242 E1.24129
G1 X93.097 Y71.997 E1.24828
G1 X92.8 Y71.65 E1.26347
G1 X92.8 Y70.806 E1.29154
G1 X93.403 Y70.485 E1.31427
G1 X93.829 Y70.133 E1.33265
G1 X94.011 Y69.983 E1.33982
G1 X94.378 Y69.533 E1.35747
G1 X94.509 Y69.373 E1.36435
G1 X94.874 Y68.676 E1.39051
G1 X95.086 Y67.941 E1.41596
G1 X95.141 Y67.435 E1.43289
G1 X95.138 Y67.043 E1.44592
G1 X95.137 Y66.942 E1.44928
G1 X95.108 Y66.764 E1.45528
G1 X95.201 Y66.896 E1.45564
G1 X95.303 Y67.041 E1.45845
G1 X95.412 Y67.142 E1.46091
G1 X95.886 Y67.581 E1.4824
G1 X96.563 Y67.988 E1.50867
G1 X97.181 Y68.218 E1.5306
G1 X97.872 Y68.357 E1.55404
G1 X98.655 Y68.341 E1.58009
G1 X99.423 Y68.165 E1.6063
G1 X100.112 Y67.868 E1.63125
G1 X100.655 Y67.526 E1.6526
G1 X101.146 Y67.074 E1.67479
G1 X101.618 Y66.407 E1.70197
G1 X101.933 Y65.678 E1.72838
G1 X102.103 Y64.921 E1.75419
G1 X102.108 Y64.696 E1.76167
G1 X102.111 Y64.618 E1.76427
G1 X102.212 Y64.66 E1.76531
G1 X102.308 Y64.701 E1.7665
G1 X103.134 Y64.857 E1.79445
G1 X103.398 Y64.85 E1.80324
M204 S5000
M205 X30 Y30
G0 F7200 X107.814 Y62.183
G0 X108.672 Y62.57
G0 X109.083 Y62.647
G0 X109.615 Y62.638
G0 X110.163 Y62.511
G0 X110.673 Y62.293
G0 X111.371 Y61.761
G0 X111.722 Y61.266
G0 X111.852 Y60.964
G0 X112.699 Y57.963
M204 S500
M205 X20 Y20
G1 F3600 X112.573 Y57.8 E1.81009
G1 X112.531 Y57.746 E1.81237
G1 X112.582 Y57.722
G1 X112.829 Y57.602 E1.8189
G1 X112.837 Y57.6 E1.81918
G1 X113.89 Y57.28 E1.85578
G1 X114.002 Y57.277 E1.85951
G1 X114.17 Y57.274 E1.8651
G1 X114.409 Y57.325 E1.87322
G1 X114.358 Y57.401
G1 X114.264 Y57.539 E1.8777
G1 X114.097 Y57.784 E1.88756
G1 X113.795 Y58.517 E1.91393
G1 X113.649 Y59.282 E1.93983
G1 X113.654 Y60.067 E1.96594
G1 X113.832 Y60.84 E1.99232
G1 X114.174 Y61.576 E2.01932
G1 X114.668 Y62.209 E2.04602
G1 X114.76 Y62.289 E2.05008
G1 X114.992 Y62.491 E2.06031
G1 X115.146 Y62.626 E2.06712
G1 X115.228 Y62.678 E2.07035
G1 X115.14 Y62.662 E2.0704
G1 X114.887 Y62.613 E2.07336
G1 X114.579 Y62.621 E2.08075
G1 X114.042 Y62.635 E2.09861
G1 X113.221 Y62.847 E2.12682
G1 X112.505 Y63.213 E2.15356
G1 X112.069 Y63.538 E2.17165
G1 X111.684 Y63.921 E2.18971
G1 X111.207 Y64.576 E2.21666
G1 X110.872 Y65.327 E2.24401
G1 X110.713 Y66.113 E2.27068
G1 X110.718 Y66.894 E2.29666
G1 X110.884 Y67.632 E2.32182
G1 X111.177 Y68.312 E2.34645
G1 X111.543 Y68.843 E2.3679
G1 X111.593 Y68.916 E2.37084
G1 X111.783 Y69.106 E2.37978
G1 X111.594 Y69.106 E2.3807
G1 X111.379 Y69.108 E2.38485
G1 X111.292 Y69.122 E2.38743
G1 X110.716 Y69.215 E2.40683
G1 X110.432 Y69.327 E2.41699
G1 X110.1 Y69.016 E2.43212
G1 X109.285 Y68.121 E2.47238
G1 X109.18 Y65.993 E2.54324
G1 X108.851 Y63.975 E2.61125
G1 X108.829 Y63.837 E2.61589
G1 X108.819 Y63.78 E2.61782
G1 X108.984 Y63.811 E2.62078
G1 X109.124 Y63.809 E2.62437
G1 X109.758 Y63.796 E2.64547
G1 X110.526 Y63.619 E2.67168
G1 X111.216 Y63.323 E2.69665
G1 X111.758 Y62.98 E2.71798
G1 X112.245 Y62.536 E2.7399
G1 X112.741 Y61.838 E2.76838
G1 X113.067 Y61.081 E2.7958
G1 X113.225 Y60.288 E2.82269
G1 X113.22 Y59.486 E2.84937
G1 X113.043 Y58.699 E2.8762
G1 X112.702 Y57.971 E2.90293
G1 X112.699 Y57.963 E2.90322
M204 S5000
M205 X30 Y30
G0 F7200 X117.081 Y65.319
G0 X117.218 Y65.732
G0 X117.691 Y69.347
M204 S500
M205 X20 Y20
G1 F3600 X117.573 Y69.435 E2.90811
G1 X117.257 Y69.671 E2.92123
G1 X116.995 Y69.931 E2.93351
G1 X116.989 Y69.937 E2.93379
G1 X116.872 Y70.053 E2.93927
G1 X116.395 Y70.705 E2.96614
G1 X116.058 Y71.463 E2.99373
G1 X115.906 Y72.225 E3.01957
G1 X115.902 Y72.247 E3.02032
G1 X115.904 Y72.605 E3.03222
G1 X115.907 Y73.023 E3.04613
G1 X116.011 Y73.494 E3.06217
G1 X116.021 Y73.537 E3.06364
G1 X115.949 Y73.507 E3.06456
G1 X115.708 Y73.368 E3.06888
G1 X115.548 Y73.276 E3.07502
G1 X115.557 Y73.011 E3.08384
G1 X115.571 Y72.608 E3.09525
G1 X115.517 Y72.32 E3.10397
G1 X115.513 Y72.298 E3.10471
G1 X115.422 Y71.82 E3.12089
G1 X115.121 Y71.103 E3.14676
G1 X114.707 Y70.497 E3.17117
G1 X114.7 Y70.487 E3.17157
G1 X114.686 Y70.468 E3.17236
G1 X114.5 Y70.287 E3.18099
G1 X114.68 Y70.282 E3.1818
G1 X115.016 Y70.271 E3.19029
G1 X115.028 Y70.269 E3.19068
G1 X115.511 Y70.172 E3.20707
G1 X116.002 Y70.014 E3.22422
G1 X116.706 Y69.654 E3.25052
G1 X116.714 Y69.65 E3.25082
G1 X117.031 Y69.393 E3.26367
G1 X117.348 Y69.136 E3.27611
G1 X117.381 Y69.095 E3.27774
G1 X117.382 Y69.094 E3.27779
G1 X117.848 Y68.522 E3.30233
G1 X118.206 Y67.833 E3.32816
G1 X118.382 Y67.218 E3.34943
G1 X118.416 Y67.096 E3.35364
G1 X118.446 Y66.744 E3.36539
G1 X118.607 Y66.921 E3.36723
G1 X118.692 Y67.015 E3.37079
G1 X119.982 Y68.442 E3.43477
G1 X120.175 Y68.655 E3.44433
G1 X120.295 Y68.787 E3.45027
G1 X120.076 Y68.745 E3.45238
G1 X119.788 Y68.754 E3.45906
G1 X119.23 Y68.772 E3.47763
G1 X118.411 Y68.977 E3.50571
G1 X117.692 Y69.347 E3.5326
G1 X117.691 Y69.347 E3.53264
M204 S5000
M205 X30 Y30
G0 F7200 X118.553 Y69.354
M204 S500
M205 X20 Y20
G1 F3600 X117.904 Y69.688 E3.55691
G1 X117.519 Y69.975 E3.57289
G1 X117.176 Y70.315 E3.58895
G1 X116.743 Y70.907 E3.61334
G1 X116.442 Y71.585 E3.63802
G1 X116.302 Y72.285 E3.66176
G1 X116.307 Y72.978 E3.68481
G1 X116.454 Y73.64 E3.70736
G1 X116.528 Y73.807 E3.71344
G1 X116.727 Y74.262 E3.72996
G1 X116.268 Y74.072 E3.73881
G1 X115.775 Y73.868 E3.75656
G1 X115.116 Y73.489 E3.78184
G1 X115.145 Y73.371 E3.78588
G1 X115.17 Y72.639 E3.81024
G1 X115.037 Y71.936 E3.83404
G1 X114.768 Y71.295 E3.85716
G1 X114.379 Y70.727 E3.88006
G1 X113.887 Y70.249 E3.90287
G1 X113.796 Y70.19 E3.90648
G1 X113.44 Y69.961 E3.92056
G1 X113.308 Y69.876 E3.92578
G1 X112.85 Y69.697 E3.94214
G1 X112.653 Y69.619 E3.94918
G1 X112.315 Y69.563 E3.96058
G1 X111.964 Y69.505 E3.97241
G1 X111.412 Y69.508 E3.99077
G1 X110.822 Y69.603 E4.01065
G1 X110.343 Y69.791 E4.02776
G1 X109.813 Y69.295 E4.0519
G1 X108.892 Y68.284 E4.09739
G1 X108.782 Y66.035 E4.17228
G1 X108.422 Y63.834 E4.24646
G1 X108.341 Y63.518 E4.25731
G1 X108.3 Y63.355 E4.2629
G1 X108.269 Y63.236 E4.26699
G1 X108.478 Y63.308 E4.27042
G1 X108.644 Y63.339 E4.27476
G1 X109.018 Y63.41 E4.28743
G1 X109.709 Y63.397 E4.31041
G1 X110.401 Y63.237 E4.33404
G1 X111.029 Y62.968 E4.35676
G1 X111.514 Y62.661 E4.37585
G1 X111.944 Y62.269 E4.3952
G1 X112.39 Y61.641 E4.42082
G1 X112.683 Y60.961 E4.44545
G1 X112.825 Y60.25 E4.46956
G1 X112.82 Y59.532 E4.49344
G1 X112.662 Y58.829 E4.51741
G1 X112.355 Y58.172 E4.54153
G1 X112.064 Y57.794 E4.5574
G1 X111.914 Y57.6 E4.56555
G1 X112.135 Y57.493 E4.57054
G1 X112.685 Y57.227 E4.59086
G1 X113.826 Y56.881 E4.63052
G1 X114.206 Y56.873 E4.64316
G1 X114.597 Y56.956 E4.65646
G1 X114.906 Y57.096 E4.66774
G1 X114.972 Y57.126 E4.67015
G1 X115.02 Y57.162 E4.67215
G1 X115.054 Y57.188 E4.67357
G1 X115.043 Y57.199
G1 X114.857 Y57.377 E4.67926
G1 X114.816 Y57.437 E4.68139
G1 X114.451 Y57.975 E4.70302
G1 X114.18 Y58.632 E4.72665
G1 X114.049 Y59.318 E4.74988
G1 X114.054 Y60.02 E4.77323
G1 X114.212 Y60.71 E4.79678
G1 X114.517 Y61.366 E4.82084
G1 X114.96 Y61.933 E4.84477
G1 X115.385 Y62.304 E4.86353
G1 X115.868 Y62.607 E4.8825
G1 X116.455 Y62.842 E4.90353
G1 X116.626 Y62.887 E4.90941
G1 X116.725 Y63.312 E4.92392
G1 X116.839 Y63.809 E4.94088
G1 X116.418 Y63.523 E4.94991
G1 X116.417 Y63.522 E4.94996
G1 X116.318 Y63.455 E4.95393
G1 X115.604 Y63.156 E4.97968
G1 X114.855 Y63.014 E5.00504
G1 X114.098 Y63.034 E5.03022
G1 X113.364 Y63.223 E5.05543
G1 X112.717 Y63.554 E5.0796
G1 X112.331 Y63.842 E5.09562
G1 X111.988 Y64.182 E5.11169
G1 X111.555 Y64.777 E5.13616
G1 X111.255 Y65.45 E5.16067
G1 X111.113 Y66.152 E5.18449
G1 X111.118 Y66.848 E5.20764
G1 X111.266 Y67.508 E5.23014
G1 X111.529 Y68.117 E5.2522
G1 X111.902 Y68.659 E5.27408
G1 X112.367 Y69.124 E5.29596
G1 X112.509 Y69.219 E5.30164
G1 X112.793 Y69.41 E5.31095
G1 X112.927 Y69.5 E5.3137
G1 X113.385 Y69.69 E5.32222
G1 X113.566 Y69.766 E5.32607
G1 X113.982 Y69.841 E5.33723
G1 X114.268 Y69.894 E5.3469
G1 X114.97 Y69.872 E5.37026
G1 X115.41 Y69.784 E5.38519
G1 X115.849 Y69.643 E5.40052
G1 X116.495 Y69.313 E5.42465
G1 X117.064 Y68.851 E5.44903
G1 X117.512 Y68.301 E5.47262
G1 X117.832 Y67.684 E5.49574
G1 X118.021 Y67.024 E5.51857
G1 X118.078 Y66.344 E5.54127
G1 X118.069 Y66.274 E5.54362
G1 X117.995 Y65.658 E5.56425
G1 X118.415 Y66.115 E5.57506
G1 X118.475 Y66.18 E5.57801
G1 X120.759 Y68.703 E5.6912
G1 X120.985 Y69.018 E5.70409
G1 X121.047 Y69.105 E5.70765
G1 X121.347 Y69.522 E5.72473
G1 X120.793 Y69.289 E5.73386
G1 X120.687 Y69.269 E5.73708
G1 X120.044 Y69.146 E5.75886
G1 X119.286 Y69.17 E5.78408
G1 X118.553 Y69.354 E5.80922
M204 S5000
M205 X30 Y30
G0 F7200 X114.326 Y69.131
G0 X113.783 Y69.032
G0 X113.289 Y68.827
G0 X112.853 Y68.534
G0 X112.49 Y68.17
G0 X112.199 Y67.746
G0 X111.992 Y67.272
G0 X111.929 Y66.983
G0 X106.698 Y62.181
M204 S500
M205 X20 Y20
G1 F3600 X106.705 Y62.189 E5.80957
G1 X106.654 Y62.216 E5.81054
G1 X106.668 Y62.176
G1 X106.677 Y62.154
G1 X106.698 Y62.181 E5.81066
M204 S5000
M205 X30 Y30
G0 F7200 X101.821 Y68.122
M204 S500
M205 X20 Y20
G1 F3600 X101.725 Y68.849 E5.83505
G1 X101.894 Y69.401 E5.85425
G1 X102.143 Y69.754 E5.86862
G1 X102.452 Y70.097 E5.88398
G1 X102.674 Y70.294 E5.89385
G1 X102.617 Y70.979 E5.91671
G1 X102.34 Y73.308 E5.99472
G1 X101.758 Y73.397 E6.0143
G1 X101.122 Y73.613 E6.03664
G1 X100.976 Y73.696 E6.04223
G1 X100.963 Y73.703 E6.04272
G1 X100.621 Y73.896 E6.05578
G1 X100.774 Y73.369 E6.06645
G1 X100.775 Y73.354 E6.06695
G1 X100.822 Y72.921 E6.08144
G1 X100.819 Y72.483 E6.09601
G1 X100.657 Y71.492 E6.12941
G1 X100.296 Y70.807 E6.15516
G1 X99.855 Y70.279 E6.17804
G1 X99.34 Y69.85 E6.20033
G1 X98.764 Y69.516 E6.22248
G1 X98.146 Y69.289 E6.24438
G1 X97.636 Y69.195 E6.26163
G1 X97.141 Y69.186 E6.27809
G1 X96.415 Y69.279 E6.30244
G1 X95.847 Y69.476 E6.32243
G1 X95.451 Y69.705 E6.33765
G1 X95.061 Y69.985 E6.35362
G1 X94.568 Y70.461 E6.37641
G1 X94.166 Y71.061 E6.40043
G1 X93.902 Y71.722 E6.4241
G1 X93.775 Y72.41 E6.44737
G1 X93.78 Y72.975 E6.46617
G1 X93.78 Y73.116 E6.47086
G1 X93.837 Y73.38 E6.47984
G1 X93.927 Y73.789 E6.49377
G1 X93.962 Y73.877 E6.49692
G1 X94.043 Y74.08 E6.50419
G1 X94.097 Y74.214 E6.50899
G1 X94.327 Y74.621 E6.52454
G1 X94.878 Y75.294 E6.55347
G1 X95.532 Y75.789 E6.58075
G1 X96.218 Y76.09 E6.60567
G1 X96.919 Y76.228 E6.62943
G1 X97.427 Y76.237 E6.64633
G1 X97.94 Y76.184 E6.66348
G1 X98.618 Y75.997 E6.68687
G1 X98.909 Y75.844 E6.69781
G1 X99.215 Y75.683 E6.70931
G1 X99.261 Y75.659 E6.71103
G1 X99.297 Y75.629 E6.71259
G1 X99.281 Y75.666
G1 X99.248 Y75.744 E6.71349
G1 X99.182 Y76.083 E6.72069
G1 X99.106 Y76.465 E6.73364
G1 X99.115 Y77.203 E6.75819
G1 X99.279 Y77.901 E6.78204
G1 X99.364 Y78.097 E6.78914
G1 X99.464 Y78.327 E6.79748
G1 X99.712 Y78.742 E6.81356
G1 X99.81 Y78.85 E6.81841
G1 X100.183 Y79.261 E6.83687
G1 X100.296 Y79.344 E6.84154
G1 X100.766 Y79.688 E6.86091
G1 X100.838 Y79.723 E6.86357
G1 X100.62 Y80.266 E6.88303
G1 X100.489 Y80.486 E6.89155
G1 X100.331 Y80.752 E6.90184
G1 X100.183 Y81.001 E6.91147
G1 X100.18 Y80.663 E6.91487
G1 X100.132 Y80.357 E6.92244
G1 X100.022 Y79.673 E6.94548
G1 X99.953 Y79.543 E6.95038
G1 X99.887 Y79.419 E6.95468
G1 X99.658 Y78.988 E6.96532
G1 X99.56 Y78.87 E6.96795
G1 X99.253 Y78.503 E6.97732
G1 X99.217 Y78.46 E6.97919
G1 X99.024 Y78.3 E6.98631
G1 X98.701 Y78.031 E7.00029
G1 X98.123 Y77.694 E7.02254
G1 X97.508 Y77.471 E7.0443
G1 X97 Y77.375 E7.0615
G1 X96.502 Y77.366 E7.07806
G1 X95.774 Y77.459 E7.10247
G1 X95.207 Y77.657 E7.12245
G1 X94.811 Y77.886 E7.13766
G1 X94.424 Y78.165 E7.15353
G1 X93.93 Y78.641 E7.17635
G1 X93.869 Y78.732 E7.17999
G1 X93.527 Y79.242 E7.20041
G1 X93.516 Y79.27 E7.20142
G1 X93.516 Y79.243
G1 X93.503 Y78.629 E7.21237
G1 X93.491 Y78.109 E7.22967
G1 X93.602 Y75.822 E7.30583
G1 X93.669 Y74.209 E7.35952
G1 X93.678 Y73.991 E7.36594
G1 X93.648 Y73.852 E7.36965
G1 X93.556 Y73.441 E7.3797
G1 X93.472 Y73.258 E7.3847
G1 X93.413 Y73.13 E7.38904
G1 X93.323 Y72.934 E7.39621
G1 X92.995 Y72.492 E7.41452
G1 X92.4 Y71.798 E7.44492
G1 X92.4 Y70.53 E7.48709
G1 X92.54 Y70.491 E7.49193
G1 X93.18 Y70.151 E7.51603
G1 X93.726 Y69.7 E7.53959
G1 X94.173 Y69.152 E7.56311
G1 X94.501 Y68.526 E7.58661
G1 X94.692 Y67.863 E7.60956
G1 X94.741 Y67.415 E7.62455
G1 X94.737 Y66.976 E7.63915
G1 X94.579 Y65.986 E7.6725
G1 X94.215 Y65.301 E7.6983
G1 X93.956 Y64.991 E7.71173
G1 X93.774 Y64.773 E7.72118
G1 X93.678 Y64.693 E7.72533
G1 X93.762 Y64.683
G1 X94.044 Y64.649 E7.73157
G1 X94.75 Y64.562 E7.75522
G1 X94.791 Y64.557 E7.7566
G1 X94.782 Y64.83 E7.76257
G1 X94.918 Y65.539 E7.78658
G1 X95.198 Y66.196 E7.81033
G1 X95.606 Y66.776 E7.83392
G1 X96.128 Y67.26 E7.8576
G1 X96.737 Y67.626 E7.88123
G1 X97.291 Y67.832 E7.90089
G1 X97.908 Y67.956 E7.92182
G1 X98.606 Y67.942 E7.94504
G1 X99.298 Y67.783 E7.96865
G1 X99.925 Y67.513 E7.99136
G1 X100.411 Y67.207 E8.01046
G1 X100.844 Y66.808 E8.03005
G1 X101.267 Y66.21 E8.05441
G1 X101.551 Y65.554 E8.07818
G1 X101.704 Y64.871 E8.10146
G1 X101.719 Y64.359 E8.1185
G1 X101.724 Y64.165 E8.12495
G1 X101.698 Y64.023 E8.12976
G1 X101.694 Y64.002 E8.13047
G1 X101.721 Y64.019
G1 X101.775 Y64.041
G1 X101.953 Y64.116 E8.13513
G1 X102.424 Y64.316 E8.15215
G1 X103.167 Y64.456 E8.17729
G1 X103.856 Y64.439 E8.20022
G1 X103.904 Y64.438 E8.20181
G1 X104.013 Y64.412 E8.20554
