;FLAVOR:Marlin
;TIME:25246
;Filament used: 30.6801m
;Layer height: 0.2
;Generated with Cura_SteamEngine 3.4.1
M190 S35
M104 S200
M109 S200
M82 ;absolute extrusion mode
G28 ;Home
G1 Z15.0 F6000 ;Move the platform down 15mm
;Prime the extruder
G92 E0
G1 F200 E3
G92 E0
G92 E0
G1 F2400 E-5
;LAYER_COUNT:53
;LAYER:0
M107
M204 S5000
M205 X30 Y30
G0 F3600 X84.806 Y47.7 Z0.2
M204 S500
M205 X20 Y20
;TYPE:SKIRT
G1 F2400 E0
G1 F1800 X85.037 Y47.335 E0.01437
G1 X85.453 Y46.753 E0.03816
G1 X86.022 Y46.132 E0.06617
G1 X86.386 Y45.784 E0.08292
G1 X86.93 Y45.319 E0.10673
G1 X87.522 Y44.918 E0.13051
G1 X88.103 Y44.61 E0.15238
G1 X88.851 Y44.261 E0.17983
G1 X89.515 Y43.995 E0.20362
G1 X90.205 Y43.806 E0.22742
G1 X90.849 Y43.7 E0.24913
G1 X91.316 Y43.648 E0.26476
G1 X92.022 Y43.609 E0.28827
G1 X115.291 Y43.6 E1.0622
G1 X115.625 Y43.609 E1.07332
G1 X123.025 Y43.994 E1.31977
G1 X128.335 Y43.953 E1.49639
G1 X133.624 Y43.622 E1.67265
G1 X134.022 Y43.609 E1.68589
G1 X157.291 Y43.6 E2.45982
G1 X157.781 Y43.619 E2.47613
G1 X160.438 Y43.822 E2.56476
G1 X161.147 Y43.916 E2.58855
G1 X161.84 Y44.088 E2.6123
G1 X163.775 Y44.686 E2.67966
G1 X164.445 Y44.935 E2.70343
G1 X164.908 Y45.16 E2.72055
G1 X166.582 Y46.057 E2.78372
G1 X167.192 Y46.429 E2.80749
G1 X167.624 Y46.755 E2.82549
G1 X169.128 Y47.992 E2.89026
G1 X169.655 Y48.477 E2.91408
G1 X170.012 Y48.877 E2.93191
G1 X171.255 Y50.393 E2.99711
G1 X171.677 Y50.971 E3.02092
G1 X171.95 Y51.433 E3.03876
G1 X172.874 Y53.161 E3.10394
G1 X173.175 Y53.81 E3.12773
G1 X173.354 Y54.321 E3.14574
G1 X173.921 Y56.19 E3.2107
G1 X174.09 Y56.885 E3.23449
G1 X174.16 Y57.365 E3.25063
G1 X174.295 Y58.623 E3.29271
G1 X174.327 Y59.058 E3.30721
G1 X174.395 Y60.809 E3.3655
G1 X174.4 Y61.057 E3.37375
G1 X174.39 Y249.991 E9.65772
G1 X174.35 Y250.705 E9.6815
G1 X174.231 Y251.411 E9.70531
G1 X174.033 Y252.098 E9.72909
G1 X173.76 Y252.759 E9.75288
G1 X173.415 Y253.386 E9.77668
G1 X173.003 Y253.97 E9.80045
G1 X172.527 Y254.505 E9.82427
G1 X171.995 Y254.983 E9.84806
G1 X171.413 Y255.398 E9.87183
G1 X170.789 Y255.747 E9.89561
G1 X170.129 Y256.023 E9.91941
G1 X169.442 Y256.224 E9.94322
G1 X168.738 Y256.347 E9.96699
G1 X167.99 Y256.391 E9.99191
G1 X90.009 Y256.39 E12.58557
G1 X89.295 Y256.35 E12.60935
G1 X88.59 Y256.231 E12.63313
G1 X87.902 Y256.033 E12.65694
G1 X87.241 Y255.76 E12.68073
G1 X86.614 Y255.415 E12.70453
G1 X86.03 Y255.003 E12.7283
G1 X85.496 Y254.528 E12.75207
G1 X85.017 Y253.996 E12.77588
G1 X84.602 Y253.414 E12.79966
G1 X84.253 Y252.789 E12.82347
G1 X83.977 Y252.129 E12.84726
G1 X83.776 Y251.443 E12.87104
G1 X83.653 Y250.738 E12.89484
G1 X83.609 Y249.99 E12.91976
G1 X83.615 Y51.941 E19.5069
G1 X83.655 Y51.227 E19.53068
G1 X83.796 Y50.428 E19.55767
G1 X83.995 Y49.61 E19.58567
G1 X84.203 Y48.926 E19.60945
G1 X84.486 Y48.269 E19.63324
G1 X84.806 Y47.7 E19.65495
M204 S5000
M205 X30 Y30
G0 F3600 X85.144 Y47.914
M204 S500
M205 X20 Y20
G1 F1800 X85.375 Y47.549 E19.66932
G1 X85.779 Y46.987 E19.69234
G1 X86.299 Y46.421 E19.7179
G1 X86.663 Y46.073 E19.73465
G1 X87.19 Y45.624 E19.75768
G1 X87.766 Y45.239 E19.78072
G1 X88.272 Y44.973 E19.79974
G1 X89.02 Y44.624 E19.82719
G1 X89.664 Y44.368 E19.85024
G1 X90.332 Y44.187 E19.87326
G1 X90.893 Y44.098 E19.89215
G1 X91.36 Y44.046 E19.90778
G1 X92.022 Y44.009 E19.92983
G1 X115.291 Y44 E20.70376
G1 X115.604 Y44.008 E20.71418
G1 X123.024 Y44.394 E20.9613
G1 X128.345 Y44.353 E21.13828
G1 X133.649 Y44.021 E21.31504
G1 X134.022 Y44.009 E21.32745
G1 X157.291 Y44 E22.10138
G1 X157.75 Y44.017 E22.11666
G1 X160.407 Y44.22 E22.20529
G1 X161.093 Y44.313 E22.22831
G1 X161.722 Y44.471 E22.24988
G1 X163.657 Y45.069 E22.31725
G1 X164.305 Y45.311 E22.34025
G1 X164.719 Y45.512 E22.35556
G1 X166.393 Y46.409 E22.41873
G1 X166.983 Y46.771 E22.44175
G1 X167.37 Y47.064 E22.45789
G1 X168.874 Y48.301 E22.52266
G1 X169.383 Y48.771 E22.54571
G1 X169.703 Y49.131 E22.56173
G1 X170.946 Y50.647 E22.62693
G1 X171.353 Y51.207 E22.64995
G1 X171.597 Y51.622 E22.66597
G1 X172.521 Y53.35 E22.73114
G1 X172.812 Y53.978 E22.75416
G1 X172.972 Y54.437 E22.77033
G1 X173.539 Y56.306 E22.83529
G1 X173.701 Y56.979 E22.85831
G1 X173.763 Y57.408 E22.87273
G1 X173.898 Y58.666 E22.91481
G1 X173.927 Y59.073 E22.92838
G1 X173.995 Y60.824 E22.98667
G1 X174 Y61.057 E22.99442
G1 X173.99 Y249.991 E29.27839
G1 X173.95 Y250.683 E29.30144
G1 X173.831 Y251.365 E29.32447
G1 X173.633 Y252.029 E29.34751
G1 X173.361 Y252.665 E29.37052
G1 X173.017 Y253.267 E29.39358
G1 X172.606 Y253.824 E29.4166
G1 X172.134 Y254.33 E29.43962
G1 X171.606 Y254.779 E29.46267
G1 X171.03 Y255.164 E29.48572
G1 X170.414 Y255.48 E29.50874
G1 X169.765 Y255.722 E29.53178
G1 X169.093 Y255.889 E29.55481
G1 X168.406 Y255.977 E29.57785
G1 X167.99 Y255.991 E29.59169
G1 X90.009 Y255.99 E32.18535
G1 X89.318 Y255.95 E32.20837
G1 X88.635 Y255.831 E32.23143
G1 X87.972 Y255.633 E32.25444
G1 X87.335 Y255.361 E32.27748
G1 X86.734 Y255.017 E32.30051
G1 X86.176 Y254.606 E32.32356
G1 X85.67 Y254.134 E32.34658
G1 X85.221 Y253.606 E32.36963
G1 X84.836 Y253.03 E32.39267
G1 X84.521 Y252.414 E32.41569
G1 X84.278 Y251.766 E32.4387
G1 X84.111 Y251.093 E32.46177
G1 X84.023 Y250.406 E32.4848
G1 X84.009 Y249.99 E32.49865
G1 X84.015 Y51.941 E39.08578
G1 X84.055 Y51.249 E39.10884
G1 X84.185 Y50.523 E39.13337
G1 X84.384 Y49.705 E39.16137
G1 X84.586 Y49.042 E39.18442
G1 X84.864 Y48.408 E39.20745
G1 X85.144 Y47.914 E39.22633
M204 S5000
M205 X30 Y30
G0 F3600 X85.482 Y48.128
M204 S500
M205 X20 Y20
G1 F1800 X85.713 Y47.763 E39.2407
G1 X86.104 Y47.22 E39.26296
G1 X86.575 Y46.71 E39.28604
G1 X86.939 Y46.362 E39.30279
G1 X87.45 Y45.93 E39.32505
G1 X88.008 Y45.561 E39.3473
G1 X88.441 Y45.335 E39.36355
G1 X89.189 Y44.986 E39.391
G1 X89.811 Y44.74 E39.41325
G1 X90.458 Y44.57 E39.4355
G1 X90.937 Y44.495 E39.45162
G1 X91.404 Y44.443 E39.46725
G1 X92.022 Y44.409 E39.48784
G1 X115.291 Y44.4 E40.26177
G1 X115.584 Y44.408 E40.27151
G1 X123.007 Y44.794 E40.51874
G1 X128.354 Y44.753 E40.69659
G1 X133.674 Y44.42 E40.87388
G1 X134.022 Y44.409 E40.88546
G1 X157.291 Y44.4 E41.65939
G1 X157.72 Y44.416 E41.67366
G1 X160.377 Y44.619 E41.76229
G1 X161.039 Y44.71 E41.78452
G1 X161.603 Y44.853 E41.80387
G1 X163.538 Y45.451 E41.87123
G1 X164.165 Y45.686 E41.8935
G1 X164.53 Y45.865 E41.90703
G1 X166.204 Y46.762 E41.97019
G1 X166.774 Y47.113 E41.99246
G1 X167.116 Y47.373 E42.00675
G1 X168.62 Y48.61 E42.07151
G1 X169.111 Y49.065 E42.09378
G1 X169.393 Y49.384 E42.10794
G1 X170.636 Y50.9 E42.17314
G1 X171.029 Y51.442 E42.19541
G1 X171.244 Y51.81 E42.20959
G1 X172.168 Y53.538 E42.27476
G1 X172.448 Y54.146 E42.29703
G1 X172.589 Y54.553 E42.31135
G1 X173.156 Y56.422 E42.37631
G1 X173.311 Y57.073 E42.39857
G1 X173.365 Y57.45 E42.41124
G1 X173.5 Y58.708 E42.45332
G1 X173.528 Y59.089 E42.46602
G1 X173.596 Y60.84 E42.52431
G1 X173.6 Y61.057 E42.53153
G1 X173.59 Y249.991 E48.8155
G1 X173.55 Y250.659 E48.83775
G1 X173.431 Y251.317 E48.85999
G1 X173.234 Y251.957 E48.88227
G1 X172.962 Y252.568 E48.90451
G1 X172.619 Y253.143 E48.92678
G1 X172.21 Y253.672 E48.94902
G1 X171.741 Y254.149 E48.97127
G1 X171.218 Y254.567 E48.99354
G1 X170.65 Y254.919 E49.01576
G1 X170.043 Y255.201 E49.03802
G1 X169.407 Y255.409 E49.06028
G1 X168.751 Y255.539 E49.08252
G1 X167.99 Y255.591 E49.10789
G1 X90.009 Y255.59 E51.70155
G1 X89.341 Y255.55 E51.72381
G1 X88.683 Y255.431 E51.74605
G1 X88.043 Y255.234 E51.76832
G1 X87.432 Y254.962 E51.79057
G1 X86.858 Y254.619 E51.81281
G1 X86.328 Y254.21 E51.83507
G1 X85.851 Y253.741 E51.85732
G1 X85.433 Y253.218 E51.87959
G1 X85.081 Y252.65 E51.90182
G1 X84.799 Y252.043 E51.92408
G1 X84.591 Y251.407 E51.94633
G1 X84.461 Y250.751 E51.96858
G1 X84.409 Y249.99 E51.99395
G1 X84.415 Y51.941 E58.58108
G1 X84.455 Y51.273 E58.60334
G1 X84.574 Y50.617 E58.62551
G1 X84.773 Y49.799 E58.65351
G1 X84.969 Y49.16 E58.67575
G1 X85.241 Y48.548 E58.69802
G1 X85.482 Y48.128 E58.71413
M204 S5000
M205 X30 Y30
G0 F3600 X85.82 Y48.342
M204 S500
M205 X20 Y20
G1 F1800 X86.051 Y47.977 E58.72849
G1 X86.429 Y47.455 E58.74993
G1 X86.852 Y46.999 E58.77062
G1 X87.216 Y46.651 E58.78737
G1 X87.708 Y46.236 E58.80877
G1 X88.249 Y45.884 E58.83024
G1 X88.61 Y45.698 E58.84375
G1 X89.358 Y45.349 E58.8712
G1 X89.958 Y45.113 E58.89265
G1 X90.583 Y44.953 E58.9141
G1 X90.982 Y44.893 E58.92752
G1 X91.449 Y44.841 E58.94315
G1 X92.022 Y44.809 E58.96224
G1 X115.291 Y44.8 E59.73617
G1 X115.563 Y44.807 E59.74522
G1 X123.006 Y45.194 E59.99311
G1 X128.364 Y45.153 E60.17132
G1 X133.699 Y44.819 E60.34911
G1 X134.022 Y44.809 E60.35986
G1 X157.291 Y44.8 E61.13379
G1 X157.689 Y44.815 E61.14704
G1 X160.346 Y45.018 E61.23567
G1 X160.985 Y45.107 E61.25713
G1 X161.485 Y45.235 E61.27429
G1 X163.42 Y45.833 E61.34165
G1 X164.023 Y46.061 E61.36309
G1 X164.341 Y46.218 E61.37489
G1 X166.015 Y47.115 E61.43806
G1 X166.563 Y47.454 E61.45949
G1 X166.862 Y47.682 E61.472
G1 X168.366 Y48.919 E61.53677
G1 X168.838 Y49.358 E61.5582
G1 X169.084 Y49.638 E61.5706
G1 X170.327 Y51.154 E61.63581
G1 X170.704 Y51.677 E61.65725
G1 X170.892 Y51.999 E61.66965
G1 X171.816 Y53.727 E61.73482
G1 X172.084 Y54.313 E61.75626
G1 X172.206 Y54.669 E61.76877
G1 X172.773 Y56.538 E61.83373
G1 X172.922 Y57.166 E61.8552
G1 X172.967 Y57.493 E61.86618
G1 X173.102 Y58.751 E61.90826
G1 X173.128 Y59.104 E61.92003
G1 X173.196 Y60.855 E61.97832
G1 X173.2 Y61.057 E61.98504
G1 X173.19 Y249.991 E68.26901
G1 X173.15 Y250.635 E68.29047
G1 X173.031 Y251.268 E68.31189
G1 X172.834 Y251.882 E68.33334
G1 X172.563 Y252.467 E68.35478
G1 X172.221 Y253.014 E68.37624
G1 X171.815 Y253.514 E68.39766
G1 X171.349 Y253.96 E68.41911
G1 X170.832 Y254.345 E68.44055
G1 X170.272 Y254.664 E68.46199
G1 X169.676 Y254.91 E68.48343
G1 X169.054 Y255.081 E68.50489
G1 X168.416 Y255.173 E68.52633
G1 X167.99 Y255.191 E68.54051
G1 X90.009 Y255.19 E71.13417
G1 X89.366 Y255.15 E71.1556
G1 X88.732 Y255.031 E71.17705
G1 X88.118 Y254.834 E71.1985
G1 X87.533 Y254.563 E71.21994
G1 X86.986 Y254.221 E71.2414
G1 X86.486 Y253.815 E71.26282
G1 X86.04 Y253.349 E71.28427
G1 X85.655 Y252.833 E71.30569
G1 X85.336 Y252.272 E71.32715
G1 X85.09 Y251.676 E71.3486
G1 X84.919 Y251.055 E71.37002
G1 X84.827 Y250.417 E71.39146
G1 X84.809 Y249.99 E71.40567
G1 X84.815 Y51.941 E77.99281
G1 X84.855 Y51.297 E78.01427
G1 X84.962 Y50.712 E78.03405
G1 X85.161 Y49.894 E78.06205
G1 X85.352 Y49.278 E78.0835
G1 X85.618 Y48.691 E78.10494
G1 X85.82 Y48.342 E78.11835
M204 S5000
M205 X30 Y30
G1 F2400 E73.11835
G1 F300 Z0.7
G0 F3600 X117.594 Y51.965 Z0.7
M204 S500
M205 X20 Y20
;TYPE:WALL-INNER
G1 F300 Z0.2
G1 F2400 E78.11835
G1 F1800 X119.131 Y52.43 E78.17176
G1 X120.559 Y53.196 E78.22566
G1 X121.793 Y54.207 E78.27871
G1 X122.804 Y55.441 E78.33177
G1 X123.57 Y56.869 E78.38567
G1 X124.035 Y58.406 E78.43908
G1 X124.2 Y60.086 E78.49523
G1 X124.2 Y248.2 E84.75192
G1 X91.8 Y248.2 E85.82955
G1 X91.8 Y52.116 E92.35133
G1 X91.818 Y51.95 E92.35688
G1 X91.852 Y51.883 E92.35938
G1 X91.883 Y51.852 E92.36084
G1 X91.95 Y51.818 E92.36334
G1 X92.116 Y51.8 E92.36889
G1 X115.914 Y51.8 E93.16042
G1 X117.594 Y51.965 E93.21657
M204 S5000
M205 X30 Y30
G0 F3600 X117.674 Y51.571
M204 S500
M205 X20 Y20
G1 F1800 X119.286 Y52.059 E93.27258
G1 X120.778 Y52.859 E93.32889
G1 X122.077 Y53.923 E93.38474
G1 X123.141 Y55.222 E93.44059
G1 X123.941 Y56.714 E93.4969
G1 X124.429 Y58.326 E93.55291
G1 X124.6 Y60.067 E93.6111
G1 X124.6 Y248.6 E99.88173
G1 X91.4 Y248.6 E100.98597
G1 X91.4 Y52.091 E107.52188
G1 X91.425 Y51.861 E107.52958
G1 X91.466 Y51.746 E107.53364
G1 X91.538 Y51.631 E107.53815
G1 X91.631 Y51.538 E107.54253
G1 X91.746 Y51.466 E107.54704
G1 X91.861 Y51.425 E107.5511
G1 X92.091 Y51.4 E107.55879
G1 X115.933 Y51.4 E108.35178
G1 X117.674 Y51.571 E108.40997
M204 S5000
M205 X30 Y30
G0 F3600 X117.754 Y51.177
M204 S500
M205 X20 Y20
G1 F1800 X119.441 Y51.688 E108.46859
G1 X120.997 Y52.522 E108.52731
G1 X122.361 Y53.639 E108.58595
G1 X123.478 Y55.003 E108.64459
G1 X124.312 Y56.559 E108.70331
G1 X124.823 Y58.246 E108.76193
G1 X125 Y60.048 E108.82216
G1 X125 Y249 E115.10673
G1 X91 Y249 E116.23757
G1 X91 Y52.065 E122.78765
G1 X91.032 Y51.776 E122.79733
G1 X91.105 Y51.568 E122.80466
G1 X91.223 Y51.38 E122.81204
G1 X91.38 Y51.223 E122.81943
G1 X91.568 Y51.105 E122.82681
G1 X91.776 Y51.032 E122.83414
G1 X92.065 Y51 E122.84381
G1 X115.952 Y51 E123.6383
G1 X117.754 Y51.177 E123.69852
M204 S5000
M205 X30 Y30
G0 F3600 X117.834 Y50.783
M204 S500
M205 X20 Y20
G1 F1800 X119.596 Y51.317 E123.75975
G1 X121.219 Y52.186 E123.82099
G1 X122.645 Y53.355 E123.88232
G1 X123.814 Y54.781 E123.94364
G1 X124.683 Y56.404 E124.00488
G1 X125.217 Y58.166 E124.06611
G1 X125.4 Y60.029 E124.12838
G1 X125.4 Y249.4 E130.42688
G1 X90.6 Y249.4 E131.58433
G1 X90.6 Y52.039 E138.14859
G1 X90.639 Y51.687 E138.16037
G1 X90.742 Y51.393 E138.17073
G1 X90.908 Y51.129 E138.1811
G1 X91.129 Y50.908 E138.19149
G1 X91.393 Y50.742 E138.20187
G1 X91.687 Y50.639 E138.21223
G1 X92.039 Y50.6 E138.22401
G1 X115.971 Y50.6 E139.01999
G1 X117.834 Y50.783 E139.08225
M204 S5000
M205 X30 Y30
G0 F3600 X117.914 Y50.389
M204 S500
M205 X20 Y20
;TYPE:WALL-OUTER
G1 F1800 X119.751 Y50.946 E139.1461
G1 X121.441 Y51.85 E139.20984
G1 X122.929 Y53.071 E139.27386
G1 X124.15 Y54.559 E139.33788
G1 X125.054 Y56.249 E139.40163
G1 X125.611 Y58.086 E139.46547
G1 X125.8 Y60.01 E139.52978
G1 X125.8 Y249.8 E145.84222
G1 X90.2 Y249.8 E147.02628
G1 X90.2 Y52.013 E153.6047
G1 X90.246 Y51.6 E153.61852
G1 X90.381 Y51.216 E153.63206
G1 X90.593 Y50.878 E153.64533
G1 X90.878 Y50.593 E153.65873
G1 X91.216 Y50.381 E153.672
G1 X91.6 Y50.246 E153.68554
G1 X92.013 Y50.2 E153.69936
G1 X115.99 Y50.2 E154.49684
G1 X117.914 Y50.389 E154.56114
M204 S5000
M205 X30 Y30
G0 F3600 X118.105 Y50.447
G0 X117.959 Y50.924
G0 X117.519 Y52.349
M204 S500
M205 X20 Y20
;TYPE:SKIN
G1 F1800 X118.981 Y52.792 E154.61195
G1 X120.34 Y53.52 E154.66323
G1 X121.516 Y54.484 E154.71381
G1 X122.48 Y55.66 E154.76438
G1 X123.208 Y57.019 E154.81566
G1 X123.651 Y58.481 E154.86647
G1 X123.81 Y60.105 E154.92074
G1 X123.81 Y247.81 E161.16384
G1 X92.19 Y247.81 E162.21552
G1 X92.19 Y52.19 E168.72187
G1 X115.895 Y52.19 E169.5103
G1 X117.519 Y52.349 E169.56457
M204 S5000
M205 X30 Y30
G0 F3600 X108.21 Y232.21
M204 S500
M205 X20 Y20
G1 F1800 X107.79 Y232.21 E169.57854
G1 X107.79 Y67.79 E175.04717
G1 X108.21 Y67.79 E175.06114
G1 X108.21 Y232.21 E180.52977
M204 S5000
M205 X30 Y30
G0 F3600 X108.61 Y232.61
M204 S500
M205 X20 Y20
G1 F1800 X107.39 Y232.61 E180.57035
G1 X107.39 Y67.39 E186.06559
G1 X108.61 Y67.39 E186.10617
G1 X108.61 Y232.61 E191.60141
M204 S5000
M205 X30 Y30
G0 F3600 X109.01 Y233.01
M204 S500
M205 X20 Y20
G1 F1800 X106.99 Y233.01 E191.66859
G1 X106.99 Y66.99 E197.19044
G1 X109.01 Y66.99 E197.25763
G1 X109.01 Y233.01 E202.77947
M204 S5000
M205 X30 Y30
G0 F3600 X109.41 Y233.41
M204 S500
M205 X20 Y20
G1 F1800 X106.59 Y233.41 E202.87327
G1 X106.59 Y66.59 E208.42172
G1 X109.41 Y66.59 E208.51552
G1 X109.41 Y233.41 E214.06397
M204 S5000
M205 X30 Y30
G0 F3600 X109.81 Y233.81
M204 S500
M205 X20 Y20
G1 F1800 X106.19 Y233.81 E214.18437
G1 X106.19 Y66.19 E219.75944
G1 X109.81 Y66.19 E219.87984
G1 X109.81 Y233.81 E225.4549
M204 S5000
M205 X30 Y30
G0 F3600 X110.21 Y234.21
M204 S500
M205 X20 Y20
G1 F1800 X105.79 Y234.21 E225.60191
G1 X105.79 Y65.79 E231.20359
G1 X110.21 Y65.79 E231.3506
G1 X110.21 Y234.21 E236.95227
M204 S5000
M205 X30 Y30
G0 F3600 X110.61 Y234.61
M204 S500
M205 X20 Y20
G1 F1800 X105.39 Y234.61 E237.12589
G1 X105.39 Y65.39 E242.75417
G1 X110.61 Y65.39 E242.92778
G1 X110.61 Y234.61 E248.55606
M204 S5000
M205 X30 Y30
G0 F3600 X111.01 Y235.01
M204 S500
M205 X20 Y20
G1 F1800 X104.99 Y235.01 E248.75629
G1 X104.99 Y64.99 E254.41118
G1 X111.01 Y64.99 E254.6114
G1 X111.01 Y235.01 E260.26629
M204 S5000
M205 X30 Y30
G0 F3600 X111.41 Y235.41
M204 S500
M205 X20 Y20
G1 F1800 X104.59 Y235.41 E260.49313
G1 X104.59 Y64.59 E266.17462
G1 X111.41 Y64.59 E266.40146
G1 X111.41 Y235.41 E272.08295
M204 S5000
M205 X30 Y30
G0 F3600 X111.81 Y235.81
M204 S500
M205 X20 Y20
G1 F1800 X104.19 Y235.81 E272.33639
G1 X104.19 Y64.19 E278.0445
G1 X111.81 Y64.19 E278.29794
G1 X111.81 Y235.81 E284.00605
M204 S5000
M205 X30 Y30
G0 F3600 X112.21 Y236.21
M204 S500
M205 X20 Y20
