;FLAVOR:Marlin
;TIME:25246
;Filament used: 30.6801m
;Layer height: 0.2
;Generated with Cura_SteamEngine 3.4.1
M190 S35
M104 S210
M109 S210
M82 ;absolute extrusion mode
G28 ;Home
G1 Z15.0 F6000 ;Move the platform down 15mm
;Prime the extruder
G92 E0
G1 F200 E20
G92 E0
G92 E4665.49518
G1 F2400 E4660
;LAYER_COUNT:53
;LAYER:0
M107
M204 S5000
M205 X30 Y30
G0 F3600 X146 Y68 Z11.2
M204 S500
M205 X20 Y20

;TIME_ELAPSED:24964.225256
;LAYER:50
G0 X146.761 Y68.224 Z10.2
M204 S500
M205 X20 Y20
;TYPE:WALL-INNER
G1 F3600 X146.071 Y70.167 E4665.56376
G1 X146.134 Y70.712 E4665.58201
G1 X146.165 Y71.574 E4665.6107
G1 X146.044 Y72.223 E4665.63265
G1 X145.777 Y72.822 E4665.65447
G1 X145.396 Y73.318 E4665.67527
G1 X144.911 Y73.707 E4665.69595
G1 X144.319 Y73.989 E4665.71776
G1 X143.679 Y74.133 E4665.73958
G1 X142.717 Y74.103 E4665.77159
G1 X142.132 Y73.954 E4665.79167
G1 X141.603 Y73.726 E4665.81083
G1 X141.114 Y73.414 E4665.83012
G1 X140.372 Y72.712 E4665.86409
G1 X139.859 Y71.914 E4665.89564
G1 X139.65 Y71.368 E4665.91509
G1 X139.529 Y70.778 E4665.93512
G1 X139.538 Y69.998 E4665.96107
G1 X139.673 Y69.417 E4665.98091
G1 X139.922 Y68.89 E4666.00029
G1 X140.27 Y68.435 E4666.01934
G1 X140.711 Y68.065 E4666.03849
G1 X141.246 Y67.787 E4666.05854
G1 X141.859 Y67.617 E4666.0797
G1 X142.658 Y67.574 E4666.10631
G1 X143.293 Y67.58 E4666.12744
G1 X145.011 Y66.727 E4666.19123
G1 X144.589 Y65.145 E4666.24569
G1 X144.515 Y64.955 E4666.25247
G1 X144.278 Y64.205 E4666.27863
G1 X144.117 Y63.321 E4666.30852
G1 X144.117 Y61.997 E4666.35255
G1 X144.314 Y60.973 E4666.38724
G1 X144.637 Y60.076 E4666.41895
G1 X145.122 Y59.208 E4666.45202
G1 X145.83 Y58.323 E4666.48971
G1 X146.684 Y57.583 E4666.5273
G1 X147.664 Y57.003 E4666.56517
G1 X148.573 Y56.653 E4666.59757
G1 X149.535 Y56.45 E4666.63027
G1 X150.853 Y56.419 E4666.67412
G1 X151.78 Y56.565 E4666.70533
G1 X152.562 Y56.805 E4666.73254
G1 X153.831 Y57.469 E4666.78017
G1 X154.892 Y58.368 E4666.82643
G1 X155.764 Y59.523 E4666.87456
G1 X156.031 Y60.031 E4666.89365
G1 X156.282 Y60.674 E4666.91661
G1 X156.524 Y61.645 E4666.94989
G1 X156.586 Y62.176 E4666.96767
G1 X156.6 Y62.794 E4666.98823
G1 X156.501 Y63.798 E4667.02179
G1 X156.365 Y64.382 E4667.04173
G1 X156.175 Y64.951 E4667.06168
G1 X155.15 Y67.581 E4667.15557
G1 X155.088 Y67.741 E4667.16127
G1 X154.919 Y67.793 E4667.16715
G1 X152.348 Y68.591 E4667.25669
G1 X151.296 Y68.836 E4667.29262
G1 X150.339 Y68.906 E4667.32453
G1 X149.5 Y68.856 E4667.35249
G1 X148.62 Y68.675 E4667.38237
G1 X146.761 Y68.224 E4667.44599
M204 S5000
M205 X30 Y30
G0 F7200 X155.388 Y67.864
M204 S500
M205 X20 Y20
G1 F3600 X158.007 Y67.59 E4667.53358
G1 X158.822 Y67.605 E4667.56069
G1 X159.465 Y67.766 E4667.58273
G1 X160.035 Y68.049 E4667.6039
G1 X160.509 Y68.444 E4667.62442
G1 X160.852 Y68.892 E4667.64319
G1 X161.1 Y69.419 E4667.66256
G1 X161.234 Y69.984 E4667.68187
G1 X161.232 Y70.808 E4667.70928
G1 X161.024 Y71.645 E4667.73797
G1 X160.613 Y72.426 E4667.76732
G1 X159.991 Y73.14 E4667.79881
G1 X159.394 Y73.593 E4667.82374
G1 X158.739 Y73.915 E4667.84802
G1 X158.047 Y74.103 E4667.87187
G1 X157.091 Y74.133 E4667.90368
G1 X156.446 Y73.988 E4667.92567
G1 X155.858 Y73.705 E4667.94737
G1 X155.339 Y73.282 E4667.96964
G1 X155.063 Y72.941 E4667.98423
G1 X154.848 Y72.558 E4667.99884
G1 X154.699 Y72.145 E4668.01344
G1 X154.609 Y71.652 E4668.03011
G1 X154.594 Y71.168 E4668.04622
G1 X154.654 Y70.663 E4668.06313
G1 X155.182 Y68.054 E4668.15167
G1 X155.217 Y67.881 E4668.15621
G1 X155.388 Y67.864 E4668.16193
M204 S5000
M205 X30 Y30
G0 F7200 X154.73 Y68.271
M204 S500
M205 X20 Y20
G1 F3600 X154.409 Y68.37 E4668.1731
G1 X152.444 Y68.98 E4668.24153
G1 X151.359 Y69.233 E4668.27859
G1 X150.344 Y69.307 E4668.31243
G1 X149.444 Y69.253 E4668.34242
G1 X148.535 Y69.066 E4668.37329
G1 X147.017 Y68.698 E4668.42524
G1 X146.479 Y70.213 E4668.47871
G1 X146.534 Y70.689 E4668.49465
G1 X146.566 Y71.602 E4668.52503
G1 X146.428 Y72.343 E4668.5501
G1 X146.124 Y73.026 E4668.57497
G1 X145.683 Y73.601 E4668.59907
G1 X145.125 Y74.048 E4668.62285
G1 X144.451 Y74.369 E4668.64768
G1 X143.716 Y74.535 E4668.67274
G1 X142.659 Y74.502 E4668.70792
G1 X142.008 Y74.336 E4668.73026
G1 X141.414 Y74.08 E4668.75177
G1 X140.867 Y73.731 E4668.77336
G1 X140.063 Y72.969 E4668.8102
G1 X139.501 Y72.095 E4668.84476
G1 X139.264 Y71.477 E4668.86677
G1 X139.129 Y70.817 E4668.88918
G1 X139.138 Y69.948 E4668.91808
G1 X139.292 Y69.285 E4668.94072
G1 X139.576 Y68.684 E4668.96283
G1 X139.98 Y68.157 E4668.98492
G1 X140.488 Y67.73 E4669.00699
G1 X141.098 Y67.413 E4669.02985
G1 X141.794 Y67.22 E4669.05388
G1 X142.657 Y67.174 E4669.08262
G1 X143.201 Y67.179 E4669.10072
G1 X144.54 Y66.514 E4669.15044
G1 X144.208 Y65.27 E4669.19326
G1 X144.142 Y65.101 E4669.1993
G1 X143.887 Y64.293 E4669.22748
G1 X143.717 Y63.36 E4669.25902
G1 X143.717 Y61.957 E4669.30569
G1 X143.926 Y60.872 E4669.34244
G1 X144.273 Y59.908 E4669.37651
G1 X144.789 Y58.984 E4669.41171
G1 X145.541 Y58.045 E4669.45173
G1 X146.45 Y57.257 E4669.49174
G1 X147.489 Y56.642 E4669.5319
G1 X148.458 Y56.269 E4669.56643
G1 X149.491 Y56.051 E4669.60154
G1 X150.878 Y56.018 E4669.64769
G1 X151.868 Y56.174 E4669.68102
G1 X152.716 Y56.434 E4669.71052
G1 X154.057 Y57.136 E4669.76087
G1 X155.183 Y58.09 E4669.80995
G1 X156.103 Y59.309 E4669.86075
G1 X156.398 Y59.87 E4669.88183
G1 X156.663 Y60.548 E4669.90604
G1 X156.918 Y61.571 E4669.94111
G1 X156.986 Y62.153 E4669.9606
G1 X157.001 Y62.808 E4669.98239
G1 X156.896 Y63.868 E4670.01782
G1 X156.753 Y64.483 E4670.03882
G1 X156.548 Y65.096 E4670.06031
G1 X155.755 Y67.131 E4670.13296
G1 X155.637 Y67.435 E4670.1438
G1 X155.962 Y67.401 E4670.15003
G1 X157.989 Y67.189 E4670.21781
G1 X158.874 Y67.206 E4670.24725
G1 X159.604 Y67.388 E4670.27228
G1 X160.255 Y67.712 E4670.29646
G1 X160.801 Y68.167 E4670.3201
G1 X161.196 Y68.683 E4670.34172
G1 X161.479 Y69.283 E4670.36378
G1 X161.634 Y69.939 E4670.3862
G1 X161.632 Y70.856 E4670.4167
G1 X161.4 Y71.791 E4670.44874
G1 X160.945 Y72.654 E4670.48119
G1 X160.266 Y73.434 E4670.51559
G1 X159.606 Y73.935 E4670.54314
G1 X158.882 Y74.291 E4670.56998
G1 X158.106 Y74.502 E4670.59673
G1 X157.054 Y74.535 E4670.63173
G1 X156.312 Y74.368 E4670.65703
G1 X155.642 Y74.046 E4670.68175
G1 X155.053 Y73.565 E4670.70705
G1 X154.731 Y73.167 E4670.72407
G1 X154.484 Y72.728 E4670.74083
G1 X154.31 Y72.246 E4670.75787
G1 X154.21 Y71.697 E4670.77643
G1 X154.193 Y71.153 E4670.79453
G1 X154.259 Y70.598 E4670.81312
G1 X154.664 Y68.601 E4670.8809
G1 X154.665 Y68.6 E4670.88094
G1 X154.73 Y68.271 E4670.8873
M204 S5000
M205 X30 Y30
G0 F7200 X154.204 Y68.853
M204 S500
M205 X20 Y20
G1 F3600 X153.883 Y68.952 E4670.89847
G1 X152.54 Y69.369 E4670.94525
G1 X151.422 Y69.63 E4670.98343
G1 X150.349 Y69.708 E4671.01921
G1 X149.389 Y69.65 E4671.0512
G1 X148.444 Y69.456 E4671.08329
G1 X147.273 Y69.172 E4671.12336
G1 X146.887 Y70.259 E4671.16173
G1 X146.934 Y70.666 E4671.17536
G1 X146.968 Y71.631 E4671.20747
G1 X146.812 Y72.464 E4671.23566
G1 X146.471 Y73.231 E4671.26358
G1 X145.971 Y73.882 E4671.29088
G1 X145.339 Y74.389 E4671.31783
G1 X144.582 Y74.749 E4671.34571
G1 X143.754 Y74.937 E4671.37395
G1 X142.601 Y74.901 E4671.41232
G1 X141.884 Y74.718 E4671.43693
G1 X141.225 Y74.434 E4671.4608
G1 X140.62 Y74.048 E4671.48467
G1 X139.754 Y73.226 E4671.52438
G1 X139.143 Y72.276 E4671.56195
G1 X138.878 Y71.586 E4671.58653
G1 X138.729 Y70.856 E4671.61131
G1 X138.738 Y69.898 E4671.64317
G1 X138.912 Y69.153 E4671.66862
G1 X139.232 Y68.475 E4671.69356
G1 X139.687 Y67.881 E4671.71844
G1 X140.265 Y67.395 E4671.74356
G1 X140.95 Y67.039 E4671.76924
G1 X141.729 Y66.823 E4671.79612
G1 X142.656 Y66.774 E4671.827
G1 X143.109 Y66.778 E4671.84207
G1 X144.069 Y66.301 E4671.87772
G1 X143.827 Y65.394 E4671.90894
G1 X143.767 Y65.239 E4671.91447
G1 X143.496 Y64.381 E4671.9444
G1 X143.317 Y63.399 E4671.9776
G1 X143.317 Y61.917 E4672.02689
G1 X143.538 Y60.771 E4672.06571
G1 X143.909 Y59.74 E4672.10215
G1 X144.456 Y58.76 E4672.13948
G1 X145.252 Y57.767 E4672.18181
G1 X146.216 Y56.931 E4672.22425
G1 X147.313 Y56.281 E4672.26666
G1 X148.342 Y55.885 E4672.30333
G1 X149.448 Y55.652 E4672.34092
G1 X150.903 Y55.617 E4672.38933
G1 X151.956 Y55.783 E4672.42479
G1 X152.87 Y56.063 E4672.45658
G1 X154.283 Y56.803 E4672.50963
G1 X155.474 Y57.812 E4672.56155
G1 X156.442 Y59.094 E4672.61498
G1 X156.764 Y59.706 E4672.63798
G1 X157.044 Y60.425 E4672.66364
G1 X157.312 Y61.497 E4672.70039
G1 X157.386 Y62.13 E4672.72159
G1 X157.401 Y62.822 E4672.74461
G1 X157.291 Y63.936 E4672.78185
G1 X157.14 Y64.587 E4672.80407
G1 X156.921 Y65.241 E4672.82701
G1 X156.366 Y66.665 E4672.87784
G1 X156.248 Y66.969 E4672.88869
G1 X156.573 Y66.936 E4672.89492
G1 X157.971 Y66.789 E4672.94168
G1 X158.926 Y66.807 E4672.97345
G1 X159.742 Y67.01 E4673.00141
G1 X160.475 Y67.375 E4673.02865
G1 X161.09 Y67.888 E4673.05529
G1 X161.541 Y68.476 E4673.07993
G1 X161.858 Y69.15 E4673.10471
G1 X162.034 Y69.894 E4673.13013
G1 X162.032 Y70.905 E4673.16376
G1 X161.776 Y71.934 E4673.19903
G1 X161.276 Y72.884 E4673.23473
G1 X160.541 Y73.728 E4673.27196
G1 X159.818 Y74.277 E4673.30215
G1 X159.025 Y74.667 E4673.33155
G1 X158.165 Y74.901 E4673.36119
G1 X157.017 Y74.937 E4673.39939
G1 X156.177 Y74.747 E4673.42803
G1 X155.426 Y74.386 E4673.45575
G1 X154.768 Y73.848 E4673.48402
G1 X154.402 Y73.397 E4673.50334
G1 X154.118 Y72.893 E4673.52258
G1 X153.921 Y72.346 E4673.54191
G1 X153.811 Y71.741 E4673.56237
G1 X153.792 Y71.138 E4673.58243
G1 X153.864 Y70.533 E4673.6027
G1 X154.138 Y69.183 E4673.64851
G1 X154.139 Y69.182 E4673.64856
G1 X154.204 Y68.853 E4673.65492
M204 S5000
M205 X30 Y30
G0 F7200 X153.678 Y69.435
M204 S500
M205 X20 Y20
G1 F3600 X153.357 Y69.533 E4673.66608
G1 X153.356 Y69.534 E4673.66613
G1 X152.64 Y69.757 E4673.69107
G1 X151.485 Y70.026 E4673.73052
G1 X150.354 Y70.109 E4673.76824
G1 X149.334 Y70.047 E4673.80222
G1 X148.353 Y69.846 E4673.83553
G1 X147.529 Y69.646 E4673.86373
G1 X147.295 Y70.305 E4673.88699
G1 X147.334 Y70.643 E4673.89831
G1 X147.37 Y71.66 E4673.93215
G1 X147.196 Y72.585 E4673.96346
G1 X146.818 Y73.436 E4673.99443
G1 X146.259 Y74.163 E4674.02493
G1 X145.553 Y74.73 E4674.05505
G1 X144.714 Y75.129 E4674.08595
G1 X143.791 Y75.338 E4674.11742
G1 X142.544 Y75.3 E4674.15892
G1 X141.76 Y75.1 E4674.18583
G1 X141.036 Y74.788 E4674.21205
G1 X140.37 Y74.363 E4674.23833
G1 X139.445 Y73.484 E4674.28077
G1 X138.785 Y72.459 E4674.32132
G1 X138.493 Y71.7 E4674.34837
G1 X138.329 Y70.895 E4674.37569
G1 X138.338 Y69.852 E4674.41038
G1 X138.534 Y69.017 E4674.43891
G1 X138.888 Y68.266 E4674.46652
G1 X139.394 Y67.605 E4674.49421
G1 X140.042 Y67.06 E4674.52237
G1 X140.806 Y66.663 E4674.55101
G1 X141.66 Y66.427 E4674.58048
G1 X142.655 Y66.374 E4674.61362
G1 X143.017 Y66.377 E4674.62566
G1 X143.598 Y66.088 E4674.64724
G1 X143.446 Y65.518 E4674.66686
G1 X143.394 Y65.384 E4674.67164
G1 X143.108 Y64.479 E4674.70321
G1 X142.917 Y63.433 E4674.73858
G1 X142.917 Y61.877 E4674.79033
G1 X143.15 Y60.67 E4674.83122
G1 X143.545 Y59.572 E4674.87003
G1 X144.123 Y58.536 E4674.90948
G1 X144.963 Y57.489 E4674.95413
G1 X145.982 Y56.605 E4674.999
G1 X147.137 Y55.92 E4675.04366
G1 X148.226 Y55.501 E4675.08247
G1 X149.405 Y55.253 E4675.12254
G1 X150.928 Y55.216 E4675.17321
G1 X152.044 Y55.392 E4675.21079
G1 X153.024 Y55.692 E4675.24488
G1 X154.509 Y56.47 E4675.30064
G1 X155.765 Y57.534 E4675.35539
G1 X156.781 Y58.879 E4675.41145
G1 X157.13 Y59.542 E4675.43637
G1 X157.425 Y60.302 E4675.46348
G1 X157.706 Y61.423 E4675.50192
G1 X157.786 Y62.107 E4675.52483
G1 X157.801 Y62.836 E4675.54908
G1 X157.686 Y64.004 E4675.58811
G1 X157.527 Y64.691 E4675.61157
G1 X157.294 Y65.386 E4675.63595
G1 X156.977 Y66.199 E4675.66497
G1 X156.859 Y66.503 E4675.67582
G1 X157.184 Y66.47 E4675.68205
G1 X157.954 Y66.389 E4675.7078
G1 X158.978 Y66.408 E4675.74187
G1 X159.883 Y66.633 E4675.77288
G1 X160.693 Y67.037 E4675.80299
G1 X161.379 Y67.608 E4675.83267
G1 X161.886 Y68.269 E4675.86038
G1 X162.237 Y69.017 E4675.88786
G1 X162.434 Y69.849 E4675.9163
G1 X162.432 Y70.954 E4675.95305
G1 X162.152 Y72.077 E4675.99155
G1 X161.608 Y73.111 E4676.03041
G1 X160.814 Y74.024 E4676.07065
G1 X160.03 Y74.619 E4676.10339
G1 X159.168 Y75.043 E4676.13534
G1 X158.224 Y75.3 E4676.16788
G1 X156.98 Y75.338 E4676.20927
G1 X156.044 Y75.127 E4676.24119
G1 X155.209 Y74.725 E4676.27201
G1 X154.483 Y74.132 E4676.30319
G1 X154.073 Y73.627 E4676.32482
G1 X153.753 Y73.059 E4676.34651
G1 X153.532 Y72.445 E4676.36821
G1 X153.412 Y71.784 E4676.39055
G1 X153.391 Y71.124 E4676.41252
G1 X153.469 Y70.468 E4676.43449
G1 X153.612 Y69.765 E4676.45835
G1 X153.613 Y69.764 E4676.4584
G1 X153.678 Y69.435 E4676.46477
M204 S5000
M205 X30 Y30
G0 F7200 X153.152 Y70.017
M204 S500
M205 X20 Y20
;TYPE:WALL-OUTER
G1 F2400 X152.973 Y70.072 E4676.47099
G1 X152.932 Y70.084 E4676.47241
G1 X152.736 Y70.146 E4676.47925
G1 X152.723 Y70.149 E4676.4797
G1 X151.548 Y70.423 E4676.51982
G1 X150.359 Y70.51 E4676.55948
G1 X149.279 Y70.444 E4676.59546
G1 X148.256 Y70.235 E4676.63019
G1 X147.893 Y70.146 E4676.64262
G1 X147.785 Y70.12 E4676.64632
G1 X147.703 Y70.351 E4676.65447
G1 X147.715 Y70.461 E4676.65756
G1 X147.734 Y70.62 E4676.66289
G1 X147.772 Y71.689 E4676.69847
G1 X147.58 Y72.706 E4676.73289
G1 X147.165 Y73.641 E4676.76692
G1 X146.548 Y74.444 E4676.8006
G1 X145.767 Y75.071 E4676.83391
G1 X144.846 Y75.509 E4676.86783
G1 X143.828 Y75.739 E4676.90254
G1 X142.487 Y75.699 E4676.94716
G1 X141.636 Y75.482 E4676.97637
G1 X140.847 Y75.142 E4677.00495
G1 X140.12 Y74.678 E4677.03363
G1 X139.136 Y73.742 E4677.0788
G1 X138.427 Y72.642 E4677.12233
G1 X138.107 Y71.811 E4677.15195
G1 X137.929 Y70.934 E4677.18171
G1 X137.938 Y69.805 E4677.21926
G1 X138.155 Y68.884 E4677.25073
G1 X138.543 Y68.059 E4677.28106
G1 X139.104 Y67.327 E4677.31173
G1 X139.821 Y66.724 E4677.34289
G1 X140.659 Y66.288 E4677.37431
G1 X141.592 Y66.031 E4677.4065
G1 X142.653 Y65.974 E4677.44184
G1 X142.896 Y65.976 E4677.44992
G1 X142.924 Y65.976 E4677.45085
G1 X143.127 Y65.875 E4677.45839
G1 X143.065 Y65.642 E4677.46641
G1 X143.055 Y65.616 E4677.46734
G1 X143.021 Y65.529 E4677.47045
G1 X142.717 Y64.57 E4677.50391
G1 X142.517 Y63.472 E4677.54103
G1 X142.517 Y61.837 E4677.59541
G1 X142.762 Y60.566 E4677.63846
G1 X143.18 Y59.406 E4677.67947
G1 X143.79 Y58.312 E4677.72113
G1 X144.674 Y57.211 E4677.76809
G1 X145.748 Y56.279 E4677.81539
G1 X146.961 Y55.559 E4677.8623
G1 X148.11 Y55.117 E4677.90325
G1 X149.362 Y54.854 E4677.9458
G1 X150.953 Y54.815 E4677.99873
G1 X152.132 Y55.001 E4678.03843
G1 X153.178 Y55.322 E4678.07482
G1 X154.735 Y56.137 E4678.13328
G1 X156.056 Y57.256 E4678.19086
G1 X157.12 Y58.664 E4678.24955
G1 X157.496 Y59.379 E4678.27642
G1 X157.806 Y60.179 E4678.30496
G1 X158.1 Y61.349 E4678.34508
G1 X158.186 Y62.084 E4678.3697
G1 X158.201 Y62.85 E4678.39518
G1 X158.081 Y64.072 E4678.43602
G1 X157.914 Y64.794 E4678.46067
G1 X157.667 Y65.531 E4678.48652
G1 X157.589 Y65.731 E4678.49366
G1 X157.588 Y65.732 E4678.49371
G1 X157.47 Y66.037 E4678.50458
G1 X157.796 Y66.003 E4678.51083
G1 X157.936 Y65.988 E4678.51552
G1 X159.029 Y66.009 E4678.55188
G1 X160.025 Y66.256 E4678.58601
G1 X160.914 Y66.7 E4678.61906
G1 X161.669 Y67.328 E4678.65172
G1 X162.229 Y68.059 E4678.68235
G1 X162.616 Y68.884 E4678.71266
G1 X162.834 Y69.804 E4678.7441
G1 X162.832 Y71.003 E4678.78398
G1 X162.528 Y72.22 E4678.8257
G1 X161.939 Y73.341 E4678.86782
G1 X161.089 Y74.318 E4678.91089
G1 X160.242 Y74.961 E4678.94626
G1 X159.311 Y75.419 E4678.98077
G1 X158.283 Y75.699 E4679.01621
G1 X156.943 Y75.739 E4679.0608
G1 X155.911 Y75.507 E4679.09598
G1 X154.992 Y75.064 E4679.12991
G1 X154.201 Y74.418 E4679.16388
G1 X153.742 Y73.853 E4679.18809
G1 X153.388 Y73.225 E4679.21207
G1 X153.143 Y72.543 E4679.23617
G1 X153.013 Y71.829 E4679.26031
G1 X152.99 Y71.11 E4679.28423
G1 X153.069 Y70.443 E4679.30657
G1 X153.074 Y70.401 E4679.3079
G1 X153.108 Y70.235 E4679.31353
G1 X153.11 Y70.222
G1 X153.152 Y70.017 E4679.31626
M204 S5000
M205 X30 Y30
G0 F7200 X152.973 Y70.072
G0 X152.961 Y70.075
G0 X152.813 Y69.599
G0 X152.256 Y68.212
M204 S500
M205 X20 Y20
;TYPE:SKIN
G1 F1800 X151.231 Y68.45 E4679.35126
G1 X150.349 Y68.516 E4679.38067
G1 X149.546 Y68.468 E4679.40743
