;FLAVOR:Marlin
;TIME:12724
;Filament used: 15.4088m
;Layer height: 0.2
;Generated with Cura_SteamEngine 3.4.1
M190 S35
M104 S200
M109 S200
M82 ;absolute extrusion mode
G28 ;Home
G1 Z15.0 F6000 ;Move the platform down 15mm
;Prime the extruder
G92 E0
G1 F200 E25
G92 E0
G92 E9139.41176
G1 F2400 E9134
;LAYER_COUNT:53
;LAYER:0
M107
M204 S5000
M205 X30 Y30
G0 F3600 X126.893 Y53.645 Z12.2
M204 S500
M205 X20 Y20

;LAYER:50
G0 X144.612 Y67.864 Z10.2
M204 S500
M205 X20 Y20
;TYPE:WALL-INNER
G1 F3600 X144.783 Y67.881 E9139.41748
G1 X144.818 Y68.054 E9139.42335
G1 X145.346 Y70.663 E9139.51188
G1 X145.406 Y71.168 E9139.5288
G1 X145.391 Y71.652 E9139.5449
G1 X145.301 Y72.145 E9139.56157
G1 X145.152 Y72.558 E9139.57617
G1 X144.937 Y72.941 E9139.59078
G1 X144.661 Y73.282 E9139.60537
G1 X144.142 Y73.705 E9139.62764
G1 X143.554 Y73.988 E9139.64935
G1 X142.909 Y74.133 E9139.67133
G1 X141.953 Y74.103 E9139.70315
G1 X141.261 Y73.915 E9139.727
G1 X140.606 Y73.593 E9139.75127
G1 X140.009 Y73.14 E9139.7762
G1 X139.387 Y72.426 E9139.80769
G1 X138.976 Y71.645 E9139.83705
G1 X138.768 Y70.808 E9139.86573
G1 X138.766 Y69.984 E9139.89314
G1 X138.9 Y69.419 E9139.91245
G1 X139.148 Y68.892 E9139.93182
G1 X139.491 Y68.444 E9139.95059
G1 X139.965 Y68.049 E9139.97111
G1 X140.535 Y67.766 E9139.99228
G1 X141.178 Y67.605 E9140.01432
G1 X141.993 Y67.59 E9140.04144
G1 X144.612 Y67.864 E9140.12902
M204 S5000
M205 X30 Y30
G0 F7200 X153.239 Y68.224
M204 S500
M205 X20 Y20
G1 F3600 X151.38 Y68.675 E9140.19264
G1 X150.5 Y68.856 E9140.22253
G1 X149.661 Y68.906 E9140.25048
G1 X148.704 Y68.836 E9140.2824
G1 X147.652 Y68.591 E9140.31832
G1 X145.081 Y67.793 E9140.40786
G1 X144.912 Y67.741 E9140.41241
G1 X144.85 Y67.581 E9140.41812
G1 X143.825 Y64.951 E9140.512
G1 X143.635 Y64.382 E9140.53195
G1 X143.499 Y63.798 E9140.5519
G1 X143.4 Y62.794 E9140.58545
G1 X143.414 Y62.176 E9140.60601
G1 X143.476 Y61.645 E9140.62379
G1 X143.718 Y60.674 E9140.65708
G1 X143.969 Y60.031 E9140.68003
G1 X144.236 Y59.523 E9140.69912
G1 X145.108 Y58.368 E9140.74726
G1 X146.169 Y57.469 E9140.79351
G1 X147.438 Y56.805 E9140.84114
G1 X148.22 Y56.565 E9140.86835
G1 X149.147 Y56.419 E9140.89956
G1 X150.465 Y56.45 E9140.94341
G1 X151.427 Y56.653 E9140.97611
G1 X152.336 Y57.003 E9141.00851
G1 X153.316 Y57.583 E9141.04639
G1 X154.17 Y58.323 E9141.08397
G1 X154.878 Y59.208 E9141.12167
G1 X155.363 Y60.076 E9141.15474
G1 X155.686 Y60.973 E9141.18645
G1 X155.883 Y61.997 E9141.22113
G1 X155.883 Y63.321 E9141.26517
G1 X155.722 Y64.205 E9141.29505
G1 X155.485 Y64.955 E9141.32121
G1 X155.411 Y65.145 E9141.32799
G1 X154.989 Y66.727 E9141.38245
G1 X156.707 Y67.58 E9141.44625
G1 X157.342 Y67.574 E9141.46737
G1 X158.141 Y67.617 E9141.49398
G1 X158.754 Y67.787 E9141.51514
G1 X159.289 Y68.065 E9141.53519
G1 X159.73 Y68.435 E9141.55434
G1 X160.078 Y68.89 E9141.57339
G1 X160.327 Y69.417 E9141.59278
G1 X160.462 Y69.998 E9141.61262
G1 X160.471 Y70.778 E9141.63856
G1 X160.35 Y71.368 E9141.65859
G1 X160.141 Y71.914 E9141.67804
G1 X159.628 Y72.712 E9141.70959
G1 X158.886 Y73.414 E9141.74357
G1 X158.397 Y73.726 E9141.76286
G1 X157.868 Y73.954 E9141.78202
G1 X157.283 Y74.103 E9141.8021
G1 X156.321 Y74.133 E9141.83411
G1 X155.681 Y73.989 E9141.85593
G1 X155.089 Y73.707 E9141.87774
G1 X154.604 Y73.318 E9141.89841
G1 X154.223 Y72.822 E9141.91922
G1 X153.956 Y72.223 E9141.94103
G1 X153.835 Y71.574 E9141.96299
G1 X153.866 Y70.712 E9141.99168
G1 X153.929 Y70.167 E9142.00992
G1 X153.239 Y68.224 E9142.0785
M204 S5000
M205 X30 Y30
G0 F7200 X145.27 Y68.271
M204 S500
M205 X20 Y20
G1 F3600 X145.335 Y68.6 E9142.08966
G1 X145.336 Y68.601 E9142.0897
G1 X145.741 Y70.598 E9142.15748
G1 X145.807 Y71.153 E9142.17607
G1 X145.79 Y71.697 E9142.19417
G1 X145.69 Y72.246 E9142.21273
G1 X145.516 Y72.728 E9142.22977
G1 X145.269 Y73.167 E9142.24653
G1 X144.947 Y73.565 E9142.26355
G1 X144.358 Y74.046 E9142.28885
G1 X143.688 Y74.368 E9142.31357
G1 X142.946 Y74.535 E9142.33887
G1 X141.894 Y74.502 E9142.37387
G1 X141.118 Y74.291 E9142.40062
G1 X140.394 Y73.935 E9142.42745
G1 X139.734 Y73.434 E9142.45501
G1 X139.055 Y72.654 E9142.48941
G1 X138.6 Y71.791 E9142.52186
G1 X138.368 Y70.856 E9142.5539
G1 X138.366 Y69.939 E9142.5844
G1 X138.521 Y69.283 E9142.60682
G1 X138.804 Y68.683 E9142.62888
G1 X139.199 Y68.167 E9142.6505
G1 X139.745 Y67.712 E9142.67414
G1 X140.396 Y67.388 E9142.69832
G1 X141.126 Y67.206 E9142.72334
G1 X142.011 Y67.189 E9142.75278
G1 X144.038 Y67.401 E9142.82057
G1 X144.363 Y67.435 E9142.83144
G1 X144.245 Y67.131 E9142.83765
G1 X143.452 Y65.096 E9142.91029
G1 X143.247 Y64.483 E9142.93179
G1 X143.104 Y63.868 E9142.95279
G1 X142.999 Y62.808 E9142.98822
G1 X143.014 Y62.153 E9143.01001
G1 X143.082 Y61.571 E9143.0295
G1 X143.337 Y60.548 E9143.06457
G1 X143.602 Y59.87 E9143.08878
G1 X143.897 Y59.309 E9143.10986
G1 X144.817 Y58.09 E9143.16066
G1 X145.943 Y57.136 E9143.20974
G1 X147.284 Y56.434 E9143.26009
G1 X148.132 Y56.174 E9143.28959
G1 X149.122 Y56.018 E9143.32292
G1 X150.509 Y56.051 E9143.36906
G1 X151.542 Y56.269 E9143.40418
G1 X152.511 Y56.642 E9143.43871
G1 X153.55 Y57.257 E9143.47887
G1 X154.459 Y58.045 E9143.51888
G1 X155.211 Y58.984 E9143.5589
G1 X155.727 Y59.908 E9143.59409
G1 X156.074 Y60.872 E9143.62817
G1 X156.283 Y61.957 E9143.66492
G1 X156.283 Y63.36 E9143.71159
G1 X156.113 Y64.293 E9143.74313
G1 X155.858 Y65.101 E9143.77131
G1 X155.792 Y65.27 E9143.77734
G1 X155.46 Y66.514 E9143.82017
G1 X156.799 Y67.179 E9143.86989
G1 X157.343 Y67.174 E9143.88799
G1 X158.206 Y67.22 E9143.91673
G1 X158.902 Y67.413 E9143.94075
G1 X159.512 Y67.73 E9143.96362
G1 X160.02 Y68.157 E9143.98569
G1 X160.424 Y68.684 E9144.00778
G1 X160.708 Y69.285 E9144.02989
G1 X160.862 Y69.948 E9144.05252
G1 X160.871 Y70.817 E9144.08143
G1 X160.736 Y71.477 E9144.10383
G1 X160.499 Y72.095 E9144.12585
G1 X159.937 Y72.969 E9144.16041
G1 X159.133 Y73.731 E9144.19725
G1 X158.586 Y74.08 E9144.21883
G1 X157.992 Y74.336 E9144.24035
G1 X157.341 Y74.502 E9144.26269
G1 X156.284 Y74.535 E9144.29787
G1 X155.549 Y74.369 E9144.32293
G1 X154.875 Y74.048 E9144.34776
G1 X154.317 Y73.601 E9144.37154
G1 X153.876 Y73.026 E9144.39564
G1 X153.572 Y72.343 E9144.4205
G1 X153.434 Y71.602 E9144.44557
G1 X153.466 Y70.689 E9144.47596
G1 X153.521 Y70.213 E9144.4919
G1 X152.983 Y68.698 E9144.54537
G1 X151.465 Y69.066 E9144.59732
G1 X150.556 Y69.253 E9144.62819
G1 X149.656 Y69.307 E9144.65817
G1 X148.641 Y69.233 E9144.69202
G1 X147.556 Y68.98 E9144.72908
G1 X145.591 Y68.37 E9144.79751
G1 X145.27 Y68.271 E9144.80388
M204 S5000
M205 X30 Y30
G0 F7200 X145.796 Y68.853
M204 S500
M205 X20 Y20
G1 F3600 X145.861 Y69.182 E9144.81503
G1 X145.862 Y69.183 E9144.81508
G1 X146.136 Y70.533 E9144.8609
G1 X146.208 Y71.138 E9144.88116
G1 X146.189 Y71.741 E9144.90123
G1 X146.079 Y72.346 E9144.92168
G1 X145.882 Y72.893 E9144.94102
G1 X145.598 Y73.397 E9144.96026
G1 X145.232 Y73.848 E9144.97958
G1 X144.574 Y74.386 E9145.00785
G1 X143.823 Y74.747 E9145.03556
G1 X142.983 Y74.937 E9145.06421
G1 X141.835 Y74.901 E9145.10241
G1 X140.975 Y74.667 E9145.13205
G1 X140.182 Y74.277 E9145.16144
G1 X139.459 Y73.728 E9145.19164
G1 X138.724 Y72.884 E9145.22886
G1 X138.224 Y71.934 E9145.26457
G1 X137.968 Y70.905 E9145.29984
G1 X137.966 Y69.894 E9145.33346
G1 X138.142 Y69.15 E9145.35889
G1 X138.459 Y68.476 E9145.38366
G1 X138.91 Y67.888 E9145.40831
G1 X139.525 Y67.375 E9145.43495
G1 X140.258 Y67.01 E9145.46218
G1 X141.074 Y66.807 E9145.49015
G1 X142.029 Y66.789 E9145.52192
G1 X143.427 Y66.936 E9145.56867
G1 X143.752 Y66.969 E9145.57954
G1 X143.634 Y66.665 E9145.58576
G1 X143.079 Y65.241 E9145.63659
G1 X142.86 Y64.587 E9145.65953
G1 X142.709 Y63.936 E9145.68176
G1 X142.599 Y62.822 E9145.71899
G1 X142.614 Y62.13 E9145.74201
G1 X142.688 Y61.497 E9145.76321
G1 X142.956 Y60.425 E9145.79996
G1 X143.236 Y59.706 E9145.82562
G1 X143.558 Y59.094 E9145.84863
G1 X144.526 Y57.812 E9145.90205
G1 X145.717 Y56.803 E9145.95397
G1 X147.13 Y56.063 E9146.00702
G1 X148.044 Y55.783 E9146.03882
G1 X149.097 Y55.617 E9146.07427
G1 X150.552 Y55.652 E9146.12268
G1 X151.658 Y55.885 E9146.16027
G1 X152.687 Y56.281 E9146.19695
G1 X153.784 Y56.931 E9146.23936
G1 X154.748 Y57.767 E9146.2818
G1 X155.544 Y58.76 E9146.32412
G1 X156.091 Y59.74 E9146.36145
G1 X156.462 Y60.771 E9146.3979
G1 X156.683 Y61.917 E9146.43672
G1 X156.683 Y63.399 E9146.48601
G1 X156.504 Y64.381 E9146.51921
G1 X156.233 Y65.239 E9146.54913
G1 X156.173 Y65.394 E9146.55466
G1 X155.931 Y66.301 E9146.58588
G1 X156.891 Y66.778 E9146.62154
G1 X157.344 Y66.774 E9146.63661
G1 X158.271 Y66.823 E9146.66748
G1 X159.05 Y67.039 E9146.69437
G1 X159.735 Y67.395 E9146.72004
G1 X160.313 Y67.881 E9146.74516
G1 X160.768 Y68.475 E9146.77005
G1 X161.088 Y69.153 E9146.79498
G1 X161.262 Y69.898 E9146.82043
G1 X161.271 Y70.856 E9146.85229
G1 X161.122 Y71.586 E9146.87707
G1 X160.857 Y72.276 E9146.90166
G1 X160.246 Y73.226 E9146.93923
G1 X159.38 Y74.048 E9146.97894
G1 X158.775 Y74.434 E9147.00281
G1 X158.116 Y74.718 E9147.02668
G1 X157.399 Y74.901 E9147.05129
G1 X156.246 Y74.937 E9147.08965
G1 X155.418 Y74.749 E9147.1179
G1 X154.661 Y74.389 E9147.14578
G1 X154.029 Y73.882 E9147.17272
G1 X153.529 Y73.231 E9147.20003
G1 X153.188 Y72.464 E9147.22794
G1 X153.032 Y71.631 E9147.25613
G1 X153.066 Y70.666 E9147.28825
G1 X153.113 Y70.259 E9147.30187
G1 X152.727 Y69.172 E9147.34024
G1 X151.556 Y69.456 E9147.38032
G1 X150.611 Y69.65 E9147.4124
G1 X149.651 Y69.708 E9147.44439
G1 X148.578 Y69.63 E9147.48017
G1 X147.46 Y69.369 E9147.51836
G1 X146.117 Y68.952 E9147.56513
G1 X145.796 Y68.853 E9147.5715
M204 S5000
M205 X30 Y30
G0 F7200 X146.322 Y69.435
M204 S500
M205 X20 Y20
G1 F3600 X146.387 Y69.764 E9147.58265
G1 X146.388 Y69.765 E9147.5827
G1 X146.531 Y70.468 E9147.60656
G1 X146.609 Y71.124 E9147.62853
G1 X146.588 Y71.784 E9147.6505
G1 X146.468 Y72.445 E9147.67284
G1 X146.247 Y73.059 E9147.69454
G1 X145.927 Y73.627 E9147.71623
G1 X145.517 Y74.132 E9147.73786
G1 X144.791 Y74.725 E9147.76904
G1 X143.956 Y75.127 E9147.79986
G1 X143.02 Y75.338 E9147.83178
G1 X141.776 Y75.3 E9147.87317
G1 X140.832 Y75.043 E9147.90571
G1 X139.97 Y74.619 E9147.93766
G1 X139.186 Y74.024 E9147.9704
G1 X138.392 Y73.111 E9148.01064
G1 X137.848 Y72.077 E9148.0495
G1 X137.568 Y70.954 E9148.088
G1 X137.566 Y69.849 E9148.12475
G1 X137.763 Y69.017 E9148.15319
G1 X138.114 Y68.269 E9148.18067
G1 X138.621 Y67.608 E9148.20838
G1 X139.307 Y67.037 E9148.23806
G1 X140.117 Y66.633 E9148.26817
G1 X141.022 Y66.408 E9148.29918
G1 X142.046 Y66.389 E9148.33325
G1 X142.816 Y66.47 E9148.359
G1 X143.141 Y66.503 E9148.36987
G1 X143.023 Y66.199 E9148.37609
G1 X142.706 Y65.386 E9148.40511
G1 X142.473 Y64.691 E9148.42949
G1 X142.314 Y64.004 E9148.45294
G1 X142.199 Y62.836 E9148.49198
G1 X142.214 Y62.107 E9148.51623
G1 X142.294 Y61.423 E9148.53914
G1 X142.575 Y60.302 E9148.57757
G1 X142.87 Y59.542 E9148.60469
G1 X143.219 Y58.879 E9148.62961
G1 X144.235 Y57.534 E9148.68567
G1 X145.491 Y56.47 E9148.74042
G1 X146.976 Y55.692 E9148.79618
G1 X147.956 Y55.392 E9148.83027
G1 X149.072 Y55.216 E9148.86785
G1 X150.595 Y55.253 E9148.91852
G1 X151.774 Y55.501 E9148.95859
G1 X152.863 Y55.92 E9148.9974
G1 X154.018 Y56.605 E9149.04206
G1 X155.037 Y57.489 E9149.08693
G1 X155.877 Y58.536 E9149.13158
G1 X156.455 Y59.572 E9149.17103
G1 X156.85 Y60.67 E9149.20984
G1 X157.083 Y61.877 E9149.25073
G1 X157.083 Y63.433 E9149.30248
G1 X156.892 Y64.479 E9149.33785
G1 X156.606 Y65.384 E9149.36942
G1 X156.554 Y65.518 E9149.3742
G1 X156.402 Y66.088 E9149.39382
G1 X156.983 Y66.377 E9149.4154
G1 X157.345 Y66.374 E9149.42744
G1 X158.34 Y66.427 E9149.46058
G1 X159.194 Y66.663 E9149.49005
G1 X159.958 Y67.06 E9149.51869
G1 X160.606 Y67.605 E9149.54685
G1 X161.112 Y68.266 E9149.57454
G1 X161.466 Y69.017 E9149.60215
G1 X161.662 Y69.852 E9149.63068
G1 X161.671 Y70.895 E9149.66537
G1 X161.507 Y71.7 E9149.69269
G1 X161.215 Y72.459 E9149.71974
G1 X160.555 Y73.484 E9149.76029
G1 X159.63 Y74.363 E9149.80273
G1 X158.964 Y74.788 E9149.82901
G1 X158.24 Y75.1 E9149.85523
G1 X157.456 Y75.3 E9149.88214
G1 X156.209 Y75.338 E9149.92363
G1 X155.286 Y75.129 E9149.95511
G1 X154.447 Y74.73 E9149.98601
G1 X153.741 Y74.163 E9150.01613
G1 X153.182 Y73.436 E9150.04663
G1 X152.804 Y72.585 E9150.0776
G1 X152.63 Y71.66 E9150.10891
G1 X152.666 Y70.643 E9150.14275
G1 X152.705 Y70.305 E9150.15407
G1 X152.471 Y69.646 E9150.17733
G1 X151.647 Y69.846 E9150.20553
G1 X150.666 Y70.047 E9150.23884
G1 X149.646 Y70.109 E9150.27282
G1 X148.515 Y70.026 E9150.31054
G1 X147.36 Y69.757 E9150.34999
G1 X146.644 Y69.534 E9150.37493
G1 X146.643 Y69.533 E9150.37498
G1 X146.322 Y69.435 E9150.38135
M204 S5000
M205 X30 Y30
G0 F7200 X146.848 Y70.017
M204 S500
M205 X20 Y20
;TYPE:WALL-OUTER
G1 F2400 X146.887 Y70.208 E9150.38783
G1 X146.889 Y70.222 E9150.3883
G1 X146.891 Y70.235 E9150.38874
G1 X146.926 Y70.401 E9150.39438
G1 X146.931 Y70.443 E9150.39579
G1 X147.01 Y71.11 E9150.41813
G1 X146.987 Y71.829 E9150.44205
G1 X146.857 Y72.543 E9150.46619
G1 X146.612 Y73.225 E9150.4903
G1 X146.258 Y73.853 E9150.51427
G1 X145.799 Y74.418 E9150.53848
G1 X145.008 Y75.064 E9150.57245
G1 X144.089 Y75.507 E9150.60638
G1 X143.057 Y75.739 E9150.64157
G1 X141.717 Y75.699 E9150.68615
G1 X140.689 Y75.419 E9150.72159
G1 X139.758 Y74.961 E9150.7561
G1 X138.911 Y74.318 E9150.79147
G1 X138.061 Y73.341 E9150.83454
G1 X137.472 Y72.22 E9150.87666
G1 X137.168 Y71.003 E9150.91838
G1 X137.166 Y69.804 E9150.95826
G1 X137.384 Y68.884 E9150.98971
G1 X137.771 Y68.059 E9151.02002
G1 X138.331 Y67.328 E9151.05064
G1 X139.086 Y66.7 E9151.08331
G1 X139.975 Y66.256 E9151.11636
G1 X140.971 Y66.009 E9151.15049
G1 X142.064 Y65.988 E9151.18685
G1 X142.204 Y66.003 E9151.19153
G1 X142.53 Y66.037 E9151.20243
G1 X142.412 Y65.732 E9151.20867
G1 X142.411 Y65.731 E9151.20872
G1 X142.333 Y65.531 E9151.21586
G1 X142.086 Y64.794 E9151.24171
G1 X141.919 Y64.072 E9151.26636
G1 X141.799 Y62.85 E9151.3072
G1 X141.814 Y62.084 E9151.33268
G1 X141.9 Y61.349 E9151.35729
G1 X142.194 Y60.179 E9151.39741
G1 X142.504 Y59.379 E9151.42595
G1 X142.88 Y58.664 E9151.45282
G1 X143.944 Y57.256 E9151.51152
G1 X145.265 Y56.137 E9151.5691
G1 X146.822 Y55.322 E9151.62755
G1 X147.868 Y55.001 E9151.66394
G1 X149.047 Y54.815 E9151.70364
G1 X150.638 Y54.854 E9151.75657
G1 X151.89 Y55.117 E9151.79912
G1 X153.039 Y55.559 E9151.84007
G1 X154.252 Y56.279 E9151.88699
G1 X155.326 Y57.211 E9151.93428
G1 X156.21 Y58.312 E9151.98124
G1 X156.82 Y59.406 E9152.02291
G1 X157.238 Y60.566 E9152.06392
G1 X157.483 Y61.837 E9152.10697
G1 X157.483 Y63.472 E9152.16135
G1 X157.283 Y64.57 E9152.19847
G1 X156.979 Y65.529 E9152.23193
G1 X156.945 Y65.616 E9152.23504
G1 X156.935 Y65.642 E9152.23596
G1 X156.873 Y65.875 E9152.24398
G1 X157.076 Y65.976 E9152.25152
G1 X157.104 Y65.976 E9152.25245
G1 X157.347 Y65.974 E9152.26054
G1 X158.408 Y66.031 E9152.29588
G1 X159.341 Y66.288 E9152.32806
G1 X160.179 Y66.724 E9152.35948
G1 X160.896 Y67.327 E9152.39064
G1 X161.457 Y68.059 E9152.42132
G1 X161.845 Y68.884 E9152.45164
G1 X162.062 Y69.805 E9152.48311
G1 X162.071 Y70.934 E9152.52066
G1 X161.893 Y71.811 E9152.55043
G1 X161.573 Y72.642 E9152.58004
G1 X160.864 Y73.742 E9152.62357
G1 X159.88 Y74.678 E9152.66874
G1 X159.153 Y75.142 E9152.69743
G1 X158.364 Y75.482 E9152.726
G1 X157.513 Y75.699 E9152.75521
G1 X156.172 Y75.739 E9152.79983
G1 X155.154 Y75.509 E9152.83455
G1 X154.233 Y75.071 E9152.86847
G1 X153.452 Y74.444 E9152.90178
G1 X152.835 Y73.641 E9152.93546
G1 X152.42 Y72.706 E9152.96948
G1 X152.228 Y71.689 E9153.00391
G1 X152.266 Y70.62 E9153.03948
G1 X152.285 Y70.461 E9153.04481
G1 X152.297 Y70.351 E9153.04849
G1 X152.215 Y70.12 E9153.05664
G1 X152.107 Y70.146 E9153.05975
G1 X151.744 Y70.235 E9153.07218
G1 X150.721 Y70.444 E9153.10691
G1 X149.641 Y70.51 E9153.1429
G1 X148.452 Y70.423 E9153.18255
G1 X147.277 Y70.149 E9153.22268
G1 X147.264 Y70.146 E9153.22313
G1 X147.25 Y70.142 E9153.22361
G1 X147.069 Y70.085 E9153.22992
G1 X147.028 Y70.073 E9153.23126
G1 X146.848 Y70.017 E9153.23601
M204 S5000
M205 X30 Y30
G0 F7200 X146.887 Y70.208
G0 X146.887 Y70.214
G0 X146.397 Y70.313
G0 X144.958 Y70.709
M204 S500
M205 X20 Y20
;TYPE:SKIN
G1 F1800 X145.015 Y71.189 E9153.25208
