;FLAVOR:Marlin
;TIME:12724
;Filament used: 15.4088m
;Layer height: 0.2
;Generated with Cura_SteamEngine 3.4.1
M190 S35
M104 S200
M109 S200
M82 ;absolute extrusion mode
G28 ;Home
G1 Z15.0 F6000 ;Move the platform down 15mm
;Prime the extruder
G92 E0
G1 F200 E3
G92 E0
G92 E0
G1 F2400 E-5
;LAYER_COUNT:53
;LAYER:0
M107
M204 S5000
M205 X30 Y30
G0 F3600 X126.893 Y53.645 Z0.2
M204 S500
M205 X20 Y20
;TYPE:SKIRT
G1 F2400 E0
G1 F1800 X127.127 Y53.159 E0.01794
G1 X128.052 Y51.428 E0.08322
G1 X128.424 Y50.817 E0.10701
G1 X128.775 Y50.353 E0.12636
G1 X130.069 Y48.796 E0.1937
G1 X130.556 Y48.273 E0.21747
G1 X130.956 Y47.919 E0.23523
G1 X132.453 Y46.703 E0.29938
G1 X133.032 Y46.284 E0.32315
G1 X133.488 Y46.018 E0.34071
G1 X135.203 Y45.108 E0.40528
G1 X135.853 Y44.808 E0.42909
G1 X136.353 Y44.634 E0.4467
G1 X138.211 Y44.073 E0.51125
G1 X138.906 Y43.905 E0.53504
G1 X139.428 Y43.831 E0.55257
G1 X141.179 Y43.657 E0.6111
G1 X141.809 Y43.626 E0.63208
G1 X166.034 Y43.613 E1.4378
G1 X166.748 Y43.653 E1.46159
G1 X167.513 Y43.786 E1.48741
G1 X168.344 Y43.983 E1.51582
G1 X169.03 Y44.186 E1.53961
G1 X169.689 Y44.465 E1.56341
G1 X170.603 Y45.013 E1.59886
G1 X171.115 Y45.381 E1.61983
G1 X171.672 Y45.83 E1.64363
G1 X172.175 Y46.339 E1.66743
G1 X172.553 Y46.81 E1.68751
G1 X172.974 Y47.388 E1.7113
G1 X173.362 Y47.989 E1.73509
G1 X173.681 Y48.629 E1.75887
G1 X173.848 Y49.06 E1.77425
G1 X173.987 Y49.461 E1.78836
G1 X174.183 Y50.149 E1.81216
G1 X174.301 Y50.854 E1.83593
G1 X174.331 Y51.225 E1.84831
G1 X174.391 Y52.38 E1.88678
G1 X174.4 Y52.712 E1.89783
G1 X174.39 Y249.991 E8.45935
G1 X174.35 Y250.705 E8.48314
G1 X174.231 Y251.411 E8.50695
G1 X174.033 Y252.098 E8.53073
G1 X173.76 Y252.759 E8.55452
G1 X173.415 Y253.386 E8.57832
G1 X173.003 Y253.97 E8.60209
G1 X172.527 Y254.505 E8.62591
G1 X171.995 Y254.983 E8.64969
G1 X171.413 Y255.398 E8.67347
G1 X170.789 Y255.747 E8.69725
G1 X170.129 Y256.023 E8.72104
G1 X169.442 Y256.224 E8.74485
G1 X168.738 Y256.347 E8.76862
G1 X167.99 Y256.391 E8.79354
G1 X132.009 Y256.391 E9.99028
G1 X131.295 Y256.351 E10.01406
G1 X130.59 Y256.232 E10.03784
G1 X129.902 Y256.034 E10.06165
G1 X129.241 Y255.761 E10.08544
G1 X128.614 Y255.417 E10.10922
G1 X128.03 Y255.004 E10.13301
G1 X127.496 Y254.529 E10.15679
G1 X127.017 Y253.997 E10.1806
G1 X126.602 Y253.415 E10.20437
G1 X126.253 Y252.79 E10.22818
G1 X125.977 Y252.13 E10.25197
G1 X125.776 Y251.444 E10.27575
G1 X125.653 Y250.739 E10.29955
G1 X125.609 Y249.991 E10.32447
G1 X125.6 Y60.707 E16.62008
G1 X125.619 Y60.219 E16.63633
G1 X125.822 Y57.562 E16.72496
G1 X125.916 Y56.853 E16.74874
G1 X126.079 Y56.192 E16.77139
G1 X126.648 Y54.317 E16.83656
G1 X126.893 Y53.645 E16.86035
M204 S5000
M205 X30 Y30
G0 F3600 X127.27 Y53.783
M204 S500
M205 X20 Y20
G1 F1800 X127.48 Y53.347 E16.87645
G1 X128.405 Y51.616 E16.94172
G1 X128.766 Y51.025 E16.96476
G1 X129.083 Y50.609 E16.98215
G1 X130.377 Y49.052 E17.04949
G1 X130.849 Y48.546 E17.0725
G1 X131.208 Y48.23 E17.08841
G1 X132.705 Y47.014 E17.15256
G1 X133.267 Y46.609 E17.1756
G1 X133.676 Y46.371 E17.19134
G1 X135.391 Y45.461 E17.25591
G1 X136.02 Y45.172 E17.27893
G1 X136.469 Y45.017 E17.29473
G1 X138.327 Y44.456 E17.35928
G1 X139 Y44.295 E17.3823
G1 X139.468 Y44.229 E17.39802
G1 X141.219 Y44.055 E17.45655
G1 X141.809 Y44.026 E17.47619
G1 X166.034 Y44.013 E18.28192
G1 X166.725 Y44.053 E18.30494
G1 X167.421 Y44.175 E18.32844
G1 X168.252 Y44.372 E18.35685
G1 X168.916 Y44.57 E18.37989
G1 X169.552 Y44.844 E18.40293
G1 X170.37 Y45.338 E18.43471
G1 X170.882 Y45.706 E18.45568
G1 X171.42 Y46.142 E18.47871
G1 X171.904 Y46.637 E18.50174
G1 X172.23 Y47.045 E18.51911
G1 X172.651 Y47.623 E18.54289
G1 X173.026 Y48.206 E18.56595
G1 X173.331 Y48.828 E18.58899
G1 X173.47 Y49.191 E18.60192
G1 X173.609 Y49.592 E18.61603
G1 X173.798 Y50.258 E18.63906
G1 X173.932 Y51.246 E18.67222
G1 X173.992 Y52.401 E18.71069
G1 X174 Y52.712 E18.72104
G1 X173.99 Y249.991 E25.28256
G1 X173.95 Y250.683 E25.30562
G1 X173.831 Y251.365 E25.32864
G1 X173.633 Y252.029 E25.35169
G1 X173.361 Y252.665 E25.3747
G1 X173.017 Y253.266 E25.39773
G1 X172.606 Y253.824 E25.42078
G1 X172.134 Y254.33 E25.44379
G1 X171.606 Y254.779 E25.46685
G1 X171.03 Y255.164 E25.48989
G1 X170.414 Y255.48 E25.51292
G1 X169.765 Y255.722 E25.53595
G1 X169.093 Y255.889 E25.55898
G1 X168.406 Y255.977 E25.58202
G1 X167.99 Y255.991 E25.59586
G1 X132.009 Y255.991 E26.7926
G1 X131.318 Y255.951 E26.81562
G1 X130.635 Y255.832 E26.83868
G1 X129.972 Y255.634 E26.86169
G1 X129.335 Y255.362 E26.88473
G1 X128.734 Y255.018 E26.90776
G1 X128.176 Y254.607 E26.93081
G1 X127.67 Y254.135 E26.95383
G1 X127.221 Y253.607 E26.97688
G1 X126.836 Y253.032 E26.99989
G1 X126.521 Y252.415 E27.02294
G1 X126.278 Y251.767 E27.04595
G1 X126.111 Y251.094 E27.06902
G1 X126.023 Y250.408 E27.09202
G1 X126.009 Y249.991 E27.1059
G1 X126 Y60.707 E33.40151
G1 X126.017 Y60.25 E33.41672
G1 X126.22 Y57.593 E33.50535
G1 X126.313 Y56.907 E33.52837
G1 X126.462 Y56.308 E33.5489
G1 X127.031 Y54.433 E33.61407
G1 X127.27 Y53.783 E33.63711
M204 S5000
M205 X30 Y30
G0 F3600 X127.645 Y53.921
M204 S500
M205 X20 Y20
G1 F1800 X127.833 Y53.536 E33.65136
G1 X128.758 Y51.805 E33.71664
G1 X129.108 Y51.235 E33.73888
G1 X129.39 Y50.865 E33.75436
G1 X130.684 Y49.308 E33.82169
G1 X131.142 Y48.82 E33.84395
G1 X131.46 Y48.54 E33.85805
G1 X132.957 Y47.324 E33.92219
G1 X133.501 Y46.934 E33.94445
G1 X133.863 Y46.724 E33.95837
G1 X135.578 Y45.814 E34.02295
G1 X136.187 Y45.537 E34.0452
G1 X136.584 Y45.4 E34.05917
G1 X138.442 Y44.839 E34.12372
G1 X139.093 Y44.684 E34.14598
G1 X139.507 Y44.627 E34.15988
G1 X141.258 Y44.453 E34.2184
G1 X141.809 Y44.426 E34.23675
G1 X166.034 Y44.413 E35.04248
G1 X166.702 Y44.453 E35.06474
G1 X167.329 Y44.564 E35.08592
G1 X168.16 Y44.761 E35.11432
G1 X168.8 Y44.954 E35.13655
G1 X169.413 Y45.222 E35.15881
G1 X170.136 Y45.663 E35.18697
G1 X170.648 Y46.031 E35.20794
G1 X171.167 Y46.453 E35.23019
G1 X171.632 Y46.934 E35.25244
G1 X171.907 Y47.281 E35.26717
G1 X172.328 Y47.859 E35.29095
G1 X172.688 Y48.422 E35.31318
G1 X173.092 Y49.322 E35.34599
G1 X173.231 Y49.723 E35.36011
G1 X173.412 Y50.367 E35.38236
G1 X173.532 Y51.266 E35.41252
G1 X173.592 Y52.421 E35.45099
G1 X173.6 Y52.712 E35.46067
G1 X173.59 Y249.991 E42.0222
G1 X173.55 Y250.659 E42.04446
G1 X173.431 Y251.317 E42.0667
G1 X173.234 Y251.957 E42.08897
G1 X172.962 Y252.568 E42.11121
G1 X172.619 Y253.143 E42.13348
G1 X172.21 Y253.672 E42.15572
G1 X171.741 Y254.149 E42.17797
G1 X171.218 Y254.567 E42.20024
G1 X170.65 Y254.919 E42.22247
G1 X170.043 Y255.201 E42.24473
G1 X169.407 Y255.409 E42.26698
G1 X168.751 Y255.539 E42.28923
G1 X167.99 Y255.591 E42.3146
G1 X132.009 Y255.591 E43.51133
G1 X131.341 Y255.551 E43.53359
G1 X130.683 Y255.432 E43.55583
G1 X130.043 Y255.235 E43.5781
G1 X129.432 Y254.963 E43.60034
G1 X128.858 Y254.62 E43.62258
G1 X128.328 Y254.211 E43.64485
G1 X127.851 Y253.742 E43.6671
G1 X127.433 Y253.22 E43.68934
G1 X127.081 Y252.651 E43.71159
G1 X126.799 Y252.044 E43.73386
G1 X126.591 Y251.408 E43.75611
G1 X126.461 Y250.752 E43.77835
G1 X126.409 Y249.991 E43.80372
G1 X126.4 Y60.707 E50.09934
G1 X126.416 Y60.28 E50.11355
G1 X126.619 Y57.623 E50.20218
G1 X126.71 Y56.961 E50.2244
G1 X126.844 Y56.424 E50.24281
G1 X127.413 Y54.549 E50.30798
G1 X127.645 Y53.921 E50.33025
M204 S5000
M205 X30 Y30
G0 F3600 X128.021 Y54.061
M204 S500
M205 X20 Y20
G1 F1800 X128.186 Y53.724 E50.34273
G1 X129.111 Y51.993 E50.40801
G1 X129.449 Y51.445 E50.42942
G1 X129.698 Y51.12 E50.44304
G1 X130.992 Y49.563 E50.51038
G1 X131.434 Y49.094 E50.53181
G1 X131.712 Y48.851 E50.54409
G1 X133.209 Y47.635 E50.60824
G1 X133.734 Y47.26 E50.6297
G1 X134.051 Y47.078 E50.64185
G1 X135.766 Y46.168 E50.70643
G1 X136.353 Y45.901 E50.72788
G1 X136.7 Y45.783 E50.74007
G1 X138.558 Y45.222 E50.80462
G1 X139.185 Y45.074 E50.82605
G1 X139.547 Y45.025 E50.8382
G1 X141.298 Y44.851 E50.89672
G1 X141.809 Y44.826 E50.91374
G1 X166.034 Y44.813 E51.71947
G1 X166.678 Y44.853 E51.74093
G1 X167.236 Y44.953 E51.75978
G1 X168.067 Y45.15 E51.78819
G1 X168.684 Y45.338 E51.80964
G1 X169.273 Y45.6 E51.83108
G1 X169.903 Y45.988 E51.85569
G1 X170.415 Y46.356 E51.87666
G1 X170.914 Y46.763 E51.89808
G1 X171.359 Y47.23 E51.91953
G1 X171.583 Y47.516 E51.93162
G1 X172.004 Y48.094 E51.9554
G1 X172.351 Y48.638 E51.97686
G1 X172.714 Y49.453 E52.00653
G1 X172.853 Y49.854 E52.02065
G1 X173.026 Y50.475 E52.04209
G1 X173.133 Y51.287 E52.06933
G1 X173.193 Y52.442 E52.1078
G1 X173.2 Y52.712 E52.11678
G1 X173.19 Y249.991 E58.67831
G1 X173.15 Y250.635 E58.69977
G1 X173.031 Y251.268 E58.72119
G1 X172.834 Y251.882 E58.74264
G1 X172.563 Y252.467 E58.76408
G1 X172.221 Y253.014 E58.78554
G1 X171.815 Y253.514 E58.80696
G1 X171.349 Y253.96 E58.82842
G1 X170.832 Y254.345 E58.84985
G1 X170.272 Y254.664 E58.87129
G1 X169.676 Y254.91 E58.89274
G1 X169.054 Y255.081 E58.91419
G1 X168.416 Y255.173 E58.93563
G1 X167.99 Y255.191 E58.94981
G1 X132.009 Y255.191 E60.14654
G1 X131.366 Y255.151 E60.16797
G1 X130.732 Y255.032 E60.18943
G1 X130.118 Y254.835 E60.21087
G1 X129.533 Y254.564 E60.23232
G1 X128.986 Y254.222 E60.25377
G1 X128.486 Y253.816 E60.2752
G1 X128.04 Y253.351 E60.29663
G1 X127.655 Y252.834 E60.31807
G1 X127.336 Y252.273 E60.33953
G1 X127.09 Y251.677 E60.36098
G1 X126.919 Y251.056 E60.3824
G1 X126.827 Y250.418 E60.40384
G1 X126.809 Y249.991 E60.41805
G1 X126.8 Y60.707 E66.71367
G1 X126.815 Y60.311 E66.72685
G1 X127.018 Y57.654 E66.81548
G1 X127.107 Y57.015 E66.83693
G1 X127.227 Y56.54 E66.85323
G1 X127.796 Y54.665 E66.9184
G1 X128.021 Y54.061 E66.93984
M204 S5000
M205 X30 Y30
G1 F2400 E61.93984
G1 F300 Z0.7
G0 F3600 X166.05 Y51.818 Z0.7
M204 S500
M205 X20 Y20
;TYPE:WALL-INNER
G1 F300 Z0.2
G1 F2400 E66.93984
G1 F1800 X166.117 Y51.852 E66.94234
G1 X166.148 Y51.883 E66.94379
G1 X166.182 Y51.95 E66.94629
G1 X166.2 Y52.116 E66.95185
G1 X166.2 Y248.2 E73.47363
G1 X133.8 Y248.2 E74.55126
G1 X133.8 Y60.086 E80.80795
G1 X133.965 Y58.406 E80.8641
G1 X134.43 Y56.869 E80.91751
G1 X135.196 Y55.441 E80.9714
G1 X136.207 Y54.207 E81.02446
G1 X137.441 Y53.196 E81.07752
G1 X138.869 Y52.43 E81.13142
G1 X140.406 Y51.965 E81.18483
G1 X142.086 Y51.8 E81.24097
G1 X165.884 Y51.8 E82.0325
G1 X166.05 Y51.818 E82.03805
M204 S5000
M205 X30 Y30
G0 F3600 X166.139 Y51.425
M204 S500
M205 X20 Y20
G1 F1800 X166.254 Y51.466 E82.04211
G1 X166.369 Y51.538 E82.04663
G1 X166.462 Y51.631 E82.051
G1 X166.534 Y51.746 E82.05551
G1 X166.575 Y51.861 E82.05957
G1 X166.6 Y52.091 E82.06727
G1 X166.6 Y248.6 E88.60319
G1 X133.4 Y248.6 E89.70742
G1 X133.4 Y60.067 E95.97805
G1 X133.571 Y58.326 E96.03624
G1 X134.059 Y56.714 E96.09226
G1 X134.859 Y55.222 E96.14857
G1 X135.923 Y53.923 E96.20441
G1 X137.222 Y52.859 E96.26026
G1 X138.714 Y52.059 E96.31657
G1 X140.326 Y51.571 E96.37259
G1 X142.067 Y51.4 E96.43077
G1 X165.909 Y51.4 E97.22376
G1 X166.139 Y51.425 E97.23146
M204 S5000
M205 X30 Y30
G0 F3600 X166.224 Y51.032
M204 S500
M205 X20 Y20
G1 F1800 X166.432 Y51.105 E97.23879
G1 X166.62 Y51.223 E97.24617
G1 X166.777 Y51.38 E97.25355
G1 X166.895 Y51.568 E97.26094
G1 X166.968 Y51.776 E97.26827
G1 X167 Y52.065 E97.27794
G1 X167 Y249 E103.82802
G1 X133 Y249 E104.95887
G1 X133 Y60.048 E111.24344
G1 X133.177 Y58.246 E111.30366
G1 X133.688 Y56.559 E111.36229
G1 X134.522 Y55.003 E111.42101
G1 X135.639 Y53.639 E111.47964
G1 X137.003 Y52.522 E111.53828
G1 X138.559 Y51.688 E111.597
G1 X140.246 Y51.177 E111.65563
G1 X142.048 Y51 E111.71585
G1 X165.935 Y51 E112.51034
G1 X166.224 Y51.032 E112.52001
M204 S5000
M205 X30 Y30
G0 F3600 X166.313 Y50.639
M204 S500
M205 X20 Y20
G1 F1800 X166.607 Y50.742 E112.53037
G1 X166.871 Y50.908 E112.54074
G1 X167.092 Y51.129 E112.55113
G1 X167.258 Y51.393 E112.56151
G1 X167.361 Y51.687 E112.57187
G1 X167.4 Y52.039 E112.58365
G1 X167.4 Y249.4 E119.1479
G1 X132.6 Y249.4 E120.30535
G1 X132.6 Y60.029 E126.60386
G1 X132.783 Y58.166 E126.66612
G1 X133.317 Y56.404 E126.72736
G1 X134.186 Y54.781 E126.78859
G1 X135.355 Y53.355 E126.84992
G1 X136.781 Y52.186 E126.91125
G1 X138.404 Y51.317 E126.97248
G1 X140.166 Y50.783 E127.03372
G1 X142.029 Y50.6 E127.09598
G1 X165.961 Y50.6 E127.89196
G1 X166.313 Y50.639 E127.90374
M204 S5000
M205 X30 Y30
G0 F3600 X166.4 Y50.246
M204 S500
M205 X20 Y20
;TYPE:WALL-OUTER
G1 F1800 X166.784 Y50.381 E127.91728
G1 X167.122 Y50.593 E127.93055
G1 X167.407 Y50.878 E127.94395
G1 X167.619 Y51.216 E127.95722
G1 X167.754 Y51.6 E127.97076
G1 X167.8 Y52.013 E127.98458
G1 X167.8 Y249.8 E134.563
G1 X132.2 Y249.8 E135.74707
G1 X132.2 Y60.01 E142.05951
G1 X132.389 Y58.086 E142.12381
G1 X132.946 Y56.249 E142.18765
G1 X133.85 Y54.559 E142.2514
G1 X135.071 Y53.071 E142.31542
G1 X136.559 Y51.85 E142.37944
G1 X138.249 Y50.946 E142.44319
G1 X140.086 Y50.389 E142.50703
G1 X142.01 Y50.2 E142.57133
G1 X165.987 Y50.2 E143.36881
G1 X166.4 Y50.246 E143.38263
M204 S5000
M205 X30 Y30
G0 F3600 X166.588 Y50.312
G0 X166.422 Y50.783
G0 X165.81 Y52.19
M204 S500
M205 X20 Y20
;TYPE:SKIN
G1 F1800 X165.81 Y247.81 E149.88898
G1 X134.19 Y247.81 E150.94066
G1 X134.19 Y60.105 E157.18376
G1 X134.349 Y58.481 E157.23803
G1 X134.792 Y57.019 E157.28884
G1 X135.52 Y55.66 E157.34012
G1 X136.484 Y54.484 E157.39069
G1 X137.66 Y53.52 E157.44127
G1 X139.019 Y52.792 E157.49255
G1 X140.481 Y52.349 E157.54336
G1 X142.105 Y52.19 E157.59763
G1 X165.81 Y52.19 E158.38606
M204 S5000
M205 X30 Y30
G0 F3600 X150.21 Y232.21
M204 S500
M205 X20 Y20
G1 F1800 X149.79 Y232.21 E158.40003
G1 X149.79 Y67.79 E163.86866
G1 X150.21 Y67.79 E163.88263
G1 X150.21 Y232.21 E169.35126
M204 S5000
M205 X30 Y30
G0 F3600 X150.61 Y232.61
M204 S500
M205 X20 Y20
G1 F1800 X149.39 Y232.61 E169.39184
G1 X149.39 Y67.39 E174.88708
G1 X150.61 Y67.39 E174.92766
G1 X150.61 Y232.61 E180.4229
M204 S5000
M205 X30 Y30
G0 F3600 X151.01 Y233.01
M204 S500
M205 X20 Y20
G1 F1800 X148.99 Y233.01 E180.49008
G1 X148.99 Y66.99 E186.01193
G1 X151.01 Y66.99 E186.07911
G1 X151.01 Y233.01 E191.60096
M204 S5000
M205 X30 Y30
G0 F3600 X151.41 Y233.41
M204 S500
M205 X20 Y20
G1 F1800 X148.59 Y233.41 E191.69476
G1 X148.59 Y66.59 E197.24321
G1 X151.41 Y66.59 E197.337
G1 X151.41 Y233.41 E202.88546
M204 S5000
M205 X30 Y30
G0 F3600 X151.81 Y233.81
M204 S500
M205 X20 Y20
G1 F1800 X148.19 Y233.81 E203.00586
G1 X148.19 Y66.19 E208.58093
G1 X151.81 Y66.19 E208.70133
G1 X151.81 Y233.81 E214.27639
M204 S5000
M205 X30 Y30
G0 F3600 X152.21 Y234.21
M204 S500
M205 X20 Y20
G1 F1800 X147.79 Y234.21 E214.4234
G1 X147.79 Y65.79 E220.02507
G1 X152.21 Y65.79 E220.17208
G1 X152.21 Y234.21 E225.77376
M204 S5000
M205 X30 Y30
G0 F3600 X152.61 Y234.61
M204 S500
M205 X20 Y20
G1 F1800 X147.39 Y234.61 E225.94737
G1 X147.39 Y65.39 E231.57565
G1 X152.61 Y65.39 E231.74927
G1 X152.61 Y234.61 E237.37755
M204 S5000
M205 X30 Y30
G0 F3600 X153.01 Y235.01
M204 S500
M205 X20 Y20
G1 F1800 X146.99 Y235.01 E237.57778
G1 X146.99 Y64.99 E243.23267
G1 X153.01 Y64.99 E243.43289
G1 X153.01 Y235.01 E249.08778
M204 S5000
M205 X30 Y30
G0 F3600 X153.41 Y235.41
M204 S500
M205 X20 Y20
G1 F1800 X146.59 Y235.41 E249.31461
G1 X146.59 Y64.59 E254.99611
G1 X153.41 Y64.59 E255.22294
G1 X153.41 Y235.41 E260.90444
M204 S5000
M205 X30 Y30
G0 F3600 X153.81 Y235.81
M204 S500
M205 X20 Y20
G1 F1800 X146.19 Y235.81 E261.15788
G1 X146.19 Y64.19 E266.86599
G1 X153.81 Y64.19 E267.11943
G1 X153.81 Y235.81 E272.82753
M204 S5000
M205 X30 Y30
G0 F3600 X154.21 Y236.21
M204 S500
M205 X20 Y20
G1 F1800 X145.79 Y236.21 E273.10758
G1 X145.79 Y63.79 E278.8423
G1 X154.21 Y63.79 E279.12235
G1 X154.21 Y236.21 E284.85706
M204 S5000
M205 X30 Y30
G0 F3600 X154.61 Y236.61
M204 S500
M205 X20 Y20
G1 F1800 X145.39 Y236.61 E285.16372
G1 X145.39 Y63.39 E290.92504
G1 X154.61 Y63.39 E291.2317
G1 X154.61 Y236.61 E296.99302
M204 S5000
M205 X30 Y30
G0 F3600 X155.01 Y237.01
M204 S500
M205 X20 Y20
G1 F1800 X144.99 Y237.01 E297.32628
G1 X144.99 Y62.99 E303.11421
G1 X155.01 Y62.99 E303.44748
G1 X155.01 Y237.01 E309.23541
M204 S5000
M205 X30 Y30
G0 F3600 X155.41 Y237.41
M204 S500
M205 X20 Y20
G1 F1800 X144.59 Y237.41 E309.59528
G1 X144.59 Y62.59 E315.40982
G1 X155.41 Y62.59 E315.76969
G1 X155.41 Y237.41 E321.58423
M204 S5000
M205 X30 Y30
G0 F3600 X155.81 Y237.81
M204 S500
M205 X20 Y20
