;FLAVOR:Marlin
;TIME:425
;Filament used: 0.44139m
;Layer height: 0.2
;Generated with Cura_SteamEngine 3.4.1
M190 S35
M104 S200
M109 S200
M82 ;absolute extrusion mode
G28 ;Home
G1 Z15.0 F6000 ;Move the platform down 15mm
;Prime the extruder
G92 E0
G1 F200 E3
G92 E0
G92 E426.86167
G1 F2400 E421
;LAYER_COUNT:18
;LAYER:0
M107
M204 S5000
M205 X30 Y30
G0 F3600 X150 Y150 Z4.2
M204 S500
M205 X20 Y20

;LAYER:15
G0 X148.728 Y147.438 Z3.2
M204 S500
M205 X20 Y20
;TYPE:WALL-INNER
G1 F1769.3 X149.385 Y147.557 E426.88388
G1 X149.588 Y148.838 E426.92702
G1 X149.624 Y149.16 E426.93779
G1 X149.617 Y149.478 E426.94837
G1 X149.56 Y149.831 E426.96027
G1 X149.12 Y151.149 E427.00648
G1 X147.796 Y151.485 E427.05191
G1 X147.651 Y151.504 E427.05678
G1 X147.245 Y151.51 E427.07028
G1 X147.038 Y151.487 E427.07721
G1 X146.861 Y151.451 E427.08322
G1 X146.536 Y151.339 E427.09465
G1 X146.12 Y151.103 E427.11056
G1 X145.744 Y150.765 E427.12737
G1 X145.46 Y150.363 E427.14374
G1 X145.256 Y149.869 E427.16152
G1 X145.199 Y149.606 E427.17047
G1 X145.178 Y149.293 E427.1809
G1 X145.233 Y148.795 E427.19757
G1 X145.332 Y148.468 E427.20893
G1 X145.475 Y148.176 E427.21975
G1 X145.723 Y147.832 E427.23385
G1 X146.014 Y147.549 E427.24735
G1 X146.342 Y147.33 E427.26047
G1 X146.658 Y147.188 E427.27199
G1 X146.995 Y147.1 E427.28358
G1 X147.357 Y147.063 E427.29568
G1 X147.841 Y147.105 E427.31184
G1 X148.135 Y147.185 E427.32197
G1 X148.728 Y147.438 E427.34342
M204 S5000
M205 X30 Y30
G0 F7200 X151.59 Y146.616
M204 S500
M205 X20 Y20
G1 F1769.3 X151.2 Y146.616 E427.35639
G1 X151.199 Y146.616 E427.35642
G1 X150.972 Y146.616 E427.36397
G1 X151.002 Y146.39 E427.3687
G1 X151.122 Y145.495 E427.39873
G1 X151.161 Y145.388 E427.40252
G1 X151.221 Y145.295 E427.4062
G1 X151.286 Y145.23 E427.40926
G1 X151.372 Y145.176 E427.41263
G1 X151.449 Y145.147 E427.41537
G1 X151.557 Y145.132 E427.419
G1 X151.756 Y145.148 E427.42564
G1 X151.877 Y145.183 E427.42983
G1 X151.991 Y145.239 E427.43405
G1 X152.209 Y145.405 E427.44317
G1 X152.407 Y145.654 E427.45375
G1 X152.463 Y145.761 E427.45776
G1 X152.514 Y145.916 E427.46319
G1 X152.533 Y146.036 E427.46723
G1 X152.515 Y146.348 E427.47763
G1 X152.497 Y146.391 E427.47918
G1 X152.417 Y146.522 E427.48428
G1 X152.345 Y146.595 E427.48769
G1 X152.269 Y146.644 E427.4907
G1 X152.167 Y146.678 E427.49428
G1 X152.034 Y146.692 E427.49872
G1 X151.784 Y146.66 E427.50711
G1 X151.59 Y146.616 E427.51372
M204 S5000
M205 X30 Y30
G0 F7200 X150.611 Y147.791
G0 X150.228 Y151.544
G0 X151.521 Y152.69
M204 S500
M205 X20 Y20
G1 F1769.3 X151.621 Y152.718 E427.51718
G1 X151.699 Y152.753 E427.52002
G1 X151.786 Y152.826 E427.5238
G1 X151.862 Y152.937 E427.52827
G1 X151.903 Y153.045 E427.53211
G1 X151.918 Y153.159 E427.53594
G1 X151.89 Y153.409 E427.54431
G1 X151.835 Y153.56 E427.54965
G1 X151.725 Y153.741 E427.5567
G1 X151.603 Y153.875 E427.56272
G1 X151.372 Y154.043 E427.57222
G1 X151.176 Y154.124 E427.57928
G1 X150.955 Y154.16 E427.58672
G1 X150.759 Y154.143 E427.59327
G1 X150.669 Y154.113 E427.59642
G1 X150.591 Y154.068 E427.59942
G1 X150.518 Y154.001 E427.60271
G1 X150.465 Y153.924 E427.60582
G1 X150.423 Y153.817 E427.60965
G1 X150.402 Y153.684 E427.61412
G1 X150.418 Y153.436 E427.62239
G1 X150.564 Y152.711 E427.64699
G1 X151.433 Y152.679 E427.67591
G1 X151.521 Y152.69 E427.67886
M204 S5000
M205 X30 Y30
G0 F7200 X151.603 Y152.297
M204 S500
M205 X20 Y20
G1 F1769.3 X151.755 Y152.339 E427.6841
G1 X151.897 Y152.403 E427.68929
G1 X151.999 Y152.474 E427.69342
G1 X152.093 Y152.566 E427.69779
G1 X152.219 Y152.75 E427.70521
G1 X152.293 Y152.946 E427.71218
G1 X152.321 Y153.155 E427.71919
G1 X152.281 Y153.505 E427.73091
G1 X152.197 Y153.735 E427.73905
G1 X152.048 Y153.98 E427.74859
G1 X151.871 Y154.175 E427.75735
G1 X151.571 Y154.393 E427.76968
G1 X151.285 Y154.512 E427.77999
G1 X150.969 Y154.563 E427.79063
G1 X150.678 Y154.538 E427.80035
G1 X150.506 Y154.481 E427.80637
G1 X150.352 Y154.391 E427.81231
G1 X150.215 Y154.265 E427.8185
G1 X150.111 Y154.116 E427.82454
G1 X150.035 Y153.924 E427.83141
G1 X150 Y153.702 E427.83888
G1 X150.021 Y153.383 E427.84952
G1 X150.234 Y152.322 E427.88551
G1 X151.449 Y152.278 E427.92595
G1 X151.603 Y152.297 E427.93111
M204 S5000
M205 X30 Y30
G0 F7200 X150.228 Y151.544
G0 X150.611 Y147.791
G0 X151.545 Y147.016
M204 S500
M205 X20 Y20
G1 F1769.3 X150.744 Y147.016 E427.95775
G1 X150.743 Y147.016 E427.95778
G1 X150.516 Y147.016 E427.96533
G1 X150.546 Y146.79 E427.97006
G1 X150.732 Y145.396 E428.01684
G1 X150.802 Y145.207 E428.02354
G1 X150.907 Y145.043 E428.03002
G1 X151.034 Y144.916 E428.03599
G1 X151.192 Y144.816 E428.04221
G1 X151.352 Y144.757 E428.04788
G1 X151.545 Y144.729 E428.05437
G1 X151.828 Y144.752 E428.06381
G1 X152.023 Y144.809 E428.07057
G1 X152.202 Y144.896 E428.07719
G1 X152.49 Y145.116 E428.08924
G1 X152.745 Y145.436 E428.10285
G1 X152.832 Y145.603 E428.10911
G1 X152.904 Y145.822 E428.11678
G1 X152.935 Y146.013 E428.12322
G1 X152.912 Y146.407 E428.13634
G1 X152.896 Y146.473 E428.1386
G1 X152.857 Y146.569 E428.14205
G1 X152.734 Y146.77 E428.14989
G1 X152.598 Y146.909 E428.15635
G1 X152.447 Y147.005 E428.16231
G1 X152.252 Y147.072 E428.16916
G1 X152.027 Y147.094 E428.17668
G1 X151.718 Y147.055 E428.18704
G1 X151.545 Y147.016 E428.19294
M204 S5000
M205 X30 Y30
G0 F7200 X148.843 Y147.052
M204 S500
M205 X20 Y20
G1 F1769.3 X149.736 Y147.213 E428.22312
G1 X149.983 Y148.776 E428.27575
G1 X150.025 Y149.147 E428.28817
G1 X150.016 Y149.514 E428.30038
G1 X149.95 Y149.925 E428.31422
G1 X149.43 Y151.483 E428.36885
G1 X147.872 Y151.879 E428.42232
G1 X147.683 Y151.904 E428.42866
G1 X147.224 Y151.91 E428.44393
G1 X146.976 Y151.883 E428.45223
G1 X146.757 Y151.838 E428.45966
G1 X146.372 Y151.705 E428.47321
G1 X145.884 Y151.429 E428.49186
G1 X145.442 Y151.031 E428.51164
G1 X145.107 Y150.557 E428.53095
G1 X144.873 Y149.991 E428.55132
G1 X144.802 Y149.662 E428.56251
G1 X144.777 Y149.282 E428.57518
G1 X144.839 Y148.715 E428.59415
G1 X144.958 Y148.323 E428.60777
G1 X145.133 Y147.966 E428.621
G1 X145.418 Y147.57 E428.63722
G1 X145.761 Y147.237 E428.65312
G1 X146.147 Y146.979 E428.66857
G1 X146.524 Y146.81 E428.68231
G1 X146.925 Y146.705 E428.69609
G1 X147.356 Y146.661 E428.7105
G1 X147.909 Y146.709 E428.72897
G1 X148.264 Y146.806 E428.74121
G1 X148.843 Y147.052 E428.76213
M204 S5000
M205 X30 Y30
G0 F7200 X150.173 Y147.416
M204 S500
M205 X20 Y20
G1 F1769.3 X150.209 Y147.647 E428.76991
G1 X150.378 Y148.714 E428.80584
G1 X150.426 Y149.133 E428.81986
G1 X150.415 Y149.55 E428.83374
G1 X150.34 Y150.019 E428.84954
G1 X149.785 Y151.682 E428.90785
G1 X149.74 Y151.817 E428.91258
G1 X149.588 Y151.855 E428.91779
G1 X147.953 Y152.271 E428.9739
G1 X147.709 Y152.304 E428.98209
G1 X147.203 Y152.31 E428.99892
G1 X146.914 Y152.279 E429.00859
G1 X146.652 Y152.225 E429.01749
G1 X146.208 Y152.071 E429.03312
G1 X145.648 Y151.755 E429.05451
G1 X145.14 Y151.297 E429.07725
G1 X144.754 Y150.751 E429.09949
G1 X144.49 Y150.113 E429.12246
G1 X144.405 Y149.718 E429.1359
G1 X144.375 Y149.271 E429.1508
G1 X144.445 Y148.636 E429.17205
G1 X144.584 Y148.178 E429.18797
G1 X144.789 Y147.76 E429.20345
G1 X145.113 Y147.309 E429.22192
G1 X145.508 Y146.926 E429.24022
G1 X145.955 Y146.627 E429.25811
G1 X146.393 Y146.431 E429.27407
G1 X146.853 Y146.31 E429.28989
G1 X147.35 Y146.259 E429.3065
G1 X147.982 Y146.314 E429.3276
G1 X148.396 Y146.427 E429.34188
G1 X148.958 Y146.666 E429.36219
G1 X149.926 Y146.84 E429.3949
G1 X150.131 Y146.877 E429.40183
G1 X150.158 Y146.67 E429.40625
G1 X150.342 Y145.299 E429.45226
G1 X150.443 Y145.025 E429.46197
G1 X150.593 Y144.791 E429.47122
G1 X150.782 Y144.602 E429.48011
G1 X151.013 Y144.456 E429.4892
G1 X151.253 Y144.367 E429.49771
G1 X151.534 Y144.327 E429.50715
G1 X151.901 Y144.356 E429.5194
G1 X152.165 Y144.434 E429.52855
G1 X152.411 Y144.553 E429.53764
G1 X152.775 Y144.832 E429.55289
G1 X153.081 Y145.215 E429.5692
G1 X153.202 Y145.447 E429.5779
G1 X153.294 Y145.725 E429.58764
G1 X153.337 Y145.99 E429.59657
G1 X153.309 Y146.473 E429.61266
G1 X153.276 Y146.602 E429.61709
G1 X153.217 Y146.747 E429.6223
G1 X153.052 Y147.016 E429.63279
G1 X152.85 Y147.223 E429.64241
G1 X152.622 Y147.367 E429.65138
G1 X152.337 Y147.465 E429.66141
G1 X152.022 Y147.496 E429.67193
G1 X151.649 Y147.45 E429.68443
G1 X151.5 Y147.416 E429.68952
G1 X150.407 Y147.416 E429.72587
G1 X150.406 Y147.416 E429.7259
G1 X150.173 Y147.416 E429.73071
M204 S5000
M205 X30 Y30
G0 F7200 X149.874 Y152.088
M204 S500
M205 X20 Y20
G1 F1769.3 X149.904 Y151.934 E429.73593
G1 X150.046 Y151.929 E429.74065
G1 X151.463 Y151.877 E429.78782
G1 X151.679 Y151.903 E429.79505
G1 X151.895 Y151.963 E429.80251
G1 X152.093 Y152.053 E429.80974
G1 X152.257 Y152.166 E429.81637
G1 X152.4 Y152.306 E429.82302
G1 X152.576 Y152.563 E429.83338
G1 X152.683 Y152.847 E429.84348
G1 X152.724 Y153.152 E429.85371
G1 X152.672 Y153.6 E429.86871
G1 X152.559 Y153.91 E429.87969
G1 X152.371 Y154.219 E429.89172
G1 X152.142 Y154.472 E429.90307
G1 X151.768 Y154.744 E429.91845
G1 X151.392 Y154.9 E429.93199
G1 X150.983 Y154.966 E429.94577
G1 X150.597 Y154.933 E429.95865
G1 X150.341 Y154.848 E429.96762
G1 X150.111 Y154.714 E429.97648
G1 X149.915 Y154.534 E429.98533
G1 X149.755 Y154.304 E429.99465
G1 X149.647 Y154.031 E430.00441
G1 X149.598 Y153.72 E430.01488
G1 X149.624 Y153.33 E430.02788
G1 X149.874 Y152.088 E430.07002
M204 S5000
M205 X30 Y30
G0 F7200 X149.421 Y152.311
M204 S500
M205 X20 Y20
G1 F1769.3 X149.114 Y152.389 E430.08056
G1 X148.036 Y152.663 E430.11755
G1 X147.736 Y152.704 E430.12762
G1 X147.182 Y152.71 E430.14605
G1 X146.852 Y152.675 E430.15709
G1 X146.547 Y152.612 E430.16744
G1 X146.044 Y152.437 E430.18516
G1 X145.413 Y152.081 E430.20926
G1 X144.838 Y151.563 E430.235
G1 X144.404 Y150.949 E430.26
G1 X144.106 Y150.231 E430.28586
G1 X144.008 Y149.774 E430.30141
G1 X143.973 Y149.26 E430.31854
G1 X144.051 Y148.556 E430.3421
G1 X144.21 Y148.033 E430.36028
G1 X144.446 Y147.55 E430.37816
G1 X144.806 Y147.05 E430.39865
G1 X145.255 Y146.615 E430.41945
G1 X145.763 Y146.275 E430.43978
G1 X146.262 Y146.052 E430.45796
G1 X146.78 Y145.915 E430.47578
G1 X147.344 Y145.857 E430.49463
G1 X148.055 Y145.919 E430.51837
G1 X148.528 Y146.048 E430.53468
G1 X149.073 Y146.28 E430.55438
G1 X149.585 Y146.372 E430.57168
G1 X149.79 Y146.409 E430.57861
G1 X149.817 Y146.202 E430.58303
G1 X149.952 Y145.202 E430.61659
G1 X150.084 Y144.843 E430.62932
G1 X150.279 Y144.539 E430.64133
G1 X150.53 Y144.288 E430.65314
G1 X150.833 Y144.096 E430.66507
G1 X151.157 Y143.977 E430.67655
G1 X151.521 Y143.924 E430.68878
G1 X151.974 Y143.96 E430.70389
G1 X152.31 Y144.059 E430.71555
G1 X152.621 Y144.21 E430.72704
G1 X153.056 Y144.544 E430.74528
G1 X153.416 Y144.994 E430.76445
G1 X153.573 Y145.294 E430.77571
G1 X153.684 Y145.63 E430.78748
G1 X153.738 Y145.968 E430.79887
G1 X153.706 Y146.537 E430.81782
G1 X153.656 Y146.729 E430.82442
G1 X153.576 Y146.927 E430.83152
G1 X153.369 Y147.264 E430.84468
G1 X153.106 Y147.534 E430.85721
G1 X152.795 Y147.73 E430.86944
G1 X152.422 Y147.858 E430.88256
G1 X152.018 Y147.898 E430.89606
G1 X151.574 Y147.844 E430.91094
G1 X151.454 Y147.816 E430.91504
G1 X150.875 Y147.816 E430.93429
G1 X150.874 Y147.816 E430.93433
G1 X150.641 Y147.816 E430.94208
G1 X150.677 Y148.047 E430.9469
G1 X150.773 Y148.652 E430.96727
G1 X150.827 Y149.119 E430.98291
G1 X150.814 Y149.586 E430.99845
G1 X150.73 Y150.113 E431.0162
G1 X150.351 Y151.248 E431.056
G1 X150.26 Y151.521 E431.06557
G1 X150.547 Y151.512 E431.0712
G1 X150.548 Y151.511 E431.07125
G1 X151.477 Y151.476 E431.10217
G1 X151.759 Y151.51 E431.11161
G1 X152.031 Y151.585 E431.121
G1 X152.289 Y151.703 E431.13043
G1 X152.514 Y151.858 E431.13952
G1 X152.707 Y152.046 E431.14848
G1 X152.933 Y152.376 E431.16179
G1 X153.073 Y152.748 E431.17501
G1 X153.127 Y153.148 E431.18843
G1 X153.064 Y153.693 E431.20668
G1 X152.919 Y154.088 E431.22067
G1 X152.694 Y154.458 E431.23508
G1 X152.41 Y154.772 E431.24916
G1 X151.967 Y155.094 E431.26737
G1 X151.501 Y155.288 E431.28416
G1 X150.996 Y155.369 E431.30117
G1 X150.518 Y155.328 E431.31713
G1 X150.175 Y155.215 E431.32914
G1 X149.873 Y155.039 E431.34077
G1 X149.613 Y154.8 E431.35251
G1 X149.399 Y154.492 E431.36499
G1 X149.259 Y154.138 E431.37765
G1 X149.196 Y153.738 E431.39112
G1 X149.227 Y153.277 E431.40648
G1 X149.359 Y152.621 E431.42874
G1 X149.421 Y152.311 E431.4348
M204 S5000
M205 X30 Y30
G0 F7200 X148.904 Y152.855
M204 S500
M205 X20 Y20
;TYPE:WALL-OUTER
G1 F1179.5 X148.747 Y152.894 E431.44018
G1 X148.708 Y152.904 E431.44152
G1 X148.118 Y153.055 E431.46178
G1 X147.764 Y153.104 E431.47367
G1 X147.161 Y153.11 E431.49372
G1 X146.79 Y153.071 E431.50613
G1 X146.44 Y152.999 E431.51802
G1 X145.884 Y152.805 E431.5376
G1 X145.176 Y152.406 E431.56463
G1 X144.536 Y151.829 E431.59329
G1 X144.053 Y151.146 E431.62111
G1 X143.722 Y150.35 E431.64979
G1 X143.611 Y149.83 E431.66747
G1 X143.571 Y149.249 E431.68684
G1 X143.657 Y148.476 E431.71271
G1 X143.836 Y147.888 E431.73315
G1 X144.102 Y147.344 E431.75329
G1 X144.501 Y146.789 E431.77603
G1 X145.002 Y146.304 E431.79922
G1 X145.573 Y145.922 E431.82207
G1 X146.128 Y145.673 E431.8423
G1 X146.707 Y145.52 E431.86222
G1 X147.338 Y145.455 E431.88332
G1 X148.13 Y145.524 E431.90976
G1 X148.656 Y145.668 E431.9279
G1 X149.107 Y145.86 E431.9442
G1 X149.188 Y145.894 E431.94713
G1 X149.449 Y145.941 E431.95595
G1 X149.45 Y145.931
G1 X149.461 Y145.843 E431.9585
G1 X149.562 Y145.103 E431.98334
G1 X149.724 Y144.665 E431.99887
G1 X149.967 Y144.285 E432.01387
G1 X150.279 Y143.973 E432.02855
G1 X150.65 Y143.737 E432.04317
G1 X151.061 Y143.586 E432.05774
G1 X151.508 Y143.521 E432.07276
G1 X152.047 Y143.564 E432.09074
G1 X152.455 Y143.684 E432.10489
G1 X152.832 Y143.867 E432.11883
G1 X153.337 Y144.256 E432.14003
G1 X153.754 Y144.776 E432.1622
G1 X153.942 Y145.136 E432.17571
G1 X154.074 Y145.536 E432.18972
G1 X154.14 Y145.945 E432.20349
G1 X154.103 Y146.603 E432.22541
G1 X154.037 Y146.852 E432.23398
G1 X153.934 Y147.108 E432.24316
G1 X153.686 Y147.513 E432.25896
G1 X153.361 Y147.845 E432.27441
G1 X152.968 Y148.093 E432.28986
G1 X152.507 Y148.251 E432.30607
G1 X152.013 Y148.301 E432.32259
G1 X151.511 Y148.238 E432.33941
G1 X151.505 Y148.238 E432.33961
G1 X151.409 Y148.216 E432.34289
G1 X151.182 Y148.216 E432.35044
G1 X151.168 Y148.216 E432.35091
G1 X151.109 Y148.216 E432.35287
G1 X151.115 Y148.259 E432.35313
G1 X151.121 Y148.298 E432.3534
G1 X151.122 Y148.304 E432.3536
G1 X151.168 Y148.59 E432.36317
G1 X151.169 Y148.603 E432.36359
G1 X151.228 Y149.105 E432.38041
G1 X151.213 Y149.622 E432.39761
G1 X151.12 Y150.207 E432.41731
G1 X150.913 Y150.827 E432.43905
G1 X150.822 Y151.1 E432.44862
G1 X151.109 Y151.091 E432.45425
G1 X151.11 Y151.09 E432.4543
G1 X151.491 Y151.075 E432.46698
G1 X151.839 Y151.117 E432.47864
G1 X152.17 Y151.208 E432.49006
G1 X152.484 Y151.352 E432.50155
G1 X152.767 Y151.546 E432.51296
G1 X153.016 Y151.789 E432.52453
G1 X153.29 Y152.19 E432.54069
G1 X153.463 Y152.647 E432.55694
G1 X153.53 Y153.145 E432.57365
G1 X153.455 Y153.788 E432.59518
G1 X153.279 Y154.266 E432.61212
G1 X153.017 Y154.697 E432.6289
G1 X152.678 Y155.072 E432.64571
G1 X152.166 Y155.444 E432.66676
G1 X151.611 Y155.676 E432.68677
G1 X151.009 Y155.772 E432.70705
G1 X150.439 Y155.723 E432.72607
G1 X150.011 Y155.582 E432.74106
G1 X149.634 Y155.362 E432.75558
G1 X149.31 Y155.064 E432.77022
G1 X149.044 Y154.683 E432.78568
G1 X148.871 Y154.244 E432.80137
G1 X148.794 Y153.755 E432.81784
G1 X148.828 Y153.264 E432.8342
G1 X148.83 Y153.224 E432.83526
G1 X148.904 Y152.855 E432.84329
M204 S5000
M205 X30 Y30
G0 F7200 X148.747 Y152.894
G0 X148.709 Y152.903
G0 X148.588 Y152.42
G0 X147.716 Y151.103
M204 S500
M205 X20 Y20
;TYPE:SKIN
G1 F884.6 X147.63 Y151.114 E432.84618
G1 X147.266 Y151.12 E432.85829
G1 X147.093 Y151.101 E432.86407
G1 X146.966 Y151.074 E432.86839
G1 X146.696 Y150.982 E432.87788
G1 X146.349 Y150.785 E432.89115
G1 X146.036 Y150.502 E432.90519
G1 X145.805 Y150.176 E432.91848
G1 X145.63 Y149.75 E432.93379
G1 X145.587 Y149.557 E432.94037
G1 X145.57 Y149.293 E432.94917
G1 X145.617 Y148.87 E432.96332
G1 X145.694 Y148.618 E432.97209
G1 X145.815 Y148.372 E432.98121
G1 X146.021 Y148.084 E432.99298
