;FLAVOR:Marlin
;TIME:425
;Filament used: 0.44139m
;Layer height: 0.2
;Generated with Cura_SteamEngine 3.4.1
M190 S35
M104 S200
M109 S200
M82 ;absolute extrusion mode
G28 ;Home
G1 Z15.0 F6000 ;Move the platform down 15mm
;Prime the extruder
G92 E0
G1 F200 E3
G92 E0
G92 E0
G1 F2400 E-5
;LAYER_COUNT:18
;LAYER:0
M107
M204 S5000
M205 X30 Y30
G0 F3600 X135.471 Y135.496 Z0.2
M204 S500
M205 X20 Y20
;TYPE:SKIRT
G1 F2400 E0
G1 F1800 X136.003 Y135.017 E0.02381
G1 X136.585 Y134.602 E0.04758
G1 X137.21 Y134.253 E0.07139
G1 X137.87 Y133.977 E0.09519
G1 X138.556 Y133.776 E0.11896
G1 X139.261 Y133.653 E0.14277
G1 X140.009 Y133.609 E0.16769
G1 X159.991 Y133.61 E0.83229
G1 X160.705 Y133.65 E0.85608
G1 X161.411 Y133.769 E0.87989
G1 X162.098 Y133.967 E0.90367
G1 X162.759 Y134.24 E0.92745
G1 X163.386 Y134.585 E0.95126
G1 X163.97 Y134.997 E0.97503
G1 X164.505 Y135.473 E0.99885
G1 X164.983 Y136.005 E1.02263
G1 X165.398 Y136.587 E1.04641
G1 X165.747 Y137.211 E1.07019
G1 X166.023 Y137.871 E1.09398
G1 X166.224 Y138.558 E1.11779
G1 X166.347 Y139.262 E1.14156
G1 X166.391 Y140.01 E1.16648
G1 X166.391 Y159.991 E1.83105
G1 X166.351 Y160.705 E1.85484
G1 X166.232 Y161.41 E1.87862
G1 X166.034 Y162.098 E1.90243
G1 X165.761 Y162.759 E1.92621
G1 X165.417 Y163.386 E1.95
G1 X165.004 Y163.97 E1.97379
G1 X164.529 Y164.504 E1.99756
G1 X163.997 Y164.983 E2.02137
G1 X163.415 Y165.398 E2.04515
G1 X162.79 Y165.747 E2.06896
G1 X162.13 Y166.023 E2.09275
G1 X161.444 Y166.224 E2.11653
G1 X160.739 Y166.347 E2.14033
G1 X159.991 Y166.391 E2.16525
G1 X140.009 Y166.391 E2.82985
G1 X139.295 Y166.351 E2.85364
G1 X138.59 Y166.232 E2.87742
G1 X137.902 Y166.034 E2.90123
G1 X137.241 Y165.761 E2.92502
G1 X136.614 Y165.417 E2.9488
G1 X136.03 Y165.004 E2.97259
G1 X135.496 Y164.529 E2.99636
G1 X135.017 Y163.997 E3.02017
G1 X134.602 Y163.415 E3.04395
G1 X134.253 Y162.79 E3.06776
G1 X133.977 Y162.13 E3.09155
G1 X133.776 Y161.444 E3.11533
G1 X133.653 Y160.739 E3.13913
G1 X133.609 Y159.991 E3.16405
G1 X133.609 Y140.009 E3.82866
G1 X133.649 Y139.295 E3.85244
G1 X133.768 Y138.59 E3.87622
G1 X133.966 Y137.902 E3.90003
G1 X134.239 Y137.241 E3.92382
G1 X134.583 Y136.614 E3.9476
G1 X134.996 Y136.03 E3.97139
G1 X135.471 Y135.496 E3.99517
M204 S5000
M205 X30 Y30
G0 F3600 X135.865 Y135.67
M204 S500
M205 X20 Y20
G1 F1800 X136.393 Y135.221 E4.01822
G1 X136.968 Y134.836 E4.04123
G1 X137.585 Y134.521 E4.06428
G1 X138.233 Y134.278 E4.08729
G1 X138.906 Y134.111 E4.11036
G1 X139.592 Y134.023 E4.13336
G1 X140.009 Y134.009 E4.14724
G1 X159.991 Y134.01 E4.81184
G1 X160.683 Y134.05 E4.8349
G1 X161.365 Y134.169 E4.85792
G1 X162.029 Y134.367 E4.88097
G1 X162.665 Y134.639 E4.90397
G1 X163.266 Y134.983 E4.92701
G1 X163.824 Y135.394 E4.95006
G1 X164.33 Y135.866 E4.97307
G1 X164.779 Y136.394 E4.99612
G1 X165.164 Y136.97 E5.01917
G1 X165.48 Y137.586 E5.04219
G1 X165.722 Y138.235 E5.06523
G1 X165.889 Y138.907 E5.08826
G1 X165.977 Y139.594 E5.1113
G1 X165.991 Y140.01 E5.12514
G1 X165.991 Y159.991 E5.78971
G1 X165.951 Y160.682 E5.81273
G1 X165.832 Y161.365 E5.83579
G1 X165.634 Y162.028 E5.85881
G1 X165.362 Y162.665 E5.88184
G1 X165.018 Y163.266 E5.90488
G1 X164.607 Y163.824 E5.92793
G1 X164.135 Y164.33 E5.95094
G1 X163.607 Y164.779 E5.97399
G1 X163.032 Y165.164 E5.99701
G1 X162.415 Y165.479 E6.02005
G1 X161.767 Y165.722 E6.04307
G1 X161.094 Y165.889 E6.06613
G1 X160.408 Y165.977 E6.08914
G1 X159.991 Y165.991 E6.10301
G1 X140.009 Y165.991 E6.76762
G1 X139.318 Y165.951 E6.79064
G1 X138.635 Y165.832 E6.8137
G1 X137.972 Y165.634 E6.83671
G1 X137.335 Y165.362 E6.85975
G1 X136.734 Y165.018 E6.88278
G1 X136.176 Y164.607 E6.90583
G1 X135.67 Y164.135 E6.92885
G1 X135.221 Y163.607 E6.9519
G1 X134.836 Y163.032 E6.97491
G1 X134.521 Y162.415 E6.99796
G1 X134.278 Y161.767 E7.02097
G1 X134.111 Y161.094 E7.04404
G1 X134.023 Y160.408 E7.06704
G1 X134.009 Y159.991 E7.08092
G1 X134.009 Y140.009 E7.74552
G1 X134.049 Y139.318 E7.76854
G1 X134.168 Y138.635 E7.7916
G1 X134.366 Y137.972 E7.81461
G1 X134.638 Y137.335 E7.83765
G1 X134.982 Y136.734 E7.86068
G1 X135.393 Y136.176 E7.88373
G1 X135.865 Y135.67 E7.90675
M204 S5000
M205 X30 Y30
G0 F3600 X136.258 Y135.851
M204 S500
M205 X20 Y20
G1 F1800 X136.78 Y135.433 E7.92899
G1 X137.349 Y135.081 E7.95125
G1 X137.956 Y134.799 E7.97351
G1 X138.592 Y134.591 E7.99576
G1 X139.248 Y134.461 E8.01801
G1 X140.009 Y134.409 E8.04338
G1 X159.991 Y134.41 E8.70798
G1 X160.659 Y134.45 E8.73024
G1 X161.317 Y134.569 E8.75248
G1 X161.957 Y134.766 E8.77475
G1 X162.568 Y135.038 E8.79699
G1 X163.143 Y135.381 E8.81926
G1 X163.672 Y135.79 E8.8415
G1 X164.149 Y136.259 E8.86375
G1 X164.567 Y136.782 E8.88602
G1 X164.919 Y137.35 E8.90825
G1 X165.201 Y137.957 E8.93051
G1 X165.409 Y138.593 E8.95276
G1 X165.539 Y139.249 E8.97501
G1 X165.591 Y140.01 E9.00038
G1 X165.591 Y159.991 E9.66495
G1 X165.551 Y160.659 E9.6872
G1 X165.432 Y161.317 E9.70944
G1 X165.235 Y161.957 E9.73172
G1 X164.963 Y162.568 E9.75396
G1 X164.62 Y163.142 E9.7762
G1 X164.211 Y163.672 E9.79847
G1 X163.742 Y164.149 E9.82072
G1 X163.22 Y164.567 E9.84296
G1 X162.651 Y164.919 E9.86521
G1 X162.044 Y165.201 E9.88747
G1 X161.408 Y165.409 E9.90973
G1 X160.752 Y165.539 E9.93197
G1 X159.991 Y165.591 E9.95734
G1 X140.009 Y165.591 E10.62195
G1 X139.341 Y165.551 E10.6442
G1 X138.683 Y165.432 E10.66645
G1 X138.043 Y165.235 E10.68872
G1 X137.432 Y164.963 E10.71096
G1 X136.858 Y164.62 E10.7332
G1 X136.328 Y164.211 E10.75547
G1 X135.851 Y163.742 E10.77772
G1 X135.433 Y163.22 E10.79996
G1 X135.081 Y162.651 E10.82221
G1 X134.799 Y162.044 E10.84447
G1 X134.591 Y161.408 E10.86673
G1 X134.461 Y160.752 E10.88897
G1 X134.409 Y159.991 E10.91434
G1 X134.409 Y140.009 E11.57895
G1 X134.449 Y139.341 E11.60121
G1 X134.568 Y138.683 E11.62345
G1 X134.765 Y138.043 E11.64572
G1 X135.037 Y137.432 E11.66796
G1 X135.38 Y136.858 E11.6902
G1 X135.789 Y136.328 E11.71247
G1 X136.258 Y135.851 E11.73472
M204 S5000
M205 X30 Y30
G0 F3600 X136.184 Y136.486
M204 S500
M205 X20 Y20
G1 F1800 X136.649 Y136.04 E11.75615
G1 X137.166 Y135.655 E11.77759
G1 X137.727 Y135.336 E11.79905
G1 X138.323 Y135.09 E11.8205
G1 X138.944 Y134.919 E11.84192
G1 X139.582 Y134.827 E11.86336
G1 X140.009 Y134.809 E11.87758
G1 X159.991 Y134.81 E12.54218
G1 X160.635 Y134.85 E12.56364
G1 X161.268 Y134.969 E12.58506
G1 X161.882 Y135.166 E12.60651
G1 X162.467 Y135.437 E12.62795
G1 X163.014 Y135.779 E12.64941
G1 X163.514 Y136.185 E12.67083
G1 X163.96 Y136.651 E12.69229
G1 X164.345 Y137.168 E12.71373
G1 X164.664 Y137.728 E12.73516
G1 X164.91 Y138.324 E12.75661
G1 X165.081 Y138.946 E12.77806
G1 X165.173 Y139.584 E12.7995
G1 X165.191 Y140.01 E12.81368
G1 X165.191 Y159.991 E13.47825
G1 X165.151 Y160.634 E13.49968
G1 X165.032 Y161.268 E13.52114
G1 X164.835 Y161.882 E13.54258
G1 X164.564 Y162.467 E13.56403
G1 X164.222 Y163.014 E13.58548
G1 X163.816 Y163.514 E13.60691
G1 X163.351 Y163.96 E13.62834
G1 X162.834 Y164.345 E13.64977
G1 X162.273 Y164.664 E13.67124
G1 X161.677 Y164.91 E13.69268
G1 X161.056 Y165.081 E13.71411
G1 X160.418 Y165.173 E13.73555
G1 X159.991 Y165.191 E13.74976
G1 X140.009 Y165.191 E14.41437
G1 X139.366 Y165.151 E14.43579
G1 X138.732 Y165.032 E14.45725
G1 X138.118 Y164.835 E14.4787
G1 X137.533 Y164.564 E14.50014
G1 X136.986 Y164.222 E14.5216
G1 X136.486 Y163.816 E14.54302
G1 X136.04 Y163.351 E14.56445
G1 X135.655 Y162.834 E14.58589
G1 X135.336 Y162.273 E14.60735
G1 X135.09 Y161.677 E14.6288
G1 X134.919 Y161.056 E14.65022
G1 X134.827 Y160.418 E14.67166
G1 X134.809 Y159.991 E14.68588
G1 X134.809 Y140.009 E15.35048
G1 X134.849 Y139.366 E15.37191
G1 X134.968 Y138.732 E15.39336
G1 X135.165 Y138.118 E15.41481
G1 X135.436 Y137.533 E15.43625
G1 X135.778 Y136.986 E15.45771
G1 X136.184 Y136.486 E15.47913
M204 S5000
M205 X30 Y30
G1 F2400 E10.47913
G1 F300 Z0.7
G0 F3600 X158.2 Y158.2 Z0.7
M204 S500
M205 X20 Y20
;TYPE:WALL-INNER
G1 F300 Z0.2
G1 F2400 E15.47913
G1 F1800 X141.8 Y158.2 E16.0246
G1 X141.8 Y141.8 E16.57006
G1 X158.2 Y141.8 E17.11553
G1 X158.2 Y158.2 E17.661
M204 S5000
M205 X30 Y30
G0 F3600 X158.6 Y158.6
M204 S500
M205 X20 Y20
G1 F1800 X141.4 Y158.6 E18.23307
G1 X141.4 Y141.4 E18.80514
G1 X158.6 Y141.4 E19.37722
G1 X158.6 Y158.6 E19.94929
M204 S5000
M205 X30 Y30
G0 F3600 X159 Y159
M204 S500
M205 X20 Y20
G1 F1800 X141 Y159 E20.54798
G1 X141 Y141 E21.14666
G1 X159 Y141 E21.74534
G1 X159 Y159 E22.34402
M204 S5000
M205 X30 Y30
G0 F3600 X159.4 Y159.4
M204 S500
M205 X20 Y20
G1 F1800 X140.6 Y159.4 E22.96931
G1 X140.6 Y140.6 E23.5946
G1 X159.4 Y140.6 E24.21989
G1 X159.4 Y159.4 E24.84519
M204 S5000
M205 X30 Y30
G0 F3600 X159.8 Y159.8
M204 S500
M205 X20 Y20
;TYPE:WALL-OUTER
G1 F1800 X140.2 Y159.8 E25.49708
G1 X140.2 Y140.2 E26.14898
G1 X159.8 Y140.2 E26.80088
G1 X159.8 Y159.8 E27.45278
M204 S5000
M205 X30 Y30
G0 F3600 X159.6 Y159.8
G0 X159.33 Y159.33
G0 X157.81 Y157.81
M204 S500
M205 X20 Y20
;TYPE:SKIN
G1 F1800 X142.19 Y157.81 E27.9723
G1 X142.19 Y142.19 E28.49183
G1 X157.81 Y142.19 E29.01135
G1 X157.81 Y157.81 E29.53087
M204 S5000
M205 X30 Y30
G0 F3600 X150.21 Y150.21
M204 S500
M205 X20 Y20
G1 F1800 X149.79 Y150.21 E29.54484
G1 X149.79 Y149.79 E29.55881
G1 X150.21 Y149.79 E29.57278
G1 X150.21 Y150.21 E29.58675
M204 S5000
M205 X30 Y30
G0 F3600 X150.61 Y150.61
M204 S500
M205 X20 Y20
G1 F1800 X149.39 Y150.61 E29.62733
G1 X149.39 Y149.39 E29.6679
G1 X150.61 Y149.39 E29.70848
G1 X150.61 Y150.61 E29.74906
M204 S5000
M205 X30 Y30
G0 F3600 X151.01 Y151.01
M204 S500
M205 X20 Y20
G1 F1800 X148.99 Y151.01 E29.81625
G1 X148.99 Y148.99 E29.88343
G1 X151.01 Y148.99 E29.95062
G1 X151.01 Y151.01 E30.0178
M204 S5000
M205 X30 Y30
G0 F3600 X151.41 Y151.41
M204 S500
M205 X20 Y20
G1 F1800 X148.59 Y151.41 E30.1116
G1 X148.59 Y148.59 E30.20539
G1 X151.41 Y148.59 E30.29918
G1 X151.41 Y151.41 E30.39298
M204 S5000
M205 X30 Y30
G0 F3600 X151.81 Y151.81
M204 S500
M205 X20 Y20
G1 F1800 X148.19 Y151.81 E30.51338
G1 X148.19 Y148.19 E30.63378
G1 X151.81 Y148.19 E30.75418
G1 X151.81 Y151.81 E30.87458
M204 S5000
M205 X30 Y30
G0 F3600 X152.21 Y152.21
M204 S500
M205 X20 Y20
G1 F1800 X147.79 Y152.21 E31.02159
G1 X147.79 Y147.79 E31.1686
G1 X152.21 Y147.79 E31.31561
G1 X152.21 Y152.21 E31.46262
M204 S5000
M205 X30 Y30
G0 F3600 X152.61 Y152.61
M204 S500
M205 X20 Y20
G1 F1800 X147.39 Y152.61 E31.63624
G1 X147.39 Y147.39 E31.80986
G1 X152.61 Y147.39 E31.98348
G1 X152.61 Y152.61 E32.15709
M204 S5000
M205 X30 Y30
G0 F3600 X153.01 Y153.01
M204 S500
M205 X20 Y20
G1 F1800 X146.99 Y153.01 E32.35732
G1 X146.99 Y146.99 E32.55755
G1 X153.01 Y146.99 E32.75777
G1 X153.01 Y153.01 E32.958
M204 S5000
M205 X30 Y30
G0 F3600 X153.41 Y153.41
M204 S500
M205 X20 Y20
G1 F1800 X146.59 Y153.41 E33.18483
G1 X146.59 Y146.59 E33.41167
G1 X153.41 Y146.59 E33.6385
G1 X153.41 Y153.41 E33.86533
M204 S5000
M205 X30 Y30
G0 F3600 X153.81 Y153.81
M204 S500
M205 X20 Y20
G1 F1800 X146.19 Y153.81 E34.11878
G1 X146.19 Y146.19 E34.37222
G1 X153.81 Y146.19 E34.62566
G1 X153.81 Y153.81 E34.8791
M204 S5000
M205 X30 Y30
G0 F3600 X154.21 Y154.21
M204 S500
M205 X20 Y20
G1 F1800 X145.79 Y154.21 E35.15915
G1 X145.79 Y145.79 E35.4392
G1 X154.21 Y145.79 E35.71925
G1 X154.21 Y154.21 E35.9993
M204 S5000
M205 X30 Y30
G0 F3600 X154.61 Y154.61
M204 S500
M205 X20 Y20
G1 F1800 X145.39 Y154.61 E36.30596
G1 X145.39 Y145.39 E36.61262
G1 X154.61 Y145.39 E36.91928
G1 X154.61 Y154.61 E37.22594
M204 S5000
M205 X30 Y30
G0 F3600 X155.01 Y155.01
M204 S500
M205 X20 Y20
G1 F1800 X144.99 Y155.01 E37.5592
G1 X144.99 Y144.99 E37.89247
G1 X155.01 Y144.99 E38.22574
G1 X155.01 Y155.01 E38.559
M204 S5000
M205 X30 Y30
G0 F3600 X155.41 Y155.41
M204 S500
M205 X20 Y20
G1 F1800 X144.59 Y155.41 E38.91888
G1 X144.59 Y144.59 E39.27875
G1 X155.41 Y144.59 E39.63863
G1 X155.41 Y155.41 E39.9985
M204 S5000
M205 X30 Y30
G0 F3600 X155.81 Y155.81
M204 S500
M205 X20 Y20
G1 F1800 X144.19 Y155.81 E40.38499
G1 X144.19 Y144.19 E40.77147
G1 X155.81 Y144.19 E41.15795
G1 X155.81 Y155.81 E41.54443
M204 S5000
M205 X30 Y30
G0 F3600 X156.21 Y156.21
M204 S500
M205 X20 Y20
G1 F1800 X143.79 Y156.21 E41.95752
G1 X143.79 Y143.79 E42.37062
G1 X156.21 Y143.79 E42.78371
G1 X156.21 Y156.21 E43.1968
M204 S5000
M205 X30 Y30
G0 F3600 X156.61 Y156.61
M204 S500
M205 X20 Y20
G1 F1800 X143.39 Y156.61 E43.6365
G1 X143.39 Y143.39 E44.0762
G1 X156.61 Y143.39 E44.51589
G1 X156.61 Y156.61 E44.95559
M204 S5000
M205 X30 Y30
G0 F3600 X157.01 Y157.01
M204 S500
M205 X20 Y20
G1 F1800 X142.99 Y157.01 E45.4219
G1 X142.99 Y142.99 E45.88821
G1 X157.01 Y142.99 E46.35451
G1 X157.01 Y157.01 E46.82082
M204 S5000
M205 X30 Y30
G0 F3600 X157.41 Y157.41
M204 S500
M205 X20 Y20
G1 F1800 X142.59 Y157.41 E47.31374
G1 X142.59 Y142.59 E47.80665
G1 X157.41 Y142.59 E48.29957
G1 X157.41 Y157.41 E48.79248
M204 S5000
M205 X30 Y30
G0 F3600 X158.2 Y158.2
;TIME_ELAPSED:60.643998
;LAYER:1
M140 S35
M106 S255
G0 F5400 X158.2 Y158.2 Z0.4
M204 S500
M205 X20 Y20
;TYPE:WALL-INNER
G1 F2700 X141.8 Y158.2 E49.33795
G1 X141.8 Y141.8 E49.88341
G1 X158.2 Y141.8 E50.42888
G1 X158.2 Y158.2 E50.97435
M204 S5000
M205 X30 Y30
G0 F5400 X158.6 Y158.6
M204 S500
M205 X20 Y20
G1 F2700 X141.4 Y158.6 E51.54642
G1 X141.4 Y141.4 E52.1185
G1 X158.6 Y141.4 E52.69057
G1 X158.6 Y158.6 E53.26264
M204 S5000
M205 X30 Y30
G0 F5400 X159 Y159
M204 S500
M205 X20 Y20
G1 F2700 X141 Y159 E53.86133
G1 X141 Y141 E54.46001
G1 X159 Y141 E55.05869
G1 X159 Y159 E55.65737
M204 S5000
M205 X30 Y30
G0 F5400 X159.4 Y159.4
M204 S500
M205 X20 Y20
G1 F2700 X140.6 Y159.4 E56.28266
G1 X140.6 Y140.6 E56.90796
G1 X159.4 Y140.6 E57.53325
G1 X159.4 Y159.4 E58.15854
M204 S5000
M205 X30 Y30
G0 F5400 X159.8 Y159.8
M204 S500
M205 X20 Y20
;TYPE:WALL-OUTER
G1 F2100 X140.2 Y159.8 E58.81044
G1 X140.2 Y140.2 E59.46233
G1 X159.8 Y140.2 E60.11423
G1 X159.8 Y159.8 E60.76613
M204 S5000
M205 X30 Y30
G0 F5400 X159.6 Y159.8
G0 X159.33 Y159.33
G0 X157.81 Y157.81
M204 S500
M205 X20 Y20
;TYPE:SKIN
G1 F1800 X142.19 Y157.81 E61.28565
G1 X142.19 Y142.19 E61.80518
G1 X157.81 Y142.19 E62.3247
G1 X157.81 Y157.81 E62.84422
M204 S5000
M205 X30 Y30
G0 F5400 X150.21 Y150.21
M204 S500
M205 X20 Y20
G1 F1800 X149.79 Y150.21 E62.85819
G1 X149.79 Y149.79 E62.87216
G1 X150.21 Y149.79 E62.88613
G1 X150.21 Y150.21 E62.9001
M204 S5000
M205 X30 Y30
G0 F5400 X150.61 Y150.61
M204 S500
M205 X20 Y20
G1 F1800 X149.39 Y150.61 E62.94068
G1 X149.39 Y149.39 E62.98126
G1 X150.61 Y149.39 E63.02183
G1 X150.61 Y150.61 E63.06241
M204 S5000
M205 X30 Y30
G0 F5400 X151.01 Y151.01
M204 S500
M205 X20 Y20
G1 F1800 X148.99 Y151.01 E63.1296
G1 X148.99 Y148.99 E63.19678
G1 X151.01 Y148.99 E63.26397
G1 X151.01 Y151.01 E63.33115
M204 S5000
M205 X30 Y30
G0 F5400 X151.41 Y151.41
M204 S500
M205 X20 Y20
G1 F1800 X148.59 Y151.41 E63.42495
G1 X148.59 Y148.59 E63.51874
G1 X151.41 Y148.59 E63.61253
G1 X151.41 Y151.41 E63.70633
M204 S5000
M205 X30 Y30
G0 F5400 X151.81 Y151.81
M204 S500
M205 X20 Y20
G1 F1800 X148.19 Y151.81 E63.82673
G1 X148.19 Y148.19 E63.94713
G1 X151.81 Y148.19 E64.06753
G1 X151.81 Y151.81 E64.18793
M204 S5000
M205 X30 Y30
G0 F5400 X152.21 Y152.21
M204 S500
M205 X20 Y20
G1 F1800 X147.79 Y152.21 E64.33494
G1 X147.79 Y147.79 E64.48195
G1 X152.21 Y147.79 E64.62896
G1 X152.21 Y152.21 E64.77597
M204 S5000
M205 X30 Y30
G0 F5400 X152.61 Y152.61
M204 S500
M205 X20 Y20
G1 F1800 X147.39 Y152.61 E64.94959
G1 X147.39 Y147.39 E65.12321
G1 X152.61 Y147.39 E65.29683
G1 X152.61 Y152.61 E65.47044
M204 S5000
M205 X30 Y30
G0 F5400 X153.01 Y153.01
M204 S500
M205 X20 Y20
G1 F1800 X146.99 Y153.01 E65.67067
G1 X146.99 Y146.99 E65.8709
G1 X153.01 Y146.99 E66.07112
G1 X153.01 Y153.01 E66.27135
M204 S5000
M205 X30 Y30
G0 F5400 X153.41 Y153.41
M204 S500
M205 X20 Y20
G1 F1800 X146.59 Y153.41 E66.49818
G1 X146.59 Y146.59 E66.72502
G1 X153.41 Y146.59 E66.95185
G1 X153.41 Y153.41 E67.17869
M204 S5000
M205 X30 Y30
G0 F5400 X153.81 Y153.81
M204 S500
M205 X20 Y20
G1 F1800 X146.19 Y153.81 E67.43213
G1 X146.19 Y146.19 E67.68557
G1 X153.81 Y146.19 E67.93901
G1 X153.81 Y153.81 E68.19245
M204 S5000
M205 X30 Y30
G0 F5400 X154.21 Y154.21
M204 S500
M205 X20 Y20
G1 F1800 X145.79 Y154.21 E68.4725
G1 X145.79 Y145.79 E68.75255
G1 X154.21 Y145.79 E69.03261
G1 X154.21 Y154.21 E69.31266
M204 S5000
M205 X30 Y30
G0 F5400 X154.61 Y154.61
M204 S500
M205 X20 Y20
